;FLAVOR:Marlin
;TIME:4666
;Filament used: 4.76353m
;Layer height: 0.2
;Generated with Cura_SteamEngine 4.0.0
M140 S60
M105
M190 S60
M104 S200
M105
M109 S200
M82 ;absolute extrusion mode
; Ender 3 Custom Start G-code
G28 ; Home all axes
G92 E0 ; Reset Extruder
G1 Z2.0 F3000 ; Move Z Axis up little to prevent scratching of Heat Bed
G1 X0.1 Y20 Z0.3 F5000.0 ; Move to start position
G1 X0.1 Y200.0 Z0.3 F1500.0 E15 ; Draw the first line
G1 X0.4 Y200.0 Z0.3 F5000.0 ; Move to side a little
G1 X0.4 Y20 Z0.3 F1500.0 E30 ; Draw the second line
G92 E0 ; Reset Extruder
G1 Z2.0 F3000 ; Move Z Axis up little to prevent scratching of Heat Bed
; End of custom start GCode
G92 E0
G1 F2400 E-5
;LAYER_COUNT:76
;LAYER:0
M107
M204 S5000
M205 X30 Y30
G0 F3600 X67.029 Y99.136 Z0.2
M204 S500
M205 X20 Y20
;TYPE:SKIRT
G1 F2400 E0
G1 F1800 X67.651 Y98.782 E0.0238
G1 X68.308 Y98.499 E0.0476
G1 X68.992 Y98.291 E0.07138
G1 X69.695 Y98.161 E0.09515
G1 X70.505 Y98.11 E0.12215
G1 X105.491 Y98.11 E1.28579
G1 X106.326 Y98.165 E1.31362
G1 X112.505 Y98.978 E1.5209
G1 X117.798 Y99.354 E1.69739
G1 X121.868 Y99.441 E1.83279
G1 X161.14 Y99.452 E3.13899
G1 X161.854 Y99.492 E3.16277
G1 X162.559 Y99.612 E3.18656
G1 X163.247 Y99.809 E3.21036
G1 X163.908 Y100.082 E3.23415
G1 X164.534 Y100.427 E3.25792
G1 X165.118 Y100.84 E3.28171
G1 X165.653 Y101.316 E3.30553
G1 X166.131 Y101.848 E3.32931
G1 X166.546 Y102.43 E3.35309
G1 X166.894 Y103.055 E3.37688
G1 X167.171 Y103.715 E3.40069
G1 X167.371 Y104.401 E3.42445
G1 X167.494 Y105.106 E3.44826
G1 X167.538 Y105.852 E3.47311
G1 X167.538 Y155.832 E5.13545
G1 X167.498 Y156.546 E5.15924
G1 X167.379 Y157.251 E5.18302
G1 X167.181 Y157.939 E5.20683
G1 X166.908 Y158.6 E5.23062
G1 X166.564 Y159.227 E5.2544
G1 X166.151 Y159.811 E5.27819
G1 X165.676 Y160.345 E5.30196
G1 X165.144 Y160.824 E5.32577
G1 X164.562 Y161.239 E5.34955
G1 X163.937 Y161.588 E5.37336
G1 X163.277 Y161.864 E5.39715
G1 X162.591 Y162.065 E5.42093
G1 X161.886 Y162.188 E5.44473
G1 X161.138 Y162.232 E5.46965
G1 X111.144 Y162.23 E7.13246
G1 X110.222 Y162.163 E7.16321
G1 X106.808 Y161.666 E7.27795
G1 X101.513 Y161.138 E7.45494
G1 X96.176 Y160.91 E7.63261
G1 X70.499 Y160.89 E8.48663
G1 X69.785 Y160.849 E8.51042
G1 X69.08 Y160.73 E8.5342
G1 X68.392 Y160.532 E8.55801
G1 X67.731 Y160.258 E8.58181
G1 X67.105 Y159.913 E8.60558
G1 X66.521 Y159.5 E8.62937
G1 X65.904 Y158.94 E8.65709
G1 X61.741 Y154.636 E8.85624
G1 X60.806 Y153.71 E8.90001
G1 X60.327 Y153.179 E8.9238
G1 X59.91 Y152.598 E8.94758
G1 X59.561 Y151.974 E8.97136
G1 X59.283 Y151.315 E8.99515
G1 X59.081 Y150.629 E9.01894
G1 X58.956 Y149.924 E9.04275
G1 X58.911 Y149.164 E9.06807
G1 X58.911 Y139.524 E9.3887
G1 X59.02 Y128.179 E9.76605
G1 X58.961 Y126.073 E9.83613
G1 X58.958 Y125.913 E9.84145
G1 X58.91 Y109.858 E10.37544
G1 X58.948 Y109.144 E10.39923
G1 X59.065 Y108.438 E10.42303
G1 X59.26 Y107.75 E10.44681
G1 X59.531 Y107.088 E10.4706
G1 X59.874 Y106.461 E10.49437
G1 X60.285 Y105.875 E10.51818
G1 X60.607 Y105.498 E10.53467
G1 X60.679 Y105.42 E10.5382
G1 X60.801 Y105.292 E10.54408
G1 X65.924 Y100.041 E10.78808
G1 X66.451 Y99.557 E10.81188
G1 X67.029 Y99.136 E10.83566
M204 S5000
M205 X30 Y30
G0 F3600 X67.284 Y99.448
M204 S500
M205 X20 Y20
G1 F1800 X67.888 Y99.111 E10.85867
G1 X68.528 Y98.845 E10.88172
G1 X69.194 Y98.655 E10.90476
G1 X69.877 Y98.543 E10.92778
G1 X70.505 Y98.51 E10.94869
G1 X105.491 Y98.51 E12.11233
G1 X106.274 Y98.561 E12.13843
G1 X112.476 Y99.377 E12.34649
G1 X117.78 Y99.754 E12.52334
G1 X121.86 Y99.841 E12.65907
G1 X161.14 Y99.852 E13.96553
G1 X161.831 Y99.892 E13.98855
G1 X162.513 Y100.012 E14.01159
G1 X163.177 Y100.209 E14.03462
G1 X163.814 Y100.482 E14.05767
G1 X164.415 Y100.826 E14.0807
G1 X164.972 Y101.237 E14.10373
G1 X165.478 Y101.709 E14.12674
G1 X165.927 Y102.237 E14.1498
G1 X166.311 Y102.813 E14.17282
G1 X166.627 Y103.429 E14.19585
G1 X166.87 Y104.078 E14.2189
G1 X167.036 Y104.75 E14.24192
G1 X167.124 Y105.437 E14.26496
G1 X167.138 Y105.852 E14.27877
G1 X167.138 Y155.832 E15.94111
G1 X167.098 Y156.523 E15.96413
G1 X166.979 Y157.206 E15.98719
G1 X166.781 Y157.869 E16.0102
G1 X166.509 Y158.506 E16.03324
G1 X166.165 Y159.107 E16.05627
G1 X165.754 Y159.665 E16.07932
G1 X165.282 Y160.171 E16.10234
G1 X164.754 Y160.62 E16.12539
G1 X164.179 Y161.005 E16.1484
G1 X163.562 Y161.32 E16.17145
G1 X162.914 Y161.563 E16.19446
G1 X162.241 Y161.73 E16.21753
G1 X161.555 Y161.818 E16.24053
G1 X161.138 Y161.832 E16.25441
G1 X111.144 Y161.83 E17.91722
G1 X110.28 Y161.767 E17.94603
G1 X106.862 Y161.27 E18.06091
G1 X101.553 Y160.74 E18.23836
G1 X96.169 Y160.51 E18.4176
G1 X70.499 Y160.49 E19.27139
G1 X69.808 Y160.449 E19.29441
G1 X69.126 Y160.33 E19.31744
G1 X68.462 Y160.132 E19.34048
G1 X67.826 Y159.859 E19.3635
G1 X67.225 Y159.515 E19.38653
G1 X66.668 Y159.103 E19.40958
G1 X66.192 Y158.662 E19.43116
G1 X62.027 Y154.357 E19.63039
G1 X61.088 Y153.426 E19.67437
G1 X60.625 Y152.911 E19.6974
G1 X60.224 Y152.346 E19.72044
G1 X59.892 Y151.739 E19.74346
G1 X59.631 Y151.097 E19.76651
G1 X59.446 Y150.43 E19.78953
G1 X59.339 Y149.745 E19.81259
G1 X59.311 Y149.164 E19.83193
G1 X59.311 Y139.528 E20.15243
G1 X59.42 Y128.198 E20.52928
G1 X59.36 Y126.062 E20.60036
G1 X59.358 Y125.912 E20.60534
G1 X59.31 Y109.857 E21.13934
G1 X59.348 Y109.165 E21.16239
G1 X59.465 Y108.483 E21.1854
G1 X59.66 Y107.818 E21.20845
G1 X59.931 Y107.181 E21.23148
G1 X60.273 Y106.579 E21.25451
G1 X60.901 Y105.769 E21.2886
G1 X60.973 Y105.691 E21.29213
G1 X61.087 Y105.571 E21.29763
G1 X66.21 Y100.32 E21.54163
G1 X66.722 Y99.853 E21.56468
G1 X67.284 Y99.448 E21.58772
M204 S5000
M205 X30 Y30
G0 F3600 X67.537 Y99.761
M204 S500
M205 X20 Y20
G1 F1800 X68.124 Y99.441 E21.60996
G1 X68.746 Y99.194 E21.63221
G1 X69.392 Y99.022 E21.65445
G1 X70.055 Y98.928 E21.67672
G1 X70.505 Y98.91 E21.6917
G1 X105.491 Y98.91 E22.85534
G1 X106.222 Y98.958 E22.87971
G1 X112.428 Y99.775 E23.0879
G1 X117.764 Y100.154 E23.26582
G1 X121.851 Y100.241 E23.40179
G1 X161.14 Y100.252 E24.70854
G1 X161.807 Y100.292 E24.73077
G1 X162.466 Y100.412 E24.75305
G1 X163.105 Y100.609 E24.77529
G1 X163.716 Y100.881 E24.79753
G1 X164.291 Y101.224 E24.8198
G1 X164.82 Y101.633 E24.84204
G1 X165.297 Y102.102 E24.86429
G1 X165.715 Y102.625 E24.88656
G1 X166.067 Y103.194 E24.90881
G1 X166.349 Y103.8 E24.93104
G1 X166.556 Y104.436 E24.95329
G1 X166.686 Y105.093 E24.97556
G1 X166.738 Y105.852 E25.00087
G1 X166.738 Y155.832 E26.66321
G1 X166.698 Y156.5 E26.68547
G1 X166.579 Y157.158 E26.70771
G1 X166.382 Y157.798 E26.72998
G1 X166.11 Y158.409 E26.75222
G1 X165.767 Y158.983 E26.77446
G1 X165.358 Y159.513 E26.79673
G1 X164.889 Y159.99 E26.81898
G1 X164.367 Y160.408 E26.84122
G1 X163.798 Y160.76 E26.86348
G1 X163.191 Y161.042 E26.88574
G1 X162.555 Y161.25 E26.90799
G1 X161.899 Y161.38 E26.93024
G1 X161.138 Y161.432 E26.95561
G1 X111.144 Y161.43 E28.61841
G1 X110.338 Y161.372 E28.64529
G1 X106.894 Y160.871 E28.76104
G1 X101.575 Y160.341 E28.93883
G1 X96.187 Y160.11 E29.1182
G1 X70.5 Y160.09 E29.97255
G1 X69.832 Y160.05 E29.99481
G1 X69.174 Y159.93 E30.01706
G1 X68.534 Y159.732 E30.03934
G1 X67.923 Y159.46 E30.06158
G1 X67.349 Y159.117 E30.08382
G1 X66.82 Y158.707 E30.10609
G1 X66.479 Y158.384 E30.12171
G1 X62.313 Y154.077 E30.32101
G1 X61.369 Y153.142 E30.3652
G1 X60.923 Y152.643 E30.38746
G1 X60.54 Y152.095 E30.4097
G1 X60.224 Y151.505 E30.43196
G1 X59.981 Y150.882 E30.4542
G1 X59.814 Y150.234 E30.47645
G1 X59.726 Y149.571 E30.4987
G1 X59.711 Y149.164 E30.51225
G1 X59.711 Y139.532 E30.83261
G1 X59.82 Y128.191 E31.20983
G1 X59.76 Y126.051 E31.28103
G1 X59.758 Y125.911 E31.28569
G1 X59.71 Y109.856 E31.81968
G1 X59.748 Y109.188 E31.84194
G1 X59.865 Y108.529 E31.8642
G1 X60.06 Y107.889 E31.88645
G1 X60.33 Y107.277 E31.9087
G1 X60.671 Y106.701 E31.93096
G1 X61.195 Y106.041 E31.95899
G1 X61.267 Y105.963 E31.96252
G1 X61.374 Y105.85 E31.9677
G1 X66.497 Y100.599 E32.2117
G1 X66.992 Y100.149 E32.23395
G1 X67.537 Y99.761 E32.2562
M204 S5000
M205 X30 Y30
G0 F3600 X67.789 Y100.076
M204 S500
M205 X20 Y20
G1 F1800 X68.358 Y99.774 E32.27762
G1 X68.961 Y99.545 E32.29908
G1 X69.587 Y99.392 E32.32051
G1 X70.505 Y99.31 E32.35117
G1 X105.491 Y99.31 E33.5148
G1 X106.169 Y99.354 E33.5374
G1 X112.396 Y100.173 E33.7463
G1 X117.747 Y100.554 E33.92472
G1 X121.843 Y100.641 E34.06099
G1 X161.139 Y100.652 E35.36798
G1 X161.783 Y100.692 E35.38944
G1 X162.416 Y100.812 E35.41087
G1 X163.03 Y101.009 E35.43231
G1 X163.615 Y101.28 E35.45376
G1 X164.162 Y101.622 E35.47521
G1 X164.662 Y102.028 E35.49664
G1 X165.108 Y102.494 E35.51809
G1 X165.493 Y103.011 E35.53953
G1 X165.811 Y103.571 E35.56095
G1 X166.057 Y104.167 E35.58239
G1 X166.228 Y104.789 E35.60385
G1 X166.321 Y105.427 E35.62529
G1 X166.338 Y105.852 E35.63944
G1 X166.338 Y155.832 E37.30178
G1 X166.298 Y156.475 E37.32321
G1 X166.179 Y157.109 E37.34466
G1 X165.982 Y157.723 E37.36611
G1 X165.711 Y158.308 E37.38755
G1 X165.369 Y158.855 E37.40901
G1 X164.963 Y159.355 E37.43043
G1 X164.498 Y159.801 E37.45186
G1 X163.981 Y160.186 E37.4733
G1 X163.42 Y160.505 E37.49477
G1 X162.824 Y160.751 E37.51621
G1 X162.203 Y160.922 E37.53764
G1 X161.565 Y161.014 E37.55908
G1 X161.138 Y161.032 E37.57329
G1 X111.144 Y161.03 E39.2361
G1 X110.395 Y160.976 E39.26107
G1 X106.946 Y160.474 E39.377
G1 X101.595 Y159.941 E39.55585
G1 X96.205 Y159.71 E39.73529
G1 X70.5 Y159.69 E40.59024
G1 X69.857 Y159.65 E40.61167
G1 X69.223 Y159.53 E40.63313
G1 X68.609 Y159.333 E40.65458
G1 X68.025 Y159.061 E40.676
G1 X67.478 Y158.719 E40.69746
G1 X66.767 Y158.105 E40.72871
G1 X62.623 Y153.821 E40.92695
G1 X61.651 Y152.858 E40.97246
G1 X61.222 Y152.377 E40.99389
G1 X60.856 Y151.846 E41.01534
G1 X60.558 Y151.274 E41.0368
G1 X60.334 Y150.67 E41.05822
G1 X60.186 Y150.042 E41.07968
G1 X60.111 Y149.164 E41.10899
G1 X60.111 Y139.536 E41.42922
G1 X60.22 Y128.184 E41.8068
G1 X60.16 Y126.04 E41.87814
G1 X60.158 Y125.91 E41.88247
G1 X60.11 Y109.855 E42.41646
G1 X60.148 Y109.211 E42.43792
G1 X60.265 Y108.577 E42.45936
G1 X60.46 Y107.963 E42.48079
G1 X60.73 Y107.377 E42.50225
G1 X61.07 Y106.829 E42.5237
G1 X61.489 Y106.312 E42.54583
G1 X61.561 Y106.234 E42.54936
G1 X61.66 Y106.13 E42.55414
G1 X66.783 Y100.879 E42.79814
G1 X67.261 Y100.446 E42.81959
G1 X67.789 Y100.076 E42.84103
M204 S5000
M205 X30 Y30
G0 F3600 X69.6 Y109.8
M204 S500
M205 X20 Y20
;TYPE:SUPPORT
G1 F1800 X69.6 Y114.5 E42.99735
G1 X65.616 Y114.5 E43.12986
G1 X65.5 Y114.384 E43.13532
G1 X65.5 Y109.916 E43.28392
G1 X65.616 Y109.8 E43.28938
G1 X69.6 Y109.8 E43.42189
M204 S5000
M205 X30 Y30
G0 F3600 X69.342 Y109.96
M204 S500
M205 X20 Y20
G1 F1800 X69.342 Y114.34 E43.56757
M204 S5000
M205 X30 Y30
G0 F3600 X69.44 Y112.014
M204 S500
M205 X20 Y20
G1 F1800 X65.66 Y112.014 E43.69329
M204 S5000
M205 X30 Y30
G0 F3600 X66.675 Y109.96
M204 S500
M205 X20 Y20
G1 F1800 X66.675 Y114.34 E43.83897
M204 S5000
M205 X30 Y30
G0 F3600 X65.64 Y119.804
M204 S500
M205 X20 Y20
G1 F1800 X69.6 Y119.803 E43.97068
G1 X69.6 Y124.5 E44.1269
G1 X65.616 Y124.5 E44.25941
G1 X65.5 Y124.384 E44.26487
G1 X65.5 Y119.944 E44.41254
G1 X65.64 Y119.804 E44.41913
M204 S5000
M205 X30 Y30
G0 F3600 X65.659 Y120.015
M204 S500
M205 X20 Y20
G1 F1800 X69.439 Y120.015 E44.54485
M204 S5000
M205 X30 Y30
G0 F3600 X69.342 Y119.963
M204 S500
M205 X20 Y20
G1 F1800 X69.342 Y124.34 E44.69043
M204 S5000
M205 X30 Y30
G0 F3600 X69.439 Y122.682
M204 S500
M205 X20 Y20
G1 F1800 X65.659 Y122.682 E44.81616
M204 S5000
M205 X30 Y30
G0 F3600 X66.675 Y124.34
M204 S500
M205 X20 Y20
G1 F1800 X66.675 Y119.963 E44.96174
M204 S5000
M205 X30 Y30
G0 F3600 X65.616 Y134.5
M204 S500
M205 X20 Y20
G1 F1800 X69.6 Y134.5 E45.09424
G1 X69.6 Y139.197 E45.25047
G1 X65.64 Y139.196 E45.38218
G1 X65.5 Y139.056 E45.38876
G1 X65.5 Y134.616 E45.53644
G1 X65.616 Y134.5 E45.54189
M204 S5000
M205 X30 Y30
G0 F3600 X66.675 Y134.66
M204 S500
M205 X20 Y20
G1 F1800 X66.675 Y139.036 E45.68744
M204 S5000
M205 X30 Y30
G0 F3600 X65.659 Y138.684
M204 S500
M205 X20 Y20
G1 F1800 X69.439 Y138.684 E45.81316
M204 S5000
M205 X30 Y30
G0 F3600 X69.342 Y139.036
M204 S500
M205 X20 Y20
G1 F1800 X69.342 Y134.66 E45.95871
M204 S5000
M205 X30 Y30
G0 F3600 X69.439 Y136.017
M204 S500
M205 X20 Y20
G1 F1800 X65.659 Y136.017 E46.08443
M204 S5000
M205 X30 Y30
G0 F3600 X65.616 Y144.5
M204 S500
M205 X20 Y20
G1 F1800 X69.6 Y144.5 E46.21694
G1 X69.6 Y149.2 E46.37326
G1 X65.616 Y149.2 E46.50577
G1 X65.5 Y149.084 E46.51123
G1 X65.5 Y144.616 E46.65983
G1 X65.616 Y144.5 E46.66529
M204 S5000
M205 X30 Y30
G0 F3600 X66.675 Y144.66
M204 S500
M205 X20 Y20
G1 F1800 X66.675 Y149.04 E46.81097
M204 S5000
M205 X30 Y30
G0 F3600 X65.659 Y146.685
M204 S500
M205 X20 Y20
G1 F1800 X69.439 Y146.685 E46.93669
M204 S5000
M205 X30 Y30
G0 F3600 X69.342 Y144.66
M204 S500
M205 X20 Y20
G1 F1800 X69.342 Y149.04 E47.08237
M204 S5000
M205 X30 Y30
G1 F2400 E42.08237
;MESH:v1_body_1.stl
G0 F3600 X71.12 Y149.04
G0 X104.83 Y153.83
G0 X104.9 Y153.9
M204 S500
M205 X20 Y20
;TYPE:WALL-INNER
G1 F2400 E47.08237
G1 F1800 X71.1 Y153.9 E48.20657
G1 X71.1 Y105.1 E49.82966
G1 X104.9 Y105.1 E50.95385
G1 X104.9 Y153.9 E52.57695
M204 S5000
M205 X30 Y30
G0 F3600 X105.3 Y154.3
M204 S500
M205 X20 Y20
;TYPE:WALL-OUTER
G1 F1800 X70.7 Y154.3 E53.72775
G1 X70.7 Y104.7 E55.37745
G1 X105.3 Y104.7 E56.52825
G1 X105.3 Y154.3 E58.17795
M204 S5000
M205 X30 Y30
G0 F3600 X105.1 Y154.3
G0 X104.51 Y153.51
M204 S500
M205 X20 Y20
;TYPE:SKIN
G1 F1800 X71.49 Y153.51 E59.2762
G1 X71.49 Y105.49 E60.87335
G1 X104.51 Y105.49 E61.9716
G1 X104.51 Y153.51 E63.56876
M204 S5000
M205 X30 Y30
G0 F3600 X71.871 Y153.329
M204 S500
M205 X20 Y20
G1 F1800 X71.67 Y153.128 E63.57821
M204 S5000
M205 X30 Y30
G0 F3600 X71.67 Y152.563
M204 S500
M205 X20 Y20
G1 F1800 X72.436 Y153.329 E63.61424
M204 S5000
M205 X30 Y30
G0 F3600 X73.002 Y153.329
M204 S500
M205 X20 Y20
G1 F1800 X71.67 Y151.997 E63.67689
M204 S5000
M205 X30 Y30
G0 F3600 X71.67 Y151.431
M204 S500
M205 X20 Y20
G1 F1800 X73.568 Y153.329 E63.76617
M204 S5000
M205 X30 Y30
G0 F3600 X74.133 Y153.329
M204 S500
M205 X20 Y20
G1 F1800 X71.67 Y150.866 E63.88202
M204 S5000
M205 X30 Y30
G0 F3600 X71.67 Y150.3
M204 S500
M205 X20 Y20
G1 F1800 X74.699 Y153.329 E64.0245
M204 S5000
M205 X30 Y30
G0 F3600 X75.265 Y153.329
M204 S500
M205 X20 Y20
G1 F1800 X71.67 Y149.734 E64.19359
M204 S5000
M205 X30 Y30
G0 F3600 X71.67 Y149.169
M204 S500
M205 X20 Y20
G1 F1800 X75.83 Y153.329 E64.38927
M204 S5000
M205 X30 Y30
G0 F3600 X76.396 Y153.329
M204 S500
M205 X20 Y20
G1 F1800 X71.67 Y148.603 E64.61157
M204 S5000
M205 X30 Y30
G0 F3600 X71.67 Y148.037
M204 S500
M205 X20 Y20
G1 F1800 X76.962 Y153.329 E64.86048
M204 S5000
M205 X30 Y30
G0 F3600 X77.527 Y153.329
M204 S500
M205 X20 Y20
G1 F1800 X71.67 Y147.472 E65.13598
M204 S5000
M205 X30 Y30
G0 F3600 X71.67 Y146.906
M204 S500
M205 X20 Y20
G1 F1800 X78.093 Y153.329 E65.4381
M204 S5000
M205 X30 Y30
G0 F3600 X78.659 Y153.329
M204 S500
M205 X20 Y20
G1 F1800 X71.67 Y146.34 E65.76684
M204 S5000
M205 X30 Y30
G0 F3600 X71.67 Y145.775
M204 S500
M205 X20 Y20
G1 F1800 X79.224 Y153.329 E66.12216
M204 S5000
M205 X30 Y30
G0 F3600 X79.79 Y153.329
M204 S500
M205 X20 Y20
G1 F1800 X71.67 Y145.209 E66.5041
M204 S5000
M205 X30 Y30
G0 F3600 X71.67 Y144.643
M204 S500
M205 X20 Y20
G1 F1800 X80.356 Y153.329 E66.91266
M204 S5000
M205 X30 Y30
G0 F3600 X80.922 Y153.329
M204 S500
M205 X20 Y20
G1 F1800 X71.67 Y144.077 E67.34784
M204 S5000
M205 X30 Y30
G0 F3600 X71.67 Y143.512
M204 S500
M205 X20 Y20
G1 F1800 X81.487 Y153.329 E67.80961
M204 S5000
M205 X30 Y30
G0 F3600 X82.053 Y153.329
M204 S500
M205 X20 Y20
G1 F1800 X71.67 Y142.946 E68.29799
M204 S5000
M205 X30 Y30
G0 F3600 X71.67 Y142.38
M204 S500
M205 X20 Y20
G1 F1800 X82.619 Y153.329 E68.813
M204 S5000
M205 X30 Y30
G0 F3600 X83.184 Y153.329
M204 S500
M205 X20 Y20
G1 F1800 X71.67 Y141.815 E69.35458
M204 S5000
M205 X30 Y30
G0 F3600 X71.67 Y141.249
M204 S500
M205 X20 Y20
G1 F1800 X83.75 Y153.329 E69.92279
M204 S5000
M205 X30 Y30
G0 F3600 X84.316 Y153.329
M204 S500
M205 X20 Y20
G1 F1800 X71.67 Y140.683 E70.51762
M204 S5000
M205 X30 Y30
G0 F3600 X71.67 Y140.118
M204 S500
M205 X20 Y20
G1 F1800 X84.881 Y153.329 E71.13902
M204 S5000
M205 X30 Y30
G0 F3600 X85.447 Y153.329
M204 S500
M205 X20 Y20
