;FLAVOR:Marlin
;TIME:4244
;Filament used: 4.31706m
;Layer height: 0.2
;Generated with Cura_SteamEngine 4.0.0
M140 S60
M105
M190 S60
M104 S200
M105
M109 S200
M82 ;absolute extrusion mode
; Ender 3 Custom Start G-code
G28 ; Home all axes
G92 E0 ; Reset Extruder
G1 Z2.0 F3000 ; Move Z Axis up little to prevent scratching of Heat Bed
G1 X0.1 Y20 Z0.3 F5000.0 ; Move to start position
G1 X0.1 Y200.0 Z0.3 F1500.0 E15 ; Draw the first line
G1 X0.4 Y200.0 Z0.3 F5000.0 ; Move to side a little
G1 X0.4 Y20 Z0.3 F1500.0 E30 ; Draw the second line
G92 E0 ; Reset Extruder
G1 Z2.0 F3000 ; Move Z Axis up little to prevent scratching of Heat Bed
; End of custom start GCode
G92 E0
G1 F2400 E-5
;LAYER_COUNT:76
;LAYER:0
M107
M204 S5000
M205 X30 Y30
G0 F3600 X67.029 Y99.136 Z0.2
M204 S500
M205 X20 Y20
;TYPE:SKIRT
G1 F2400 E0
G1 F1800 X67.651 Y98.782 E0.0238
G1 X68.308 Y98.499 E0.0476
G1 X68.992 Y98.291 E0.07138
G1 X69.695 Y98.161 E0.09515
G1 X70.513 Y98.11 E0.12241
G1 X110.347 Y98.159 E1.4473
G1 X112.674 Y98.102 E1.52472
G1 X112.831 Y98.1 E1.52994
G1 X162.492 Y98.11 E3.18167
G1 X163.206 Y98.15 E3.20546
G1 X163.912 Y98.27 E3.22928
G1 X164.599 Y98.467 E3.25305
G1 X165.26 Y98.74 E3.27683
G1 X165.887 Y99.085 E3.30063
G1 X166.471 Y99.498 E3.32442
G1 X167.005 Y99.973 E3.3482
G1 X167.483 Y100.505 E3.37198
G1 X167.899 Y101.087 E3.39578
G1 X168.247 Y101.712 E3.41957
G1 X168.523 Y102.372 E3.44336
G1 X168.724 Y103.059 E3.46717
G1 X168.847 Y103.763 E3.49094
G1 X168.891 Y104.51 E3.51583
G1 X168.891 Y154.491 E5.1782
G1 X168.851 Y155.205 E5.20199
G1 X168.732 Y155.91 E5.22577
G1 X168.534 Y156.598 E5.24958
G1 X168.261 Y157.259 E5.27337
G1 X167.917 Y157.886 E5.29715
G1 X167.504 Y158.47 E5.32094
G1 X167.029 Y159.004 E5.34471
G1 X166.497 Y159.483 E5.36852
G1 X165.915 Y159.898 E5.3923
G1 X165.29 Y160.247 E5.41611
G1 X164.63 Y160.523 E5.4399
G1 X163.944 Y160.724 E5.46368
G1 X163.239 Y160.847 E5.48748
G1 X162.492 Y160.891 E5.51237
G1 X118.208 Y160.9 E6.98526
G1 X117.997 Y160.897 E6.99228
G1 X112.671 Y160.722 E7.16952
G1 X110.093 Y160.724 E7.25526
G1 X105.755 Y160.886 E7.39965
G1 X105.516 Y160.89 E7.4076
G1 X70.504 Y160.89 E8.5721
G1 X69.79 Y160.85 E8.59588
G1 X69.085 Y160.731 E8.61966
G1 X68.397 Y160.533 E8.64348
G1 X67.736 Y160.26 E8.66726
G1 X67.109 Y159.916 E8.69105
G1 X66.525 Y159.503 E8.71484
G1 X65.904 Y158.94 E8.74272
G1 X61.741 Y154.636 E8.94188
G1 X60.806 Y153.71 E8.98565
G1 X60.327 Y153.179 E9.00943
G1 X59.91 Y152.598 E9.03322
G1 X59.561 Y151.974 E9.057
G1 X59.283 Y151.315 E9.08079
G1 X59.081 Y150.629 E9.10457
G1 X58.956 Y149.924 E9.12839
G1 X58.911 Y149.131 E9.1548
G1 X59.021 Y128.196 E9.85111
G1 X58.961 Y126.073 E9.92175
G1 X58.958 Y125.913 E9.92708
G1 X58.91 Y109.858 E10.46107
G1 X58.948 Y109.144 E10.48485
G1 X59.065 Y108.438 E10.50865
G1 X59.26 Y107.75 E10.53244
G1 X59.531 Y107.088 E10.55623
G1 X59.874 Y106.461 E10.58
G1 X60.285 Y105.875 E10.60381
G1 X60.607 Y105.498 E10.6203
G1 X60.679 Y105.42 E10.62383
G1 X60.801 Y105.292 E10.62971
G1 X65.924 Y100.041 E10.87371
G1 X66.451 Y99.557 E10.89751
G1 X67.029 Y99.136 E10.92129
M204 S5000
M205 X30 Y30
G0 F3600 X67.284 Y99.448
M204 S500
M205 X20 Y20
G1 F1800 X67.888 Y99.111 E10.94429
G1 X68.528 Y98.845 E10.96735
G1 X69.194 Y98.655 E10.99038
G1 X69.877 Y98.543 E11.0134
G1 X70.512 Y98.51 E11.03455
G1 X110.355 Y98.559 E12.35973
G1 X112.683 Y98.502 E12.43719
G1 X112.831 Y98.5 E12.44211
G1 X162.492 Y98.51 E14.09384
G1 X163.184 Y98.55 E14.1169
G1 X163.866 Y98.67 E14.13993
G1 X164.53 Y98.867 E14.16296
G1 X165.166 Y99.139 E14.18597
G1 X165.767 Y99.483 E14.209
G1 X166.325 Y99.894 E14.23205
G1 X166.831 Y100.367 E14.25509
G1 X167.279 Y100.895 E14.27812
G1 X167.664 Y101.47 E14.30114
G1 X167.98 Y102.087 E14.32419
G1 X168.223 Y102.735 E14.34721
G1 X168.389 Y103.408 E14.37027
G1 X168.477 Y104.095 E14.3933
G1 X168.491 Y104.51 E14.40711
G1 X168.491 Y154.491 E16.06949
G1 X168.451 Y155.182 E16.09251
G1 X168.332 Y155.865 E16.11557
G1 X168.134 Y156.528 E16.13858
G1 X167.862 Y157.165 E16.16162
G1 X167.518 Y157.766 E16.18465
G1 X167.107 Y158.324 E16.2077
G1 X166.635 Y158.83 E16.23072
G1 X166.107 Y159.279 E16.25377
G1 X165.532 Y159.664 E16.27679
G1 X164.915 Y159.979 E16.29983
G1 X164.267 Y160.222 E16.32284
G1 X163.594 Y160.389 E16.34591
G1 X162.908 Y160.477 E16.36891
G1 X162.492 Y160.491 E16.38275
G1 X118.208 Y160.5 E17.85565
G1 X118.01 Y160.497 E17.86223
G1 X112.684 Y160.322 E18.03947
G1 X110.078 Y160.324 E18.12615
G1 X105.74 Y160.486 E18.27053
G1 X105.516 Y160.49 E18.27798
G1 X70.504 Y160.49 E19.44249
G1 X69.813 Y160.45 E19.46551
G1 X69.13 Y160.331 E19.48857
G1 X68.467 Y160.133 E19.51158
G1 X67.83 Y159.861 E19.53462
G1 X67.229 Y159.517 E19.55765
G1 X66.671 Y159.106 E19.5807
G1 X66.192 Y158.662 E19.60242
G1 X62.027 Y154.357 E19.80165
G1 X61.088 Y153.426 E19.84563
G1 X60.625 Y152.911 E19.86867
G1 X60.224 Y152.346 E19.89171
G1 X59.892 Y151.739 E19.91472
G1 X59.631 Y151.097 E19.93777
G1 X59.446 Y150.43 E19.96079
G1 X59.339 Y149.745 E19.98385
G1 X59.311 Y149.133 E20.00423
G1 X59.42 Y128.218 E20.69987
G1 X59.36 Y126.062 E20.77161
G1 X59.358 Y125.912 E20.7766
G1 X59.31 Y109.857 E21.31059
G1 X59.348 Y109.165 E21.33364
G1 X59.465 Y108.483 E21.35666
G1 X59.66 Y107.818 E21.37971
G1 X59.931 Y107.181 E21.40273
G1 X60.273 Y106.579 E21.42576
G1 X60.901 Y105.769 E21.45985
G1 X60.973 Y105.691 E21.46338
G1 X61.087 Y105.571 E21.46889
G1 X66.21 Y100.32 E21.71289
G1 X66.722 Y99.853 E21.73593
G1 X67.284 Y99.448 E21.75897
M204 S5000
M205 X30 Y30
G0 F3600 X67.537 Y99.761
M204 S500
M205 X20 Y20
G1 F1800 X68.124 Y99.441 E21.78121
G1 X68.746 Y99.194 E21.80347
G1 X69.392 Y99.022 E21.8257
G1 X70.055 Y98.928 E21.84798
G1 X70.512 Y98.91 E21.86319
G1 X110.365 Y98.959 E23.18871
G1 X112.693 Y98.902 E23.26616
G1 X112.831 Y98.9 E23.27075
G1 X162.492 Y98.91 E24.92248
G1 X163.16 Y98.95 E24.94474
G1 X163.818 Y99.07 E24.96698
G1 X164.458 Y99.267 E24.98926
G1 X165.069 Y99.539 E25.0115
G1 X165.643 Y99.882 E25.03374
G1 X166.173 Y100.29 E25.05599
G1 X166.65 Y100.76 E25.07826
G1 X167.067 Y101.282 E25.10048
G1 X167.42 Y101.851 E25.12275
G1 X167.701 Y102.458 E25.145
G1 X167.909 Y103.094 E25.16726
G1 X168.039 Y103.75 E25.1895
G1 X168.091 Y104.51 E25.21484
G1 X168.091 Y154.491 E26.87721
G1 X168.051 Y155.159 E26.89947
G1 X167.932 Y155.817 E26.92171
G1 X167.735 Y156.457 E26.94398
G1 X167.463 Y157.068 E26.96622
G1 X167.12 Y157.642 E26.98846
G1 X166.711 Y158.172 E27.01073
G1 X166.242 Y158.649 E27.03298
G1 X165.72 Y159.067 E27.05522
G1 X165.151 Y159.419 E27.07748
G1 X164.544 Y159.701 E27.09974
G1 X163.908 Y159.909 E27.12199
G1 X163.252 Y160.039 E27.14424
G1 X162.492 Y160.091 E27.16957
G1 X118.208 Y160.1 E28.64247
G1 X118.023 Y160.097 E28.64862
G1 X112.696 Y159.922 E28.82589
G1 X110.063 Y159.924 E28.91347
G1 X105.725 Y160.086 E29.05785
G1 X105.516 Y160.09 E29.0648
G1 X70.504 Y160.09 E30.2293
G1 X69.836 Y160.05 E30.25156
G1 X69.178 Y159.931 E30.2738
G1 X68.538 Y159.734 E30.29607
G1 X67.927 Y159.462 E30.31832
G1 X67.353 Y159.119 E30.34056
G1 X66.823 Y158.71 E30.36283
G1 X66.479 Y158.384 E30.37859
G1 X62.313 Y154.077 E30.57789
G1 X61.369 Y153.142 E30.62208
G1 X60.923 Y152.643 E30.64434
G1 X60.54 Y152.095 E30.66658
G1 X60.224 Y151.505 E30.68884
G1 X59.981 Y150.882 E30.71108
G1 X59.814 Y150.234 E30.73334
G1 X59.726 Y149.571 E30.75558
G1 X59.711 Y149.135 E30.77009
G1 X59.82 Y128.209 E31.4661
G1 X59.76 Y126.051 E31.53791
G1 X59.758 Y125.911 E31.54256
G1 X59.71 Y109.856 E32.07656
G1 X59.748 Y109.188 E32.09881
G1 X59.865 Y108.529 E32.12107
G1 X60.06 Y107.889 E32.14332
G1 X60.33 Y107.277 E32.16557
G1 X60.671 Y106.701 E32.18783
G1 X61.195 Y106.041 E32.21586
G1 X61.267 Y105.963 E32.21939
G1 X61.374 Y105.85 E32.22457
G1 X66.497 Y100.599 E32.46857
G1 X66.992 Y100.149 E32.49082
G1 X67.537 Y99.761 E32.51307
M204 S5000
M205 X30 Y30
G0 F3600 X67.789 Y100.076
M204 S500
M205 X20 Y20
G1 F1800 X68.358 Y99.774 E32.5345
G1 X68.961 Y99.545 E32.55595
G1 X69.587 Y99.392 E32.57738
G1 X70.511 Y99.31 E32.60824
G1 X110.374 Y99.359 E33.93409
G1 X112.703 Y99.302 E34.01157
G1 X112.831 Y99.3 E34.01583
G1 X162.492 Y99.31 E35.66756
G1 X163.135 Y99.35 E35.68899
G1 X163.769 Y99.469 E35.71044
G1 X164.383 Y99.666 E35.73189
G1 X164.968 Y99.938 E35.75335
G1 X165.514 Y100.279 E35.77476
G1 X166.015 Y100.686 E35.79623
G1 X166.461 Y101.151 E35.81766
G1 X166.846 Y101.668 E35.8391
G1 X167.164 Y102.229 E35.86055
G1 X167.41 Y102.825 E35.88199
G1 X167.581 Y103.446 E35.90342
G1 X167.674 Y104.084 E35.92486
G1 X167.691 Y104.51 E35.93904
G1 X167.691 Y154.491 E37.60141
G1 X167.651 Y155.134 E37.62284
G1 X167.532 Y155.768 E37.6443
G1 X167.335 Y156.382 E37.66574
G1 X167.064 Y156.967 E37.68719
G1 X166.722 Y157.514 E37.70864
G1 X166.316 Y158.014 E37.73007
G1 X165.851 Y158.46 E37.7515
G1 X165.334 Y158.845 E37.77294
G1 X164.773 Y159.164 E37.7944
G1 X164.177 Y159.41 E37.81585
G1 X163.556 Y159.581 E37.83727
G1 X162.918 Y159.673 E37.85871
G1 X162.492 Y159.691 E37.87289
G1 X118.208 Y159.7 E39.34578
G1 X118.036 Y159.697 E39.3515
G1 X112.709 Y159.522 E39.52878
G1 X110.048 Y159.524 E39.61728
G1 X105.71 Y159.686 E39.76166
G1 X105.516 Y159.69 E39.76812
G1 X70.504 Y159.69 E40.93262
G1 X69.861 Y159.65 E40.95405
G1 X69.227 Y159.531 E40.9755
G1 X68.613 Y159.334 E40.99695
G1 X68.028 Y159.063 E41.0184
G1 X67.481 Y158.721 E41.03985
G1 X66.767 Y158.105 E41.07122
G1 X62.623 Y153.821 E41.26946
G1 X61.651 Y152.858 E41.31497
G1 X61.222 Y152.377 E41.3364
G1 X60.856 Y151.846 E41.35785
G1 X60.558 Y151.274 E41.3793
G1 X60.334 Y150.67 E41.40073
G1 X60.186 Y150.042 E41.42219
G1 X60.111 Y149.137 E41.45239
G1 X60.221 Y128.2 E42.14877
G1 X60.16 Y126.04 E42.22064
G1 X60.158 Y125.91 E42.22497
G1 X60.11 Y109.855 E42.75896
G1 X60.148 Y109.211 E42.78042
G1 X60.265 Y108.577 E42.80186
G1 X60.46 Y107.963 E42.82329
G1 X60.73 Y107.377 E42.84475
G1 X61.07 Y106.829 E42.8662
G1 X61.489 Y106.312 E42.88833
G1 X61.561 Y106.234 E42.89186
G1 X61.66 Y106.13 E42.89664
G1 X66.783 Y100.879 E43.14063
G1 X67.261 Y100.446 E43.16209
G1 X67.789 Y100.076 E43.18353
M204 S5000
M205 X30 Y30
G0 F3600 X69.6 Y109.8
M204 S500
M205 X20 Y20
;TYPE:SUPPORT
G1 F1800 X69.6 Y114.5 E43.33985
G1 X65.616 Y114.5 E43.47236
G1 X65.5 Y114.384 E43.47782
G1 X65.5 Y109.916 E43.62642
G1 X65.616 Y109.8 E43.63188
G1 X69.6 Y109.8 E43.76439
M204 S5000
M205 X30 Y30
G0 F3600 X69.342 Y109.96
M204 S500
M205 X20 Y20
G1 F1800 X69.342 Y114.34 E43.91007
M204 S5000
M205 X30 Y30
G0 F3600 X69.44 Y112.014
M204 S500
M205 X20 Y20
G1 F1800 X65.66 Y112.014 E44.03579
M204 S5000
M205 X30 Y30
G0 F3600 X66.675 Y109.96
M204 S500
M205 X20 Y20
G1 F1800 X66.675 Y114.34 E44.18147
M204 S5000
M205 X30 Y30
G0 F3600 X65.616 Y119.8
M204 S500
M205 X20 Y20
G1 F1800 X69.6 Y119.8 E44.31398
G1 X69.6 Y124.499 E44.47027
G1 X65.616 Y124.5 E44.60278
G1 X65.5 Y124.384 E44.60823
G1 X65.5 Y119.916 E44.75684
G1 X65.616 Y119.8 E44.7623
M204 S5000
M205 X30 Y30
G0 F3600 X65.659 Y120.015
M204 S500
M205 X20 Y20
G1 F1800 X69.439 Y120.015 E44.88802
M204 S5000
M205 X30 Y30
G0 F3600 X69.342 Y119.96
M204 S500
M205 X20 Y20
G1 F1800 X69.342 Y124.34 E45.0337
M204 S5000
M205 X30 Y30
G0 F3600 X69.439 Y122.682
M204 S500
M205 X20 Y20
G1 F1800 X65.659 Y122.682 E45.15942
M204 S5000
M205 X30 Y30
G0 F3600 X66.675 Y124.34
M204 S500
M205 X20 Y20
G1 F1800 X66.675 Y119.96 E45.3051
M204 S5000
M205 X30 Y30
G0 F3600 X65.616 Y134.5
M204 S500
M205 X20 Y20
G1 F1800 X69.6 Y134.5 E45.43761
G1 X69.6 Y139.2 E45.59393
G1 X65.616 Y139.2 E45.72644
G1 X65.5 Y139.084 E45.7319
G1 X65.5 Y134.616 E45.8805
G1 X65.616 Y134.5 E45.88596
M204 S5000
M205 X30 Y30
G0 F3600 X66.675 Y134.66
M204 S500
M205 X20 Y20
G1 F1800 X66.675 Y139.04 E46.03164
M204 S5000
M205 X30 Y30
G0 F3600 X65.659 Y138.684
M204 S500
M205 X20 Y20
G1 F1800 X69.439 Y138.684 E46.15736
M204 S5000
M205 X30 Y30
G0 F3600 X69.342 Y139.04
M204 S500
M205 X20 Y20
G1 F1800 X69.342 Y134.66 E46.30304
M204 S5000
M205 X30 Y30
G0 F3600 X69.439 Y136.017
M204 S500
M205 X20 Y20
G1 F1800 X65.659 Y136.017 E46.42876
M204 S5000
M205 X30 Y30
G0 F3600 X65.616 Y144.5
M204 S500
M205 X20 Y20
G1 F1800 X69.6 Y144.5 E46.56127
G1 X69.6 Y149.2 E46.7176
G1 X65.616 Y149.2 E46.8501
G1 X65.5 Y149.084 E46.85556
G1 X65.5 Y144.616 E47.00417
G1 X65.616 Y144.5 E47.00962
M204 S5000
M205 X30 Y30
G0 F3600 X66.675 Y144.66
M204 S500
M205 X20 Y20
G1 F1800 X66.675 Y149.04 E47.1553
M204 S5000
M205 X30 Y30
G0 F3600 X65.659 Y146.685
M204 S500
M205 X20 Y20
G1 F1800 X69.439 Y146.685 E47.28103
M204 S5000
M205 X30 Y30
G0 F3600 X69.342 Y144.66
M204 S500
M205 X20 Y20
G1 F1800 X69.342 Y149.04 E47.4267
M204 S5000
M205 X30 Y30
G1 F2400 E42.4267
;MESH:v2_body_1.stl
G0 F3600 X71.12 Y149.04
G0 X104.83 Y153.83
G0 X104.9 Y153.9
M204 S500
M205 X20 Y20
;TYPE:WALL-INNER
G1 F2400 E47.4267
G1 F1800 X71.1 Y153.9 E48.5509
G1 X71.1 Y105.1 E50.17399
G1 X104.9 Y105.1 E51.29818
G1 X104.9 Y153.9 E52.92128
M204 S5000
M205 X30 Y30
G0 F3600 X105.3 Y154.3
M204 S500
M205 X20 Y20
;TYPE:WALL-OUTER
G1 F1800 X70.7 Y154.3 E54.07208
G1 X70.7 Y104.7 E55.72178
G1 X105.3 Y104.7 E56.87258
G1 X105.3 Y154.3 E58.52229
M204 S5000
M205 X30 Y30
G0 F3600 X105.1 Y154.3
G0 X104.51 Y153.51
M204 S500
M205 X20 Y20
;TYPE:SKIN
G1 F1800 X71.49 Y153.51 E59.62054
G1 X71.49 Y105.49 E61.21769
G1 X104.51 Y105.49 E62.31594
G1 X104.51 Y153.51 E63.91309
M204 S5000
M205 X30 Y30
G0 F3600 X71.871 Y153.329
M204 S500
M205 X20 Y20
G1 F1800 X71.67 Y153.128 E63.92254
M204 S5000
M205 X30 Y30
G0 F3600 X71.67 Y152.563
M204 S500
M205 X20 Y20
G1 F1800 X72.436 Y153.329 E63.95857
M204 S5000
M205 X30 Y30
G0 F3600 X73.002 Y153.329
M204 S500
M205 X20 Y20
G1 F1800 X71.67 Y151.997 E64.02123
M204 S5000
M205 X30 Y30
G0 F3600 X71.67 Y151.431
M204 S500
M205 X20 Y20
G1 F1800 X73.568 Y153.329 E64.1105
M204 S5000
M205 X30 Y30
G0 F3600 X74.133 Y153.329
M204 S500
M205 X20 Y20
G1 F1800 X71.67 Y150.866 E64.22635
M204 S5000
M205 X30 Y30
G0 F3600 X71.67 Y150.3
M204 S500
M205 X20 Y20
G1 F1800 X74.699 Y153.329 E64.36883
M204 S5000
M205 X30 Y30
G0 F3600 X75.265 Y153.329
M204 S500
M205 X20 Y20
G1 F1800 X71.67 Y149.734 E64.53793
M204 S5000
M205 X30 Y30
G0 F3600 X71.67 Y149.169
M204 S500
M205 X20 Y20
G1 F1800 X75.83 Y153.329 E64.7336
M204 S5000
M205 X30 Y30
G0 F3600 X76.396 Y153.329
M204 S500
M205 X20 Y20
G1 F1800 X71.67 Y148.603 E64.9559
M204 S5000
M205 X30 Y30
G0 F3600 X71.67 Y148.037
M204 S500
M205 X20 Y20
G1 F1800 X76.962 Y153.329 E65.20482
M204 S5000
M205 X30 Y30
G0 F3600 X77.527 Y153.329
M204 S500
M205 X20 Y20
G1 F1800 X71.67 Y147.472 E65.48031
M204 S5000
M205 X30 Y30
G0 F3600 X71.67 Y146.906
M204 S500
M205 X20 Y20
G1 F1800 X78.093 Y153.329 E65.78243
M204 S5000
M205 X30 Y30
G0 F3600 X78.659 Y153.329
M204 S500
M205 X20 Y20
G1 F1800 X71.67 Y146.34 E66.11117
M204 S5000
M205 X30 Y30
G0 F3600 X71.67 Y145.775
M204 S500
M205 X20 Y20
G1 F1800 X79.224 Y153.329 E66.46649
M204 S5000
M205 X30 Y30
G0 F3600 X79.79 Y153.329
M204 S500
M205 X20 Y20
G1 F1800 X71.67 Y145.209 E66.84843
M204 S5000
M205 X30 Y30
G0 F3600 X71.67 Y144.643
M204 S500
M205 X20 Y20
G1 F1800 X80.356 Y153.329 E67.25699
M204 S5000
M205 X30 Y30
G0 F3600 X80.922 Y153.329
M204 S500
M205 X20 Y20
G1 F1800 X71.67 Y144.077 E67.69218
M204 S5000
M205 X30 Y30
G0 F3600 X71.67 Y143.512
M204 S500
M205 X20 Y20
G1 F1800 X81.487 Y153.329 E68.15394
M204 S5000
M205 X30 Y30
G0 F3600 X82.053 Y153.329
M204 S500
M205 X20 Y20
G1 F1800 X71.67 Y142.946 E68.64232
M204 S5000
M205 X30 Y30
G0 F3600 X71.67 Y142.38
M204 S500
M205 X20 Y20
G1 F1800 X82.619 Y153.329 E69.15733
M204 S5000
M205 X30 Y30
G0 F3600 X83.184 Y153.329
M204 S500
M205 X20 Y20
G1 F1800 X71.67 Y141.815 E69.69891
M204 S5000
M205 X30 Y30
G0 F3600 X71.67 Y141.249
M204 S500
M205 X20 Y20
G1 F1800 X83.75 Y153.329 E70.26712
M204 S5000
M205 X30 Y30
G0 F3600 X84.316 Y153.329
M204 S500
M205 X20 Y20
G1 F1800 X71.67 Y140.683 E70.86195
M204 S5000
M205 X30 Y30
G0 F3600 X71.67 Y140.118
M204 S500
M205 X20 Y20
G1 F1800 X84.881 Y153.329 E71.48335
M204 S5000
M205 X30 Y30
G0 F3600 X85.447 Y153.329
M204 S500
M205 X20 Y20
G1 F1800 X71.67 Y139.552 E72.13138
M204 S5000
M205 X30 Y30
G0 F3600 X71.67 Y138.986
M204 S500
M205 X20 Y20
G1 F1800 X86.013 Y153.329 E72.80603
M204 S5000
M205 X30 Y30
G0 F3600 X86.578 Y153.329
M204 S500
M205 X20 Y20
G1 F1800 X71.67 Y138.421 E73.50726
M204 S5000
M205 X30 Y30
