;FLAVOR:Marlin
;TIME:3342
;Filament used: 3.2278m
;Layer height: 0.2
;Generated with Cura_SteamEngine 4.0.0
M140 S60
M105
M190 S60
M104 S200
M105
M109 S200
M82 ;absolute extrusion mode
; Ender 3 Custom Start G-code
G28 ; Home all axes
G92 E0 ; Reset Extruder
G1 Z2.0 F3000 ; Move Z Axis up little to prevent scratching of Heat Bed
G1 X0.1 Y20 Z0.3 F5000.0 ; Move to start position
G1 X0.1 Y200.0 Z0.3 F1500.0 E15 ; Draw the first line
G1 X0.4 Y200.0 Z0.3 F5000.0 ; Move to side a little
G1 X0.4 Y20 Z0.3 F1500.0 E30 ; Draw the second line
G92 E0 ; Reset Extruder
G1 Z2.0 F3000 ; Move Z Axis up little to prevent scratching of Heat Bed
; End of custom start GCode
G92 E0
G1 F2400 E-5
;LAYER_COUNT:76
;LAYER:0
M107
M204 S5000
M205 X30 Y30
G0 F3600 X69.131 Y98.893 Z0.2
M204 S500
M205 X20 Y20
;TYPE:SKIRT
G1 F2400 E0
G1 F1800 X69.757 Y98.546 E0.02381
G1 X70.417 Y98.271 E0.04759
G1 X71.437 Y98.005 E0.08265
G1 X77.713 Y96.907 E0.29456
G1 X82.834 Y95.687 E0.46965
G1 X87.992 Y94.148 E0.64868
G1 X90.377 Y93.322 E0.73263
G1 X95.361 Y91.359 E0.91079
G1 X100.183 Y89.137 E1.08738
G1 X104.529 Y86.847 E1.25077
G1 X105.179 Y86.549 E1.27455
G1 X105.859 Y86.326 E1.29835
G1 X106.559 Y86.18 E1.32213
G1 X107.512 Y86.109 E1.35392
G1 X127.491 Y86.11 E2.01842
G1 X128.205 Y86.15 E2.04221
G1 X128.911 Y86.269 E2.06602
G1 X129.598 Y86.467 E2.0898
G1 X130.259 Y86.74 E2.11359
G1 X130.886 Y87.085 E2.13739
G1 X131.47 Y87.497 E2.16116
G1 X132.005 Y87.973 E2.18498
G1 X132.483 Y88.505 E2.20877
G1 X132.898 Y89.087 E2.23254
G1 X133.247 Y89.711 E2.25632
G1 X133.523 Y90.371 E2.28011
G1 X133.724 Y91.058 E2.30392
G1 X133.847 Y91.762 E2.32769
G1 X133.891 Y92.51 E2.35261
G1 X133.89 Y142.492 E4.01502
G1 X133.85 Y143.206 E4.03881
G1 X133.731 Y143.911 E4.06259
G1 X133.533 Y144.599 E4.0864
G1 X133.26 Y145.26 E4.11018
G1 X132.915 Y145.887 E4.13399
G1 X132.503 Y146.471 E4.15776
G1 X132.027 Y147.005 E4.18155
G1 X131.495 Y147.484 E4.20536
G1 X130.913 Y147.899 E4.22914
G1 X130.289 Y148.248 E4.25292
G1 X129.618 Y148.528 E4.2771
G1 X124.11 Y150.47 E4.47135
G1 X119.215 Y152.524 E4.64791
G1 X114.472 Y154.837 E4.82342
G1 X109.849 Y157.425 E4.99964
G1 X105.903 Y159.907 E5.15468
G1 X105.277 Y160.253 E5.17847
G1 X104.617 Y160.527 E5.20224
G1 X103.93 Y160.726 E5.22603
G1 X103.225 Y160.847 E5.24982
G1 X102.501 Y160.889 E5.27394
G1 X88.211 Y160.9 E5.74923
G1 X81.082 Y161.098 E5.98643
G1 X80.895 Y161.1 E5.99265
G1 X72.527 Y161.088 E6.27097
G1 X71.813 Y161.047 E6.29476
G1 X71.108 Y160.927 E6.31855
G1 X70.42 Y160.728 E6.34237
G1 X69.76 Y160.454 E6.36614
G1 X69.134 Y160.109 E6.38991
G1 X68.55 Y159.695 E6.41372
G1 X68.001 Y159.204 E6.43822
G1 X67.774 Y158.976 E6.44892
G1 X67.298 Y158.441 E6.47273
G1 X66.885 Y157.857 E6.49652
G1 X66.54 Y157.231 E6.5203
G1 X66.267 Y156.57 E6.54408
G1 X66.069 Y155.882 E6.5679
G1 X65.949 Y155.177 E6.59168
G1 X65.909 Y154.454 E6.61577
G1 X65.924 Y139.392 E7.11673
G1 X65.94 Y138.947 E7.13154
G1 X66.327 Y133.479 E7.31386
G1 X66.401 Y128.192 E7.48973
G1 X66.173 Y122.815 E7.66873
G1 X65.918 Y119.378 E7.78336
G1 X65.9 Y118.9 E7.79926
G1 X65.91 Y104.535 E8.27705
G1 X65.95 Y103.82 E8.30086
G1 X66.07 Y103.115 E8.32465
G1 X66.268 Y102.428 E8.34843
G1 X66.541 Y101.767 E8.37222
G1 X66.887 Y101.141 E8.39601
G1 X67.3 Y100.557 E8.4198
G1 X67.785 Y100.014 E8.44401
G1 X68.015 Y99.784 E8.45483
G1 X68.548 Y99.307 E8.47862
G1 X69.131 Y98.893 E8.5024
M204 S5000
M205 X30 Y30
G0 F3600 X69.381 Y99.208
M204 S500
M205 X20 Y20
G1 F1800 X69.99 Y98.878 E8.52544
G1 X70.633 Y98.62 E8.54848
G1 X71.506 Y98.399 E8.57844
G1 X77.793 Y97.299 E8.79072
G1 X82.931 Y96.075 E8.96639
G1 X88.124 Y94.525 E9.14664
G1 X90.535 Y93.691 E9.23149
G1 X95.511 Y91.73 E9.40938
G1 X100.35 Y89.501 E9.58658
G1 X104.715 Y87.201 E9.75069
G1 X105.346 Y86.914 E9.77374
G1 X106.005 Y86.701 E9.79678
G1 X106.684 Y86.566 E9.8198
G1 X107.512 Y86.509 E9.84741
G1 X127.491 Y86.51 E10.51191
G1 X128.183 Y86.55 E10.53497
G1 X128.865 Y86.669 E10.55799
G1 X129.529 Y86.867 E10.58104
G1 X130.165 Y87.139 E10.60404
G1 X130.766 Y87.483 E10.62708
G1 X131.324 Y87.894 E10.65013
G1 X131.83 Y88.366 E10.67314
G1 X132.279 Y88.894 E10.69619
G1 X132.664 Y89.47 E10.71924
G1 X132.98 Y90.086 E10.74226
G1 X133.222 Y90.735 E10.7653
G1 X133.389 Y91.407 E10.78833
G1 X133.477 Y92.094 E10.81137
G1 X133.491 Y92.51 E10.82521
G1 X133.49 Y142.492 E12.48762
G1 X133.45 Y143.183 E12.51064
G1 X133.331 Y143.866 E12.5337
G1 X133.133 Y144.53 E12.55675
G1 X132.861 Y145.166 E12.57975
G1 X132.517 Y145.767 E12.60279
G1 X132.106 Y146.325 E12.62584
G1 X131.634 Y146.831 E12.64885
G1 X131.106 Y147.28 E12.6719
G1 X130.53 Y147.665 E12.69495
G1 X129.914 Y147.98 E12.71796
G1 X129.485 Y148.151 E12.73332
G1 X123.959 Y150.099 E12.9282
G1 X119.064 Y152.153 E13.10476
G1 X114.281 Y154.486 E13.28176
G1 X109.635 Y157.087 E13.45885
G1 X105.69 Y159.568 E13.61386
G1 X105.084 Y159.902 E13.63687
G1 X104.443 Y160.164 E13.6599
G1 X103.776 Y160.351 E13.68294
G1 X103.092 Y160.459 E13.70597
G1 X102.501 Y160.489 E13.72566
G1 X88.2 Y160.5 E14.20131
G1 X81.071 Y160.698 E14.43851
G1 X80.895 Y160.7 E14.44437
G1 X72.527 Y160.688 E14.72269
G1 X71.836 Y160.647 E14.74571
G1 X71.154 Y160.527 E14.76874
G1 X70.49 Y160.329 E14.79179
G1 X69.854 Y160.055 E14.81482
G1 X69.254 Y159.711 E14.83782
G1 X68.697 Y159.299 E14.86087
G1 X68.284 Y158.921 E14.87949
G1 X68.057 Y158.693 E14.89019
G1 X67.598 Y158.175 E14.91321
G1 X67.201 Y157.608 E14.93623
G1 X66.872 Y156.998 E14.95928
G1 X66.616 Y156.355 E14.9823
G1 X66.436 Y155.686 E15.00534
G1 X66.333 Y155.001 E15.02838
G1 X66.309 Y154.454 E15.04659
G1 X66.324 Y139.392 E15.54756
G1 X66.339 Y138.975 E15.56144
G1 X66.726 Y133.495 E15.74416
G1 X66.801 Y128.198 E15.92035
G1 X66.572 Y122.799 E16.10009
G1 X66.316 Y119.348 E16.21518
G1 X66.3 Y118.9 E16.23009
G1 X66.31 Y104.535 E16.70787
G1 X66.35 Y103.843 E16.73093
G1 X66.47 Y103.161 E16.75396
G1 X66.668 Y102.498 E16.77697
G1 X66.941 Y101.861 E16.80002
G1 X67.285 Y101.26 E16.82306
G1 X67.696 Y100.703 E16.84608
G1 X68.067 Y100.296 E16.8644
G1 X68.297 Y100.066 E16.87522
G1 X68.814 Y99.606 E16.89823
G1 X69.381 Y99.208 E16.92127
M204 S5000
M205 X30 Y30
G0 F3600 X69.631 Y99.524
M204 S500
M205 X20 Y20
G1 F1800 X70.222 Y99.211 E16.94352
G1 X70.846 Y98.971 E16.96575
G1 X71.575 Y98.793 E16.99071
G1 X77.87 Y97.691 E17.20327
G1 X83.054 Y96.456 E17.38051
G1 X88.222 Y94.914 E17.55989
G1 X90.671 Y94.067 E17.64608
G1 X95.667 Y92.098 E17.82469
G1 X100.541 Y89.853 E18.00317
G1 X104.902 Y87.555 E18.16712
G1 X105.511 Y87.279 E18.18936
G1 X106.149 Y87.077 E18.21162
G1 X106.807 Y86.954 E18.23388
G1 X107.512 Y86.909 E18.25738
G1 X127.491 Y86.91 E18.92188
G1 X128.159 Y86.95 E18.94414
G1 X128.817 Y87.069 E18.96638
G1 X129.457 Y87.266 E18.98865
G1 X130.068 Y87.538 E19.01089
G1 X130.643 Y87.881 E19.03316
G1 X131.172 Y88.29 E19.0554
G1 X131.649 Y88.759 E19.07765
G1 X132.067 Y89.282 E19.09992
G1 X132.419 Y89.85 E19.12215
G1 X132.701 Y90.457 E19.14441
G1 X132.909 Y91.093 E19.16666
G1 X133.039 Y91.749 E19.18891
G1 X133.091 Y92.51 E19.21428
G1 X133.09 Y142.492 E20.87668
G1 X133.05 Y143.16 E20.89894
G1 X132.931 Y143.818 E20.92118
G1 X132.734 Y144.458 E20.94345
G1 X132.462 Y145.069 E20.9657
G1 X132.119 Y145.643 E20.98794
G1 X131.71 Y146.173 E21.01021
G1 X131.241 Y146.65 E21.03246
G1 X130.718 Y147.068 E21.05472
G1 X130.15 Y147.42 E21.07695
G1 X129.352 Y147.773 E21.10597
G1 X123.829 Y149.72 E21.30075
G1 X118.892 Y151.792 E21.47883
G1 X114.103 Y154.127 E21.65604
G1 X109.421 Y156.748 E21.8345
G1 X105.477 Y159.229 E21.98947
G1 X104.891 Y159.551 E22.01171
G1 X104.27 Y159.801 E22.03398
G1 X103.624 Y159.974 E22.05622
G1 X102.962 Y160.07 E22.07847
G1 X102.5 Y160.089 E22.09385
G1 X88.188 Y160.1 E22.56987
G1 X81.06 Y160.298 E22.80704
G1 X80.896 Y160.3 E22.81249
G1 X72.528 Y160.288 E23.09081
G1 X71.86 Y160.247 E23.11307
G1 X71.202 Y160.127 E23.13532
G1 X70.563 Y159.929 E23.15757
G1 X69.952 Y159.656 E23.17983
G1 X69.378 Y159.313 E23.20207
G1 X68.849 Y158.903 E23.22433
G1 X68.568 Y158.639 E23.23715
G1 X68.341 Y158.411 E23.24785
G1 X67.898 Y157.91 E23.2701
G1 X67.518 Y157.359 E23.29236
G1 X67.206 Y156.767 E23.31462
G1 X66.968 Y156.142 E23.33686
G1 X66.805 Y155.493 E23.35912
G1 X66.721 Y154.829 E23.38138
G1 X66.709 Y154.454 E23.39386
G1 X66.724 Y139.392 E23.89482
G1 X66.738 Y139.003 E23.90777
G1 X67.126 Y133.511 E24.09089
G1 X67.202 Y128.187 E24.26798
G1 X66.972 Y122.783 E24.44788
G1 X66.715 Y119.318 E24.56344
G1 X66.7 Y118.9 E24.57736
G1 X66.71 Y104.535 E25.05514
G1 X66.75 Y103.867 E25.0774
G1 X66.87 Y103.209 E25.09964
G1 X67.068 Y102.57 E25.12189
G1 X67.34 Y101.959 E25.14414
G1 X67.683 Y101.384 E25.16641
G1 X68.092 Y100.855 E25.18865
G1 X68.35 Y100.579 E25.20121
G1 X68.58 Y100.349 E25.21203
G1 X69.081 Y99.905 E25.2343
G1 X69.631 Y99.524 E25.25655
M204 S5000
M205 X30 Y30
G0 F3600 X69.879 Y99.842
M204 S500
M205 X20 Y20
G1 F1800 X70.452 Y99.547 E25.27798
G1 X71.057 Y99.325 E25.29942
G1 X71.644 Y99.187 E25.31947
G1 X77.966 Y98.081 E25.53294
G1 X83.135 Y96.849 E25.70968
G1 X88.355 Y95.292 E25.89085
G1 X90.808 Y94.442 E25.9772
G1 X95.824 Y92.466 E26.15651
G1 X100.701 Y90.219 E26.33511
G1 X105.088 Y87.908 E26.50003
G1 X105.676 Y87.644 E26.52147
G1 X106.292 Y87.454 E26.54291
G1 X106.927 Y87.342 E26.56435
G1 X107.512 Y87.309 E26.58384
G1 X127.491 Y87.31 E27.24835
G1 X128.135 Y87.35 E27.26981
G1 X128.768 Y87.469 E27.29123
G1 X129.382 Y87.666 E27.31268
G1 X129.967 Y87.937 E27.33412
G1 X130.514 Y88.279 E27.35558
G1 X131.014 Y88.685 E27.377
G1 X131.46 Y89.151 E27.39845
G1 X131.845 Y89.668 E27.41989
G1 X132.164 Y90.228 E27.44133
G1 X132.41 Y90.824 E27.46277
G1 X132.581 Y91.446 E27.48423
G1 X132.673 Y92.084 E27.50567
G1 X132.691 Y92.51 E27.51985
G1 X132.69 Y142.492 E29.18226
G1 X132.65 Y143.136 E29.20372
G1 X132.531 Y143.769 E29.22514
G1 X132.334 Y144.383 E29.24659
G1 X132.063 Y144.968 E29.26803
G1 X131.721 Y145.515 E29.28949
G1 X131.315 Y146.015 E29.31091
G1 X130.849 Y146.461 E29.33236
G1 X130.332 Y146.846 E29.3538
G1 X129.772 Y147.165 E29.37524
G1 X129.219 Y147.396 E29.39517
G1 X123.677 Y149.35 E29.59062
G1 X118.733 Y151.424 E29.76894
G1 X113.91 Y153.776 E29.94741
G1 X109.23 Y156.397 E30.12582
G1 X105.264 Y158.891 E30.28164
G1 X104.698 Y159.2 E30.30309
G1 X104.099 Y159.436 E30.3245
G1 X103.474 Y159.596 E30.34596
G1 X102.835 Y159.678 E30.36739
G1 X102.5 Y159.689 E30.37854
G1 X88.176 Y159.7 E30.85496
G1 X81.048 Y159.898 E31.09213
G1 X80.897 Y159.9 E31.09715
G1 X72.529 Y159.888 E31.37547
G1 X71.885 Y159.847 E31.39693
G1 X71.252 Y159.727 E31.41836
G1 X70.638 Y159.529 E31.43982
G1 X70.054 Y159.257 E31.46125
G1 X69.507 Y158.915 E31.4827
G1 X68.851 Y158.357 E31.51135
G1 X68.624 Y158.129 E31.52205
G1 X68.198 Y157.645 E31.54349
G1 X67.836 Y157.112 E31.56492
G1 X67.542 Y156.538 E31.58637
G1 X67.322 Y155.932 E31.60782
G1 X67.178 Y155.303 E31.62928
G1 X67.109 Y154.455 E31.65758
G1 X67.124 Y139.393 E32.15854
G1 X67.137 Y139.031 E32.17059
G1 X67.526 Y133.527 E32.35411
G1 X67.602 Y128.176 E32.5321
G1 X67.372 Y122.77 E32.71207
G1 X67.114 Y119.289 E32.82816
G1 X67.1 Y118.9 E32.84111
G1 X67.11 Y104.535 E33.31889
G1 X67.15 Y103.892 E33.34032
G1 X67.27 Y103.259 E33.36175
G1 X67.467 Y102.645 E33.3832
G1 X67.739 Y102.06 E33.40465
G1 X68.081 Y101.514 E33.42608
G1 X68.633 Y100.862 E33.4545
G1 X68.863 Y100.632 E33.46531
G1 X69.346 Y100.205 E33.48676
G1 X69.879 Y99.842 E33.5082
M204 S5000
M205 X30 Y30
G0 F3600 X72.616 Y104.5
M204 S500
M205 X20 Y20
;TYPE:SUPPORT
G1 F1800 X81.6 Y104.5 E33.80701
G1 X81.6 Y109.5 E33.97331
G1 X72.616 Y109.5 E34.27212
G1 X72.5 Y109.384 E34.27758
G1 X72.5 Y104.616 E34.43616
G1 X72.616 Y104.5 E34.44162
M204 S5000
M205 X30 Y30
G0 F3600 X74.676 Y104.66
M204 S500
M205 X20 Y20
G1 F1800 X74.676 Y109.34 E34.59728
M204 S5000
M205 X30 Y30
G0 F3600 X77.343 Y109.34
M204 S500
M205 X20 Y20
G1 F1800 X77.343 Y104.66 E34.75294
M204 S5000
M205 X30 Y30
G0 F3600 X80.01 Y104.66
M204 S500
M205 X20 Y20
G1 F1800 X80.01 Y109.34 E34.90859
M204 S5000
M205 X30 Y30
G0 F3600 X81.44 Y106.68
M204 S500
M205 X20 Y20
G1 F1800 X72.66 Y106.68 E35.20062
M204 S5000
M205 X30 Y30
G0 F3600 X72.616 Y114.5
M204 S500
M205 X20 Y20
G1 F1800 X81.6 Y114.5 E35.49943
G1 X81.6 Y119.5 E35.66573
G1 X72.616 Y119.5 E35.96454
G1 X72.5 Y119.384 E35.96999
G1 X72.5 Y114.616 E36.12858
G1 X72.616 Y114.5 E36.13403
M204 S5000
M205 X30 Y30
G0 F3600 X72.66 Y114.681
M204 S500
M205 X20 Y20
G1 F1800 X81.44 Y114.681 E36.42606
M204 S5000
M205 X30 Y30
G0 F3600 X80.01 Y114.66
M204 S500
M205 X20 Y20
G1 F1800 X80.01 Y119.34 E36.58171
M204 S5000
M205 X30 Y30
G0 F3600 X81.44 Y117.348
M204 S500
M205 X20 Y20
G1 F1800 X72.66 Y117.348 E36.87374
M204 S5000
M205 X30 Y30
G0 F3600 X74.676 Y119.34
M204 S500
M205 X20 Y20
G1 F1800 X74.676 Y114.66 E37.0294
M204 S5000
M205 X30 Y30
G0 F3600 X77.343 Y114.66
M204 S500
M205 X20 Y20
G1 F1800 X77.343 Y119.34 E37.18505
M204 S5000
M205 X30 Y30
G0 F3600 X81.6 Y139.5
M204 S500
M205 X20 Y20
G1 F1800 X81.6 Y144.5 E37.35135
G1 X72.616 Y144.5 E37.65016
G1 X72.5 Y144.384 E37.65562
G1 X72.5 Y139.616 E37.8142
G1 X72.616 Y139.5 E37.81966
G1 X81.6 Y139.5 E38.11847
M204 S5000
M205 X30 Y30
G0 F3600 X80.01 Y139.66
M204 S500
M205 X20 Y20
G1 F1800 X80.01 Y144.34 E38.27413
M204 S5000
M205 X30 Y30
G0 F3600 X81.439 Y144.018
M204 S500
M205 X20 Y20
G1 F1800 X72.659 Y144.018 E38.56615
M204 S5000
M205 X30 Y30
G0 F3600 X74.676 Y144.34
M204 S500
M205 X20 Y20
G1 F1800 X74.676 Y139.66 E38.72181
M204 S5000
M205 X30 Y30
G0 F3600 X72.659 Y141.351
M204 S500
M205 X20 Y20
G1 F1800 X81.439 Y141.351 E39.01383
M204 S5000
M205 X30 Y30
G0 F3600 X77.343 Y139.66
M204 S500
M205 X20 Y20
G1 F1800 X77.343 Y144.34 E39.16949
M204 S5000
M205 X30 Y30
G0 F3600 X81.6 Y149.5
M204 S500
M205 X20 Y20
G1 F1800 X81.6 Y154.5 E39.33579
G1 X72.616 Y154.5 E39.6346
G1 X72.5 Y154.384 E39.64005
G1 X72.5 Y149.616 E39.79864
G1 X72.616 Y149.5 E39.8041
G1 X81.6 Y149.5 E40.1029
M204 S5000
M205 X30 Y30
G0 F3600 X80.01 Y149.66
M204 S500
M205 X20 Y20
G1 F1800 X80.01 Y154.34 E40.25856
M204 S5000
M205 X30 Y30
G0 F3600 X77.343 Y154.34
M204 S500
M205 X20 Y20
G1 F1800 X77.343 Y149.66 E40.41422
M204 S5000
M205 X30 Y30
G0 F3600 X74.676 Y149.66
M204 S500
M205 X20 Y20
G1 F1800 X74.676 Y154.34 E40.56988
M204 S5000
M205 X30 Y30
G0 F3600 X72.659 Y152.019
M204 S500
M205 X20 Y20
G1 F1800 X81.439 Y152.019 E40.8619
M204 S5000
M205 X30 Y30
G1 F2400 E35.8619
;MESH:v2_body_1.stl
G0 F3600 X83.12 Y152.019
G0 X101.83 Y153.83
G0 X101.9 Y153.9
M204 S500
M205 X20 Y20
;TYPE:WALL-INNER
G1 F2400 E40.8619
G1 F1800 X83.1 Y153.9 E41.48719
G1 X83.1 Y105.1 E43.11029
G1 X101.9 Y105.1 E43.73558
G1 X101.9 Y153.9 E45.35867
M204 S5000
M205 X30 Y30
G0 F3600 X102.3 Y154.3
M204 S500
M205 X20 Y20
;TYPE:WALL-OUTER
G1 F1800 X82.7 Y154.3 E46.01057
G1 X82.7 Y104.7 E47.66027
G1 X102.3 Y104.7 E48.31217
G1 X102.3 Y154.3 E49.96187
M204 S5000
M205 X30 Y30
G0 F3600 X102.1 Y154.3
G0 X101.51 Y153.51
M204 S500
M205 X20 Y20
;TYPE:SKIN
G1 F1800 X83.49 Y153.51 E50.56122
G1 X83.49 Y105.49 E52.15837
G1 X101.51 Y105.49 E52.75772
G1 X101.51 Y153.51 E54.35487
M204 S5000
M205 X30 Y30
G0 F3600 X83.749 Y153.329
M204 S500
M205 X20 Y20
G1 F1800 X83.669 Y153.249 E54.35864
M204 S5000
M205 X30 Y30
G0 F3600 X83.669 Y152.683
M204 S500
M205 X20 Y20
G1 F1800 X84.315 Y153.329 E54.38902
M204 S5000
M205 X30 Y30
G0 F3600 X84.881 Y153.329
M204 S500
M205 X20 Y20
G1 F1800 X83.669 Y152.117 E54.44603
M204 S5000
M205 X30 Y30
G0 F3600 X83.669 Y151.552
M204 S500
M205 X20 Y20
G1 F1800 X85.446 Y153.329 E54.52961
M204 S5000
M205 X30 Y30
G0 F3600 X86.012 Y153.329
M204 S500
M205 X20 Y20
G1 F1800 X83.669 Y150.986 E54.63982
M204 S5000
M205 X30 Y30
G0 F3600 X83.669 Y150.42
M204 S500
M205 X20 Y20
G1 F1800 X86.578 Y153.329 E54.77665
M204 S5000
M205 X30 Y30
G0 F3600 X87.143 Y153.329
M204 S500
M205 X20 Y20
G1 F1800 X83.669 Y149.855 E54.94006
M204 S5000
M205 X30 Y30
G0 F3600 X83.669 Y149.289
M204 S500
M205 X20 Y20
G1 F1800 X87.709 Y153.329 E55.13009
M204 S5000
M205 X30 Y30
G0 F3600 X88.275 Y153.329
M204 S500
M205 X20 Y20
G1 F1800 X83.669 Y148.723 E55.34674
M204 S5000
M205 X30 Y30
G0 F3600 X83.669 Y148.157
M204 S500
M205 X20 Y20
G1 F1800 X88.84 Y153.329 E55.58999
M204 S5000
M205 X30 Y30
G0 F3600 X89.406 Y153.329
M204 S500
M205 X20 Y20
G1 F1800 X83.669 Y147.592 E55.85984
M204 S5000
