;FLAVOR:Marlin
;TIME:3892
;Filament used: 3.98248m
;Layer height: 0.2
;Generated with Cura_SteamEngine 4.0.0
M140 S60
M105
M190 S60
M104 S200
M105
M109 S200
M82 ;absolute extrusion mode
; Ender 3 Custom Start G-code
G28 ; Home all axes
G92 E0 ; Reset Extruder
G1 Z2.0 F3000 ; Move Z Axis up little to prevent scratching of Heat Bed
G1 X0.1 Y20 Z0.3 F5000.0 ; Move to start position
G1 X0.1 Y200.0 Z0.3 F1500.0 E15 ; Draw the first line
G1 X0.4 Y200.0 Z0.3 F5000.0 ; Move to side a little
G1 X0.4 Y20 Z0.3 F1500.0 E30 ; Draw the second line
G92 E0 ; Reset Extruder
G1 Z2.0 F3000 ; Move Z Axis up little to prevent scratching of Heat Bed
; End of custom start GCode
G92 E0
G1 F2400 E-5
;LAYER_COUNT:51
;LAYER:0
M107
M204 S5000
M205 X30 Y30
G0 F3600 X46.869 Y88.494 Z0.2
M204 S500
M205 X20 Y20
;TYPE:SKIRT
G1 F2400 E0
G1 F1800 X47.535 Y88.232 E0.0238
G1 X48.226 Y88.046 E0.0476
G1 X48.933 Y87.939 E0.07139
G1 X49.539 Y87.91 E0.09157
G1 X58.826 Y87.91 E0.40045
G1 X59.021 Y87.913 E0.40694
G1 X65.133 Y88.1 E0.61032
G1 X80.286 Y88.06 E1.11431
G1 X85.591 Y87.76 E1.29104
G1 X90.843 Y87.164 E1.46684
G1 X96.416 Y86.204 E1.65493
G1 X97.126 Y86.122 E1.6787
G1 X97.503 Y86.111 E1.69125
G1 X127.509 Y86.115 E2.68925
G1 X128.223 Y86.155 E2.71304
G1 X128.928 Y86.275 E2.73682
G1 X129.616 Y86.472 E2.76062
G1 X130.562 Y86.891 E2.79504
G1 X135.9 Y89.79 E2.99707
G1 X140.315 Y91.916 E3.16005
G1 X140.941 Y92.262 E3.18384
G1 X141.524 Y92.675 E3.20761
G1 X142.15 Y93.245 E3.23577
G1 X142.302 Y93.403 E3.24306
G1 X142.769 Y93.945 E3.26685
G1 X143.171 Y94.536 E3.29063
G1 X143.506 Y95.169 E3.31445
G1 X143.768 Y95.834 E3.33822
G1 X143.953 Y96.525 E3.36201
G1 X144.061 Y97.232 E3.3858
G1 X144.09 Y97.835 E3.40588
G1 X144.1 Y111.754 E3.86883
G1 X144.099 Y111.868 E3.87262
G1 X143.98 Y118.833 E4.10431
G1 X144.039 Y120.927 E4.17398
G1 X144.042 Y121.087 E4.17931
G1 X144.09 Y137.142 E4.7133
G1 X144.052 Y137.856 E4.73708
G1 X143.935 Y138.562 E4.76088
G1 X143.74 Y139.25 E4.78467
G1 X143.469 Y139.912 E4.80846
G1 X143.126 Y140.539 E4.83223
G1 X142.715 Y141.125 E4.85604
G1 X142.225 Y141.677 E4.88059
G1 X141.995 Y141.908 E4.89143
G1 X141.463 Y142.386 E4.91522
G1 X140.881 Y142.801 E4.93899
G1 X140.251 Y143.151 E4.96296
G1 X134.407 Y145.983 E5.17895
G1 X130.593 Y148.091 E5.32389
G1 X129.949 Y148.402 E5.34768
G1 X129.274 Y148.638 E5.37146
G1 X128.576 Y148.798 E5.39528
G1 X127.512 Y148.89 E5.4308
G1 X106.713 Y148.94 E6.12258
G1 X101.41 Y149.24 E6.29924
G1 X96.157 Y149.836 E6.47508
G1 X90.584 Y150.796 E6.66317
G1 X89.874 Y150.878 E6.68694
G1 X89.501 Y150.889 E6.69935
G1 X65.21 Y150.9 E7.50727
G1 X58.082 Y151.098 E7.74444
G1 X57.895 Y151.1 E7.75066
G1 X49.527 Y151.088 E8.02898
G1 X48.813 Y151.047 E8.05277
G1 X48.108 Y150.927 E8.07656
G1 X47.42 Y150.728 E8.10038
G1 X46.76 Y150.454 E8.12414
G1 X46.134 Y150.109 E8.14792
G1 X45.55 Y149.695 E8.17173
G1 X45.001 Y149.204 E8.19622
G1 X44.774 Y148.976 E8.20693
G1 X44.298 Y148.441 E8.23074
G1 X43.885 Y147.857 E8.25453
G1 X43.54 Y147.231 E8.27831
G1 X43.267 Y146.57 E8.30209
G1 X43.069 Y145.882 E8.3259
G1 X42.949 Y145.177 E8.34969
G1 X42.909 Y144.454 E8.37377
G1 X42.924 Y129.392 E8.87474
G1 X42.94 Y128.947 E8.88955
G1 X43.327 Y123.479 E9.07187
G1 X43.401 Y118.192 E9.24773
G1 X43.173 Y112.815 E9.42673
G1 X42.918 Y109.378 E9.54136
G1 X42.9 Y108.9 E9.55727
G1 X42.91 Y94.535 E10.03506
G1 X42.95 Y93.82 E10.05887
G1 X43.07 Y93.115 E10.08266
G1 X43.268 Y92.428 E10.10644
G1 X43.541 Y91.767 E10.13023
G1 X43.887 Y91.141 E10.15401
G1 X44.3 Y90.557 E10.1778
G1 X44.61 Y90.196 E10.19363
G1 X44.683 Y90.117 E10.19721
G1 X44.947 Y89.847 E10.20977
G1 X45.103 Y89.697 E10.21697
G1 X45.646 Y89.23 E10.24079
G1 X46.237 Y88.828 E10.26456
G1 X46.869 Y88.494 E10.28834
M204 S5000
M205 X30 Y30
G0 F3600 X47.096 Y88.83
M204 S500
M205 X20 Y20
G1 F1800 X47.744 Y88.585 E10.31138
G1 X48.415 Y88.416 E10.33439
G1 X49.102 Y88.326 E10.35744
G1 X49.539 Y88.31 E10.37198
G1 X58.826 Y88.31 E10.68087
G1 X59.009 Y88.313 E10.68696
G1 X65.122 Y88.5 E10.89037
G1 X80.31 Y88.46 E11.39553
G1 X85.606 Y88.16 E11.57195
G1 X90.904 Y87.559 E11.7493
G1 X96.484 Y86.598 E11.93762
G1 X97.503 Y86.511 E11.97164
G1 X127.509 Y86.515 E12.96964
G1 X128.2 Y86.555 E12.99266
G1 X128.882 Y86.675 E13.01569
G1 X129.546 Y86.872 E13.03873
G1 X130.371 Y87.242 E13.0688
G1 X135.722 Y90.148 E13.27133
G1 X140.141 Y92.276 E13.43446
G1 X140.747 Y92.612 E13.45751
G1 X141.31 Y93.016 E13.48055
G1 X141.862 Y93.522 E13.50546
G1 X142.014 Y93.68 E13.51275
G1 X142.464 Y94.206 E13.53578
G1 X142.851 Y94.781 E13.55883
G1 X143.17 Y95.396 E13.58187
G1 X143.415 Y96.043 E13.60488
G1 X143.584 Y96.715 E13.62793
G1 X143.674 Y97.402 E13.65097
G1 X143.69 Y97.836 E13.66542
G1 X143.7 Y111.755 E14.12837
G1 X143.699 Y111.861 E14.13189
G1 X143.58 Y118.815 E14.36322
G1 X143.64 Y120.938 E14.43386
G1 X143.642 Y121.088 E14.43885
G1 X143.69 Y137.143 E14.97284
G1 X143.652 Y137.835 E14.99589
G1 X143.535 Y138.517 E15.0189
G1 X143.34 Y139.182 E15.04195
G1 X143.069 Y139.819 E15.06498
G1 X142.727 Y140.421 E15.08801
G1 X142.318 Y140.98 E15.11104
G1 X141.942 Y141.394 E15.12964
G1 X141.712 Y141.625 E15.14049
G1 X141.196 Y142.087 E15.16352
G1 X140.63 Y142.486 E15.18656
G1 X140.076 Y142.791 E15.20759
G1 X134.225 Y145.626 E15.42384
G1 X130.399 Y147.741 E15.56924
G1 X129.775 Y148.041 E15.59227
G1 X129.12 Y148.266 E15.6153
G1 X128.444 Y148.415 E15.63832
G1 X127.511 Y148.49 E15.66946
G1 X106.69 Y148.54 E16.36197
G1 X101.394 Y148.84 E16.5384
G1 X96.096 Y149.441 E16.71574
G1 X90.516 Y150.402 E16.90406
G1 X89.501 Y150.489 E16.93794
G1 X65.199 Y150.5 E17.74623
G1 X58.071 Y150.698 E17.9834
G1 X57.895 Y150.7 E17.98926
G1 X49.527 Y150.688 E18.26758
G1 X48.836 Y150.647 E18.2906
G1 X48.154 Y150.527 E18.31363
G1 X47.49 Y150.329 E18.33668
G1 X46.854 Y150.055 E18.35971
G1 X46.254 Y149.711 E18.38271
G1 X45.697 Y149.299 E18.40576
G1 X45.284 Y148.921 E18.42438
G1 X45.057 Y148.693 E18.43508
G1 X44.598 Y148.175 E18.4581
G1 X44.201 Y147.608 E18.48112
G1 X43.872 Y146.998 E18.50417
G1 X43.616 Y146.355 E18.52719
G1 X43.436 Y145.686 E18.55023
G1 X43.333 Y145.001 E18.57327
G1 X43.309 Y144.454 E18.59148
G1 X43.324 Y129.392 E19.09245
G1 X43.339 Y128.975 E19.10633
G1 X43.726 Y123.495 E19.28905
G1 X43.801 Y118.198 E19.46524
G1 X43.572 Y112.799 E19.64498
G1 X43.316 Y109.348 E19.76007
G1 X43.3 Y108.9 E19.77498
G1 X43.31 Y94.535 E20.25276
G1 X43.35 Y93.843 E20.27582
G1 X43.47 Y93.161 E20.29885
G1 X43.668 Y92.498 E20.32186
G1 X43.941 Y91.861 E20.34491
G1 X44.285 Y91.26 E20.36795
G1 X44.903 Y90.467 E20.40139
G1 X44.976 Y90.388 E20.40496
G1 X45.224 Y90.135 E20.41675
G1 X45.38 Y89.985 E20.42394
G1 X45.906 Y89.535 E20.44697
G1 X46.481 Y89.148 E20.47002
G1 X47.096 Y88.83 E20.49305
M204 S5000
M205 X30 Y30
G0 F3600 X47.321 Y89.168
M204 S500
M205 X20 Y20
G1 F1800 X47.95 Y88.94 E20.5153
G1 X48.602 Y88.789 E20.53756
G1 X49.539 Y88.71 E20.56884
G1 X58.826 Y88.71 E20.87772
G1 X58.997 Y88.713 E20.88341
G1 X65.111 Y88.9 E21.08686
G1 X80.315 Y88.86 E21.59255
G1 X85.656 Y88.558 E21.77047
G1 X90.949 Y87.957 E21.94765
G1 X96.552 Y86.992 E22.13675
G1 X97.503 Y86.911 E22.1685
G1 X127.509 Y86.915 E23.1665
G1 X128.177 Y86.955 E23.18876
G1 X128.835 Y87.074 E23.211
G1 X129.474 Y87.272 E23.23325
G1 X130.181 Y87.594 E23.25909
G1 X135.546 Y90.507 E23.46213
G1 X139.968 Y92.637 E23.62538
G1 X140.552 Y92.962 E23.64761
G1 X141.093 Y93.355 E23.66985
G1 X141.574 Y93.8 E23.69165
G1 X141.726 Y93.958 E23.69894
G1 X142.16 Y94.467 E23.72119
G1 X142.53 Y95.024 E23.74343
G1 X142.832 Y95.621 E23.76568
G1 X143.06 Y96.25 E23.78793
G1 X143.211 Y96.902 E23.81019
G1 X143.29 Y97.836 E23.84137
G1 X143.3 Y111.755 E24.30432
G1 X143.299 Y111.854 E24.30761
G1 X143.18 Y118.819 E24.5393
G1 X143.24 Y120.949 E24.61017
G1 X143.242 Y121.089 E24.61483
G1 X143.29 Y137.144 E25.14882
G1 X143.252 Y137.812 E25.17108
G1 X143.135 Y138.471 E25.19334
G1 X142.94 Y139.111 E25.21559
G1 X142.67 Y139.723 E25.23784
G1 X142.329 Y140.299 E25.2601
G1 X141.921 Y140.829 E25.28235
G1 X141.658 Y141.112 E25.2952
G1 X141.428 Y141.343 E25.30604
G1 X140.929 Y141.788 E25.32828
G1 X140.38 Y142.171 E25.35054
G1 X139.902 Y142.431 E25.36864
G1 X134.044 Y145.27 E25.58515
G1 X130.206 Y147.391 E25.731
G1 X129.602 Y147.679 E25.75326
G1 X128.968 Y147.893 E25.77551
G1 X128.313 Y148.03 E25.79777
G1 X127.51 Y148.09 E25.82455
G1 X106.685 Y148.14 E26.5172
G1 X101.345 Y148.442 E26.69509
G1 X96.051 Y149.043 E26.8723
G1 X90.448 Y150.008 E27.0614
G1 X89.501 Y150.089 E27.09301
G1 X65.187 Y150.1 E27.9017
G1 X58.06 Y150.298 E28.13883
G1 X57.896 Y150.3 E28.14429
G1 X49.528 Y150.288 E28.42261
G1 X48.86 Y150.247 E28.44487
G1 X48.202 Y150.127 E28.46712
G1 X47.563 Y149.929 E28.48937
G1 X46.952 Y149.656 E28.51163
G1 X46.378 Y149.313 E28.53387
G1 X45.849 Y148.903 E28.55613
G1 X45.568 Y148.639 E28.56895
G1 X45.341 Y148.411 E28.57965
G1 X44.898 Y147.91 E28.60189
G1 X44.518 Y147.359 E28.62416
G1 X44.206 Y146.767 E28.64641
G1 X43.968 Y146.142 E28.66866
G1 X43.805 Y145.493 E28.69091
G1 X43.721 Y144.829 E28.71317
G1 X43.709 Y144.454 E28.72565
G1 X43.724 Y129.392 E29.22662
G1 X43.738 Y129.003 E29.23956
G1 X44.126 Y123.511 E29.42268
G1 X44.202 Y118.187 E29.59978
G1 X43.972 Y112.783 E29.77968
G1 X43.715 Y109.318 E29.89524
G1 X43.7 Y108.9 E29.90915
G1 X43.71 Y94.535 E30.38694
G1 X43.75 Y93.867 E30.40919
G1 X43.87 Y93.209 E30.43144
G1 X44.068 Y92.57 E30.45369
G1 X44.34 Y91.959 E30.47593
G1 X44.683 Y91.384 E30.4982
G1 X45.197 Y90.738 E30.52566
G1 X45.27 Y90.659 E30.52924
G1 X45.502 Y90.423 E30.54024
G1 X45.658 Y90.273 E30.54744
G1 X46.167 Y89.839 E30.56969
G1 X46.724 Y89.469 E30.59193
G1 X47.321 Y89.168 E30.61417
M204 S5000
M205 X30 Y30
G0 F3600 X47.545 Y89.508
M204 S500
M205 X20 Y20
G1 F1800 X48.154 Y89.298 E30.63559
G1 X48.785 Y89.165 E30.65704
G1 X49.539 Y89.11 E30.68219
G1 X58.826 Y89.11 E30.99107
G1 X58.985 Y89.112 E30.99636
G1 X65.13 Y89.3 E31.20084
G1 X80.32 Y89.26 E31.70607
G1 X85.688 Y88.956 E31.88489
G1 X91.01 Y88.352 E32.06304
G1 X96.62 Y87.386 E32.25237
G1 X97.503 Y87.311 E32.28185
G1 X127.509 Y87.315 E33.27985
G1 X128.152 Y87.355 E33.30128
G1 X128.786 Y87.474 E33.32274
G1 X129.4 Y87.671 E33.34418
G1 X129.99 Y87.945 E33.36582
G1 X135.368 Y90.866 E33.56937
G1 X139.794 Y92.997 E33.73276
G1 X140.356 Y93.312 E33.75418
G1 X140.876 Y93.694 E33.77565
G1 X141.285 Y94.077 E33.79428
G1 X141.437 Y94.235 E33.80157
G1 X141.855 Y94.726 E33.82302
G1 X142.208 Y95.266 E33.84448
G1 X142.492 Y95.844 E33.8659
G1 X142.702 Y96.454 E33.88736
G1 X142.835 Y97.085 E33.9088
G1 X142.89 Y97.836 E33.93385
G1 X142.9 Y111.755 E34.3968
G1 X142.899 Y111.848 E34.39989
G1 X142.78 Y118.824 E34.63195
G1 X142.84 Y120.96 E34.70302
G1 X142.842 Y121.09 E34.70734
G1 X142.89 Y137.145 E35.24134
G1 X142.852 Y137.789 E35.26279
G1 X142.735 Y138.423 E35.28424
G1 X142.54 Y139.037 E35.30566
G1 X142.27 Y139.623 E35.32712
G1 X141.93 Y140.171 E35.34857
G1 X141.375 Y140.83 E35.37723
G1 X141.145 Y141.061 E35.38807
G1 X140.663 Y141.489 E35.40951
G1 X140.131 Y141.854 E35.43097
G1 X139.728 Y142.072 E35.44621
G1 X133.839 Y144.926 E35.66387
G1 X130.012 Y147.041 E35.8093
G1 X129.43 Y147.317 E35.83072
G1 X128.818 Y147.519 E35.85216
G1 X128.185 Y147.644 E35.87362
G1 X127.509 Y147.69 E35.89615
G1 X106.679 Y147.74 E36.58896
G1 X101.311 Y148.044 E36.76779
G1 X95.992 Y148.648 E36.94584
G1 X90.38 Y149.614 E37.13524
G1 X89.5 Y149.689 E37.16461
G1 X65.175 Y149.7 E37.97367
G1 X58.048 Y149.898 E38.2108
G1 X57.897 Y149.9 E38.21583
G1 X49.529 Y149.888 E38.49415
G1 X48.885 Y149.847 E38.51561
G1 X48.252 Y149.727 E38.53704
G1 X47.638 Y149.529 E38.5585
G1 X47.054 Y149.257 E38.57992
G1 X46.507 Y148.915 E38.60138
G1 X45.851 Y148.357 E38.63002
G1 X45.624 Y148.129 E38.64073
G1 X45.198 Y147.645 E38.66217
G1 X44.836 Y147.112 E38.6836
G1 X44.542 Y146.538 E38.70505
G1 X44.322 Y145.932 E38.72649
G1 X44.178 Y145.303 E38.74795
G1 X44.109 Y144.455 E38.77625
G1 X44.124 Y129.393 E39.27722
G1 X44.137 Y129.031 E39.28926
G1 X44.526 Y123.527 E39.47279
G1 X44.602 Y118.176 E39.65078
G1 X44.372 Y112.77 E39.83075
G1 X44.114 Y109.289 E39.94684
G1 X44.1 Y108.9 E39.95979
G1 X44.11 Y94.535 E40.43757
G1 X44.15 Y93.892 E40.459
G1 X44.27 Y93.259 E40.48043
G1 X44.467 Y92.645 E40.50187
G1 X44.739 Y92.06 E40.52333
G1 X45.081 Y91.514 E40.54476
G1 X45.491 Y91.01 E40.56637
G1 X45.564 Y90.931 E40.56995
G1 X45.779 Y90.712 E40.58015
G1 X45.935 Y90.562 E40.58735
G1 X46.426 Y90.145 E40.60878
G1 X46.966 Y89.791 E40.63025
G1 X47.545 Y89.508 E40.65169
M204 S5000
M205 X30 Y30
G0 F3600 X49.616 Y94.5
M204 S500
M205 X20 Y20
;TYPE:SUPPORT
G1 F1800 X58.6 Y94.5 E40.9505
G1 X58.6 Y99.5 E41.1168
G1 X49.616 Y99.5 E41.41561
G1 X49.5 Y99.384 E41.42106
G1 X49.5 Y94.616 E41.57965
G1 X49.616 Y94.5 E41.5851
M204 S5000
M205 X30 Y30
G0 F3600 X50.673 Y94.66
M204 S500
M205 X20 Y20
G1 F1800 X50.673 Y99.34 E41.74076
M204 S5000
M205 X30 Y30
G0 F3600 X49.659 Y98.679
M204 S500
M205 X20 Y20
G1 F1800 X58.439 Y98.679 E42.03278
M204 S5000
M205 X30 Y30
G0 F3600 X56.007 Y99.34
M204 S500
M205 X20 Y20
G1 F1800 X56.007 Y94.66 E42.18844
M204 S5000
M205 X30 Y30
G0 F3600 X53.34 Y94.66
M204 S500
M205 X20 Y20
G1 F1800 X53.34 Y99.34 E42.3441
M204 S5000
M205 X30 Y30
G0 F3600 X49.659 Y96.012
M204 S500
M205 X20 Y20
G1 F1800 X58.439 Y96.012 E42.63612
M204 S5000
M205 X30 Y30
G0 F3600 X58.6 Y104.5
M204 S500
M205 X20 Y20
G1 F1800 X58.6 Y109.5 E42.80242
G1 X49.616 Y109.5 E43.10123
G1 X49.5 Y109.384 E43.10669
G1 X49.5 Y104.616 E43.26527
G1 X49.616 Y104.5 E43.27073
G1 X58.6 Y104.5 E43.56954
M204 S5000
M205 X30 Y30
G0 F3600 X58.439 Y106.68
M204 S500
M205 X20 Y20
G1 F1800 X49.659 Y106.68 E43.86156
M204 S5000
M205 X30 Y30
G0 F3600 X50.673 Y104.66
M204 S500
M205 X20 Y20
G1 F1800 X50.673 Y109.34 E44.01722
M204 S5000
M205 X30 Y30
G0 F3600 X53.34 Y109.34
M204 S500
M205 X20 Y20
G1 F1800 X53.34 Y104.66 E44.17288
M204 S5000
M205 X30 Y30
G0 F3600 X56.007 Y104.66
M204 S500
M205 X20 Y20
G1 F1800 X56.007 Y109.34 E44.32854
M204 S5000
M205 X30 Y30
G0 F3600 X58.6 Y129.5
M204 S500
M205 X20 Y20
G1 F1800 X58.6 Y134.5 E44.49484
G1 X49.616 Y134.5 E44.79365
G1 X49.5 Y134.384 E44.7991
G1 X49.5 Y129.616 E44.95769
G1 X49.616 Y129.5 E44.96314
G1 X58.6 Y129.5 E45.26195
M204 S5000
M205 X30 Y30
G0 F3600 X58.439 Y130.683
M204 S500
M205 X20 Y20
G1 F1800 X49.659 Y130.683 E45.55398
M204 S5000
M205 X30 Y30
G0 F3600 X50.673 Y129.66
M204 S500
M205 X20 Y20
G1 F1800 X50.673 Y134.34 E45.70963
M204 S5000
M205 X30 Y30
G0 F3600 X49.659 Y133.35
M204 S500
M205 X20 Y20
G1 F1800 X58.439 Y133.35 E46.00166
M204 S5000
M205 X30 Y30
G0 F3600 X56.007 Y134.34
M204 S500
M205 X20 Y20
G1 F1800 X56.007 Y129.66 E46.15731
M204 S5000
M205 X30 Y30
G0 F3600 X53.34 Y129.66
M204 S500
M205 X20 Y20
G1 F1800 X53.34 Y134.34 E46.31297
M204 S5000
M205 X30 Y30
G0 F3600 X49.616 Y139.5
M204 S500
M205 X20 Y20
G1 F1800 X58.6 Y139.5 E46.61178
G1 X58.6 Y144.5 E46.77808
G1 X49.616 Y144.5 E47.07689
G1 X49.5 Y144.384 E47.08235
G1 X49.5 Y139.616 E47.24093
G1 X49.616 Y139.5 E47.24639
M204 S5000
M205 X30 Y30
G0 F3600 X50.673 Y139.66
M204 S500
M205 X20 Y20
G1 F1800 X50.673 Y144.34 E47.40204
M204 S5000
M205 X30 Y30
G0 F3600 X49.659 Y144.018
M204 S500
M205 X20 Y20
G1 F1800 X58.439 Y144.018 E47.69407
M204 S5000
M205 X30 Y30
G0 F3600 X56.007 Y144.34
M204 S500
M205 X20 Y20
G1 F1800 X56.007 Y139.66 E47.84973
M204 S5000
M205 X30 Y30
G0 F3600 X53.34 Y139.66
M204 S500
M205 X20 Y20
G1 F1800 X53.34 Y144.34 E48.00538
M204 S5000
M205 X30 Y30
G0 F3600 X49.659 Y141.351
M204 S500
M205 X20 Y20
G1 F1800 X58.439 Y141.351 E48.29741
M204 S5000
M205 X30 Y30
G1 F2400 E43.29741
G0 F3600 X58.839 Y144.657
G0 X59.343 Y145.161
G0 X89.657 Y145.161
G0 X127.657 Y143.161
G0 X128.161 Y142.657
G0 X128.4 Y137.2
M204 S500
M205 X20 Y20
G1 F2400 E48.29741
G1 F1800 X128.4 Y132.5 E48.45373
G1 X137.384 Y132.5 E48.75254
G1 X137.5 Y132.616 E48.758
G1 X137.5 Y137.084 E48.9066
G1 X137.384 Y137.2 E48.91206
G1 X128.4 Y137.2 E49.21087
M204 S5000
M205 X30 Y30
G0 F3600 X128.559 Y136.017
M204 S500
M205 X20 Y20
G1 F1800 X137.34 Y136.017 E49.50292
M204 S5000
M205 X30 Y30
G0 F3600 X136.017 Y137.04
M204 S500
M205 X20 Y20
G1 F1800 X136.017 Y132.66 E49.6486
M204 S5000
M205 X30 Y30
G0 F3600 X137.34 Y133.35
M204 S500
M205 X20 Y20
G1 F1800 X128.559 Y133.35 E49.94066
M204 S5000
M205 X30 Y30
