;FLAVOR:Marlin
;TIME:3453
;Filament used: 3.47935m
;Layer height: 0.2
;Generated with Cura_SteamEngine 4.0.0
M140 S60
M105
M190 S60
M104 S200
M105
M109 S200
M82 ;absolute extrusion mode
; Ender 3 Custom Start G-code
G28 ; Home all axes
G92 E0 ; Reset Extruder
G1 Z2.0 F3000 ; Move Z Axis up little to prevent scratching of Heat Bed
G1 X0.1 Y20 Z0.3 F5000.0 ; Move to start position
G1 X0.1 Y200.0 Z0.3 F1500.0 E15 ; Draw the first line
G1 X0.4 Y200.0 Z0.3 F5000.0 ; Move to side a little
G1 X0.4 Y20 Z0.3 F1500.0 E30 ; Draw the second line
G92 E0 ; Reset Extruder
G1 Z2.0 F3000 ; Move Z Axis up little to prevent scratching of Heat Bed
; End of custom start GCode
G92 E0
G1 F2400 E-5
;LAYER_COUNT:76
;LAYER:0
M107
M204 S5000
M205 X30 Y30
G0 F3600 X69.436 Y87.517 Z0.2
M204 S500
M205 X20 Y20
;TYPE:SKIRT
G1 F2400 E0
G1 F1800 X70.018 Y87.102 E0.02377
G1 X70.642 Y86.753 E0.04755
G1 X71.302 Y86.477 E0.07135
G1 X71.988 Y86.276 E0.09512
G1 X72.693 Y86.153 E0.11893
G1 X73.441 Y86.109 E0.14385
G1 X132.491 Y86.11 E2.10786
G1 X133.205 Y86.15 E2.13164
G1 X133.91 Y86.269 E2.15542
G1 X134.598 Y86.467 E2.17924
G1 X135.259 Y86.74 E2.20302
G1 X135.886 Y87.085 E2.22682
G1 X136.47 Y87.497 E2.2506
G1 X137.004 Y87.973 E2.27439
G1 X137.483 Y88.504 E2.29817
G1 X137.898 Y89.086 E2.32195
G1 X138.247 Y89.711 E2.34576
G1 X138.523 Y90.371 E2.36955
G1 X138.724 Y91.057 E2.39333
G1 X138.847 Y91.762 E2.41713
G1 X138.891 Y92.51 E2.44205
G1 X138.891 Y142.491 E4.10443
G1 X138.851 Y143.205 E4.12821
G1 X138.732 Y143.91 E4.15199
G1 X138.534 Y144.598 E4.1758
G1 X138.261 Y145.259 E4.19959
G1 X137.917 Y145.886 E4.22338
G1 X137.504 Y146.47 E4.24717
G1 X137.029 Y147.004 E4.27094
G1 X136.497 Y147.483 E4.29475
G1 X135.915 Y147.898 E4.31852
G1 X135.29 Y148.247 E4.34233
G1 X134.63 Y148.523 E4.36612
G1 X133.944 Y148.724 E4.3899
G1 X133.239 Y148.847 E4.4137
G1 X132.491 Y148.891 E4.43862
G1 X73.44 Y148.891 E6.40267
G1 X72.726 Y148.851 E6.42645
G1 X72.021 Y148.732 E6.45023
G1 X71.333 Y148.534 E6.47404
G1 X70.672 Y148.261 E6.49783
G1 X70.045 Y147.917 E6.52162
G1 X69.461 Y147.504 E6.54541
G1 X68.927 Y147.029 E6.56918
G1 X68.448 Y146.497 E6.59299
G1 X68.033 Y145.915 E6.61676
G1 X67.684 Y145.29 E6.64057
G1 X67.408 Y144.63 E6.66437
G1 X67.207 Y143.944 E6.68814
G1 X67.084 Y143.239 E6.71194
G1 X67.04 Y142.491 E6.73687
G1 X67.041 Y92.509 E8.39927
G1 X67.081 Y91.795 E8.42306
G1 X67.2 Y91.09 E8.44684
G1 X67.398 Y90.402 E8.47065
G1 X67.671 Y89.741 E8.49444
G1 X68.016 Y89.114 E8.51824
G1 X68.428 Y88.53 E8.54201
G1 X68.904 Y87.996 E8.5658
G1 X69.436 Y87.517 E8.58961
M204 S5000
M205 X30 Y30
G0 F3600 X69.825 Y87.721
M204 S500
M205 X20 Y20
G1 F1800 X70.401 Y87.336 E8.61266
G1 X71.017 Y87.021 E8.63567
G1 X71.665 Y86.778 E8.65869
G1 X72.338 Y86.611 E8.68175
G1 X73.025 Y86.523 E8.70478
G1 X73.441 Y86.509 E8.71863
G1 X132.491 Y86.51 E10.68264
G1 X133.182 Y86.55 E10.70566
G1 X133.865 Y86.669 E10.72872
G1 X134.529 Y86.867 E10.75177
G1 X135.165 Y87.139 E10.77477
G1 X135.766 Y87.483 E10.7978
G1 X136.324 Y87.894 E10.82085
G1 X136.83 Y88.366 E10.84387
G1 X137.279 Y88.894 E10.86692
G1 X137.664 Y89.47 E10.88997
G1 X137.979 Y90.086 E10.91298
G1 X138.222 Y90.734 E10.936
G1 X138.389 Y91.407 E10.95906
G1 X138.477 Y92.094 E10.98209
G1 X138.491 Y92.51 E10.99594
G1 X138.491 Y142.491 E12.65831
G1 X138.451 Y143.182 E12.68133
G1 X138.332 Y143.865 E12.70439
G1 X138.134 Y144.528 E12.72741
G1 X137.862 Y145.165 E12.75045
G1 X137.518 Y145.766 E12.77348
G1 X137.107 Y146.324 E12.79653
G1 X136.635 Y146.83 E12.81954
G1 X136.107 Y147.279 E12.84259
G1 X135.532 Y147.664 E12.86561
G1 X134.915 Y147.979 E12.88865
G1 X134.267 Y148.222 E12.91167
G1 X133.594 Y148.389 E12.93473
G1 X132.908 Y148.477 E12.95774
G1 X132.491 Y148.491 E12.97161
G1 X73.44 Y148.491 E14.93566
G1 X72.749 Y148.451 E14.95868
G1 X72.066 Y148.332 E14.98174
G1 X71.403 Y148.134 E15.00475
G1 X70.766 Y147.862 E15.02779
G1 X70.165 Y147.518 E15.05082
G1 X69.607 Y147.107 E15.07387
G1 X69.101 Y146.635 E15.09689
G1 X68.652 Y146.107 E15.11994
G1 X68.267 Y145.532 E15.14295
G1 X67.952 Y144.915 E15.166
G1 X67.709 Y144.267 E15.18901
G1 X67.542 Y143.594 E15.21208
G1 X67.454 Y142.908 E15.23508
G1 X67.44 Y142.491 E15.24896
G1 X67.441 Y92.509 E16.91137
G1 X67.481 Y91.818 E16.93439
G1 X67.6 Y91.135 E16.95745
G1 X67.798 Y90.471 E16.98049
G1 X68.07 Y89.835 E17.0035
G1 X68.414 Y89.234 E17.02653
G1 X68.825 Y88.676 E17.04958
G1 X69.297 Y88.17 E17.0726
G1 X69.825 Y87.721 E17.09565
M204 S5000
M205 X30 Y30
G0 F3600 X69.69 Y88.351
M204 S500
M205 X20 Y20
G1 F1800 X70.213 Y87.933 E17.11792
G1 X70.781 Y87.581 E17.14014
G1 X71.388 Y87.299 E17.1624
G1 X72.024 Y87.091 E17.18466
G1 X72.68 Y86.961 E17.2069
G1 X73.441 Y86.909 E17.23227
G1 X132.491 Y86.91 E19.19628
G1 X133.159 Y86.95 E19.21854
G1 X133.817 Y87.069 E19.24078
G1 X134.457 Y87.266 E19.26305
G1 X135.068 Y87.538 E19.2853
G1 X135.642 Y87.881 E19.30754
G1 X136.172 Y88.29 E19.3298
G1 X136.649 Y88.759 E19.35205
G1 X137.067 Y89.282 E19.37432
G1 X137.419 Y89.85 E19.39655
G1 X137.701 Y90.457 E19.41881
G1 X137.909 Y91.093 E19.44106
G1 X138.039 Y91.749 E19.46331
G1 X138.091 Y92.51 E19.48868
G1 X138.091 Y142.491 E21.15105
G1 X138.051 Y143.159 E21.17331
G1 X137.932 Y143.817 E21.19555
G1 X137.735 Y144.457 E21.21782
G1 X137.463 Y145.068 E21.24007
G1 X137.12 Y145.642 E21.26231
G1 X136.711 Y146.172 E21.28457
G1 X136.242 Y146.649 E21.30682
G1 X135.72 Y147.067 E21.32906
G1 X135.151 Y147.419 E21.35132
G1 X134.544 Y147.701 E21.37358
G1 X133.908 Y147.909 E21.39584
G1 X133.252 Y148.039 E21.41808
G1 X132.491 Y148.091 E21.44345
G1 X73.44 Y148.091 E23.40749
G1 X72.772 Y148.051 E23.42975
G1 X72.114 Y147.932 E23.45199
G1 X71.474 Y147.735 E23.47426
G1 X70.863 Y147.463 E23.49651
G1 X70.289 Y147.12 E23.51875
G1 X69.759 Y146.711 E23.54101
G1 X69.282 Y146.242 E23.56326
G1 X68.864 Y145.72 E23.58551
G1 X68.512 Y145.151 E23.60776
G1 X68.23 Y144.544 E23.63002
G1 X68.022 Y143.908 E23.65228
G1 X67.892 Y143.252 E23.67452
G1 X67.84 Y142.491 E23.69989
G1 X67.841 Y92.509 E25.3623
G1 X67.881 Y91.841 E25.38455
G1 X68 Y91.183 E25.40679
G1 X68.197 Y90.543 E25.42907
G1 X68.469 Y89.932 E25.45131
G1 X68.812 Y89.358 E25.47355
G1 X69.221 Y88.828 E25.49582
G1 X69.69 Y88.351 E25.51807
M204 S5000
M205 X30 Y30
G0 F3600 X70.082 Y88.54
M204 S500
M205 X20 Y20
G1 F1800 X70.599 Y88.155 E25.53951
G1 X71.159 Y87.836 E25.56094
G1 X71.755 Y87.59 E25.58239
G1 X72.376 Y87.419 E25.60381
G1 X73.014 Y87.327 E25.62525
G1 X73.441 Y87.309 E25.63947
G1 X132.491 Y87.31 E27.60348
G1 X133.135 Y87.35 E27.62494
G1 X133.768 Y87.469 E27.64636
G1 X134.382 Y87.666 E27.66781
G1 X134.967 Y87.937 E27.68925
G1 X135.514 Y88.279 E27.71071
G1 X136.014 Y88.685 E27.73213
G1 X136.46 Y89.151 E27.75358
G1 X136.845 Y89.667 E27.775
G1 X137.164 Y90.228 E27.79646
G1 X137.41 Y90.824 E27.81791
G1 X137.581 Y91.445 E27.83933
G1 X137.673 Y92.083 E27.86077
G1 X137.691 Y92.51 E27.87498
G1 X137.691 Y142.491 E29.53736
G1 X137.651 Y143.134 E29.55879
G1 X137.532 Y143.768 E29.58024
G1 X137.335 Y144.382 E29.60169
G1 X137.064 Y144.967 E29.62313
G1 X136.722 Y145.514 E29.64459
G1 X136.316 Y146.014 E29.66601
G1 X135.851 Y146.46 E29.68744
G1 X135.334 Y146.845 E29.70888
G1 X134.773 Y147.164 E29.73034
G1 X134.177 Y147.41 E29.75179
G1 X133.556 Y147.581 E29.77321
G1 X132.918 Y147.673 E29.79465
G1 X132.491 Y147.691 E29.80887
G1 X73.44 Y147.691 E31.77291
G1 X72.797 Y147.651 E31.79434
G1 X72.163 Y147.532 E31.81579
G1 X71.549 Y147.335 E31.83724
G1 X70.964 Y147.064 E31.85868
G1 X70.417 Y146.722 E31.88014
G1 X69.917 Y146.316 E31.90156
G1 X69.471 Y145.851 E31.92299
G1 X69.086 Y145.334 E31.94443
G1 X68.767 Y144.773 E31.9659
G1 X68.521 Y144.177 E31.98734
G1 X68.35 Y143.556 E32.00877
G1 X68.258 Y142.918 E32.03021
G1 X68.24 Y142.491 E32.04442
G1 X68.241 Y92.509 E33.70683
G1 X68.281 Y91.865 E33.72829
G1 X68.4 Y91.232 E33.74971
G1 X68.597 Y90.618 E33.77116
G1 X68.868 Y90.033 E33.7926
G1 X69.21 Y89.486 E33.81406
G1 X69.616 Y88.986 E33.83548
G1 X70.082 Y88.54 E33.85693
M204 S5000
M205 X30 Y30
G1 F2400 E28.85693
;MESH:Friction1_v2_C2.stl
G0 F3600 X74.045 Y91.835
G0 X74.045 Y93.114
G0 X97.761 Y141.83
G0 X97.831 Y141.9
M204 S500
M205 X20 Y20
;TYPE:WALL-INNER
G1 F2400 E33.85693
G1 F1800 X74.031 Y141.9 E34.64853
G1 X74.031 Y93.1 E36.27162
G1 X97.831 Y93.1 E37.06321
G1 X97.831 Y141.9 E38.68631
M204 S5000
M205 X30 Y30
G0 F3600 X98.231 Y142.3
M204 S500
M205 X20 Y20
;TYPE:WALL-OUTER
G1 F1800 X73.631 Y142.3 E39.50451
G1 X73.631 Y92.7 E41.15421
G1 X98.231 Y92.7 E41.97241
G1 X98.231 Y142.3 E43.62211
M204 S5000
M205 X30 Y30
G0 F3600 X98.031 Y142.3
G0 X97.441 Y141.51
M204 S500
M205 X20 Y20
;TYPE:SKIN
G1 F1800 X74.421 Y141.51 E44.38776
G1 X74.421 Y93.49 E45.98491
G1 X97.441 Y93.49 E46.75056
G1 X97.441 Y141.51 E48.34771
M204 S5000
M205 X30 Y30
G0 F3600 X75.144 Y141.329
M204 S500
M205 X20 Y20
G1 F1800 X74.601 Y140.786 E48.37325
M204 S5000
M205 X30 Y30
G0 F3600 X74.601 Y140.22
M204 S500
M205 X20 Y20
G1 F1800 X75.709 Y141.329 E48.42539
M204 S5000
M205 X30 Y30
G0 F3600 X76.275 Y141.329
M204 S500
M205 X20 Y20
G1 F1800 X74.601 Y139.655 E48.50413
M204 S5000
M205 X30 Y30
G0 F3600 X74.601 Y139.089
M204 S500
M205 X20 Y20
G1 F1800 X76.841 Y141.329 E48.60949
M204 S5000
M205 X30 Y30
G0 F3600 X77.406 Y141.329
M204 S500
M205 X20 Y20
G1 F1800 X74.601 Y138.523 E48.74146
M204 S5000
M205 X30 Y30
G0 F3600 X74.601 Y137.957
M204 S500
M205 X20 Y20
G1 F1800 X77.972 Y141.329 E48.90004
M204 S5000
M205 X30 Y30
G0 F3600 X78.538 Y141.329
M204 S500
M205 X20 Y20
G1 F1800 X74.601 Y137.392 E49.08523
M204 S5000
M205 X30 Y30
G0 F3600 X74.601 Y136.826
M204 S500
M205 X20 Y20
G1 F1800 X79.104 Y141.329 E49.29703
M204 S5000
M205 X30 Y30
G0 F3600 X79.669 Y141.329
M204 S500
M205 X20 Y20
G1 F1800 X74.601 Y136.26 E49.53544
M204 S5000
M205 X30 Y30
G0 F3600 X74.601 Y135.695
M204 S500
M205 X20 Y20
G1 F1800 X80.235 Y141.329 E49.80045
M204 S5000
M205 X30 Y30
G0 F3600 X80.801 Y141.329
M204 S500
M205 X20 Y20
G1 F1800 X74.601 Y135.129 E50.09208
M204 S5000
M205 X30 Y30
G0 F3600 X74.601 Y134.563
M204 S500
M205 X20 Y20
G1 F1800 X81.366 Y141.329 E50.4103
M204 S5000
M205 X30 Y30
G0 F3600 X81.932 Y141.329
M204 S500
M205 X20 Y20
G1 F1800 X74.601 Y133.998 E50.75513
M204 S5000
M205 X30 Y30
G0 F3600 X74.601 Y133.432
M204 S500
M205 X20 Y20
G1 F1800 X82.498 Y141.329 E51.12658
M204 S5000
M205 X30 Y30
G0 F3600 X83.063 Y141.329
M204 S500
M205 X20 Y20
G1 F1800 X74.601 Y132.866 E51.52463
M204 S5000
M205 X30 Y30
G0 F3600 X74.601 Y132.301
M204 S500
M205 X20 Y20
G1 F1800 X83.629 Y141.329 E51.94928
M204 S5000
M205 X30 Y30
G0 F3600 X84.195 Y141.329
M204 S500
M205 X20 Y20
G1 F1800 X74.601 Y131.735 E52.40055
M204 S5000
M205 X30 Y30
G0 F3600 X74.601 Y131.169
M204 S500
M205 X20 Y20
G1 F1800 X84.76 Y141.329 E52.87843
M204 S5000
M205 X30 Y30
G0 F3600 X85.326 Y141.329
M204 S500
M205 X20 Y20
G1 F1800 X74.601 Y130.604 E53.3829
M204 S5000
M205 X30 Y30
G0 F3600 X74.601 Y130.038
M204 S500
M205 X20 Y20
G1 F1800 X85.892 Y141.329 E53.91399
M204 S5000
M205 X30 Y30
G0 F3600 X86.457 Y141.329
M204 S500
M205 X20 Y20
G1 F1800 X74.601 Y129.472 E54.47168
M204 S5000
M205 X30 Y30
G0 F3600 X74.601 Y128.906
M204 S500
M205 X20 Y20
G1 F1800 X87.023 Y141.329 E55.056
M204 S5000
M205 X30 Y30
G0 F3600 X87.589 Y141.329
M204 S500
M205 X20 Y20
G1 F1800 X74.601 Y128.341 E55.66692
M204 S5000
M205 X30 Y30
G0 F3600 X74.601 Y127.775
M204 S500
M205 X20 Y20
G1 F1800 X88.155 Y141.329 E56.30445
M204 S5000
M205 X30 Y30
G0 F3600 X88.72 Y141.329
M204 S500
M205 X20 Y20
G1 F1800 X74.601 Y127.209 E56.96859
M204 S5000
M205 X30 Y30
G0 F3600 X74.601 Y126.644
M204 S500
M205 X20 Y20
G1 F1800 X89.286 Y141.329 E57.65933
M204 S5000
M205 X30 Y30
G0 F3600 X89.852 Y141.329
M204 S500
M205 X20 Y20
G1 F1800 X74.601 Y126.078 E58.37669
M204 S5000
M205 X30 Y30
G0 F3600 X74.601 Y125.512
M204 S500
M205 X20 Y20
G1 F1800 X90.417 Y141.329 E59.12065
M204 S5000
M205 X30 Y30
G0 F3600 X90.983 Y141.329
M204 S500
M205 X20 Y20
G1 F1800 X74.601 Y124.947 E59.89121
M204 S5000
M205 X30 Y30
G0 F3600 X74.601 Y124.381
M204 S500
M205 X20 Y20
G1 F1800 X91.549 Y141.329 E60.68839
M204 S5000
M205 X30 Y30
G0 F3600 X92.114 Y141.329
M204 S500
M205 X20 Y20
G1 F1800 X74.601 Y123.815 E61.51217
M204 S5000
M205 X30 Y30
G0 F3600 X74.601 Y123.25
M204 S500
M205 X20 Y20
G1 F1800 X92.68 Y141.329 E62.36255
M204 S5000
M205 X30 Y30
G0 F3600 X93.246 Y141.329
M204 S500
M205 X20 Y20
G1 F1800 X74.601 Y122.684 E63.23956
M204 S5000
M205 X30 Y30
G0 F3600 X74.601 Y122.118
M204 S500
M205 X20 Y20
G1 F1800 X93.811 Y141.329 E64.14316
M204 S5000
M205 X30 Y30
G0 F3600 X94.377 Y141.329
M204 S500
M205 X20 Y20
G1 F1800 X74.601 Y121.553 E65.07336
M204 S5000
M205 X30 Y30
G0 F3600 X74.601 Y120.987
M204 S500
M205 X20 Y20
G1 F1800 X94.943 Y141.329 E66.03019
M204 S5000
M205 X30 Y30
G0 F3600 X95.508 Y141.329
M204 S500
M205 X20 Y20
G1 F1800 X74.601 Y120.421 E67.01361
M204 S5000
M205 X30 Y30
G0 F3600 X74.601 Y119.856
M204 S500
M205 X20 Y20
G1 F1800 X96.074 Y141.329 E68.02364
M204 S5000
M205 X30 Y30
G0 F3600 X96.64 Y141.329
M204 S500
M205 X20 Y20
G1 F1800 X74.601 Y119.29 E69.06028
M204 S5000
M205 X30 Y30
G0 F3600 X74.601 Y118.724
M204 S500
M205 X20 Y20
G1 F1800 X97.205 Y141.329 E70.12353
M204 S5000
M205 X30 Y30
G0 F3600 X97.261 Y140.818
M204 S500
M205 X20 Y20
G1 F1800 X74.601 Y118.158 E71.18939
M204 S5000
M205 X30 Y30
G0 F3600 X74.601 Y117.593
M204 S500
M205 X20 Y20
G1 F1800 X97.261 Y140.253 E72.25524
M204 S5000
M205 X30 Y30
G0 F3600 X97.261 Y139.687
M204 S500
M205 X20 Y20
G1 F1800 X74.601 Y117.027 E73.3211
M204 S5000
M205 X30 Y30
G0 F3600 X74.601 Y116.461
M204 S500
M205 X20 Y20
G1 F1800 X97.261 Y139.121 E74.38696
M204 S5000
M205 X30 Y30
G0 F3600 X97.261 Y138.556
M204 S500
M205 X20 Y20
G1 F1800 X74.601 Y115.896 E75.45281
M204 S5000
M205 X30 Y30
G0 F3600 X74.601 Y115.33
M204 S500
M205 X20 Y20
G1 F1800 X97.261 Y137.99 E76.51867
M204 S5000
M205 X30 Y30
G0 F3600 X97.261 Y137.424
M204 S500
M205 X20 Y20
G1 F1800 X74.601 Y114.764 E77.58453
M204 S5000
M205 X30 Y30
G0 F3600 X74.601 Y114.199
M204 S500
M205 X20 Y20
G1 F1800 X97.261 Y136.859 E78.65038
M204 S5000
M205 X30 Y30
G0 F3600 X97.261 Y136.293
M204 S500
M205 X20 Y20
G1 F1800 X74.601 Y113.633 E79.71624
M204 S5000
M205 X30 Y30
G0 F3600 X74.601 Y113.067
M204 S500
M205 X20 Y20
G1 F1800 X97.261 Y135.727 E80.7821
M204 S5000
M205 X30 Y30
G0 F3600 X97.261 Y135.162
M204 S500
M205 X20 Y20
G1 F1800 X74.601 Y112.502 E81.84796
M204 S5000
M205 X30 Y30
G0 F3600 X74.601 Y111.936
M204 S500
M205 X20 Y20
G1 F1800 X97.261 Y134.596 E82.91381
M204 S5000
M205 X30 Y30
G0 F3600 X97.261 Y134.03
M204 S500
M205 X20 Y20
G1 F1800 X74.601 Y111.37 E83.97967
M204 S5000
M205 X30 Y30
G0 F3600 X74.601 Y110.805
M204 S500
M205 X20 Y20
G1 F1800 X97.261 Y133.464 E85.0455
M204 S5000
M205 X30 Y30
G0 F3600 X97.261 Y132.899
M204 S500
M205 X20 Y20
G1 F1800 X74.601 Y110.239 E86.11136
M204 S5000
M205 X30 Y30
G0 F3600 X74.601 Y109.673
M204 S500
M205 X20 Y20
G1 F1800 X97.261 Y132.333 E87.17722
M204 S5000
M205 X30 Y30
G0 F3600 X97.261 Y131.767
M204 S500
M205 X20 Y20
G1 F1800 X74.601 Y109.107 E88.24307
M204 S5000
M205 X30 Y30
G0 F3600 X74.601 Y108.542
M204 S500
M205 X20 Y20
G1 F1800 X97.261 Y131.202 E89.30893
M204 S5000
M205 X30 Y30
G0 F3600 X97.261 Y130.636
M204 S500
M205 X20 Y20
G1 F1800 X74.601 Y107.976 E90.37479
M204 S5000
M205 X30 Y30
G0 F3600 X74.601 Y107.41
M204 S500
M205 X20 Y20
G1 F1800 X97.261 Y130.07 E91.44064
M204 S5000
M205 X30 Y30
G0 F3600 X97.261 Y129.505
M204 S500
M205 X20 Y20
G1 F1800 X74.601 Y106.845 E92.5065
M204 S5000
M205 X30 Y30
G0 F3600 X74.601 Y106.279
M204 S500
M205 X20 Y20
G1 F1800 X97.261 Y128.939 E93.57236
M204 S5000
M205 X30 Y30
G0 F3600 X97.261 Y128.373
M204 S500
M205 X20 Y20
G1 F1800 X74.601 Y105.713 E94.63822
M204 S5000
M205 X30 Y30
G0 F3600 X74.601 Y105.148
M204 S500
M205 X20 Y20
G1 F1800 X97.261 Y127.808 E95.70407
M204 S5000
M205 X30 Y30
G0 F3600 X97.261 Y127.242
M204 S500
M205 X20 Y20
G1 F1800 X74.601 Y104.582 E96.76993
M204 S5000
M205 X30 Y30
G0 F3600 X74.601 Y104.016
M204 S500
M205 X20 Y20
G1 F1800 X97.261 Y126.676 E97.83579
M204 S5000
M205 X30 Y30
G0 F3600 X97.261 Y126.111
M204 S500
M205 X20 Y20
G1 F1800 X74.601 Y103.451 E98.90164
M204 S5000
M205 X30 Y30
G0 F3600 X74.601 Y102.885
M204 S500
M205 X20 Y20
