;FLAVOR:Marlin
;TIME:3750
;Filament used: 3.73199m
;Layer height: 0.2
;Generated with Cura_SteamEngine 4.0.0
M140 S60
M105
M190 S60
M104 S200
M105
M109 S200
M82 ;absolute extrusion mode
; Ender 3 Custom Start G-code
G28 ; Home all axes
G92 E0 ; Reset Extruder
G1 Z2.0 F3000 ; Move Z Axis up little to prevent scratching of Heat Bed
G1 X0.1 Y20 Z0.3 F5000.0 ; Move to start position
G1 X0.1 Y200.0 Z0.3 F1500.0 E15 ; Draw the first line
G1 X0.4 Y200.0 Z0.3 F5000.0 ; Move to side a little
G1 X0.4 Y20 Z0.3 F1500.0 E30 ; Draw the second line
G92 E0 ; Reset Extruder
G1 Z2.0 F3000 ; Move Z Axis up little to prevent scratching of Heat Bed
; End of custom start GCode
G92 E0
G1 F2400 E-5
;LAYER_COUNT:76
;LAYER:0
M107
M204 S5000
M205 X30 Y30
G0 F3600 X67.242 Y87.517 Z0.2
M204 S500
M205 X20 Y20
;TYPE:SKIRT
G1 F2400 E0
G1 F1800 X67.824 Y87.102 E0.02377
G1 X68.448 Y86.753 E0.04755
G1 X69.108 Y86.477 E0.07135
G1 X69.794 Y86.276 E0.09512
G1 X70.499 Y86.153 E0.11893
G1 X71.247 Y86.109 E0.14385
G1 X132.491 Y86.11 E2.18083
G1 X133.205 Y86.15 E2.20462
G1 X133.91 Y86.269 E2.2284
G1 X134.598 Y86.467 E2.25221
G1 X135.259 Y86.74 E2.27599
G1 X135.886 Y87.085 E2.2998
G1 X136.47 Y87.497 E2.32357
G1 X137.004 Y87.973 E2.34736
G1 X137.483 Y88.504 E2.37115
G1 X137.898 Y89.086 E2.39492
G1 X138.247 Y89.711 E2.41873
G1 X138.523 Y90.371 E2.44252
G1 X138.724 Y91.057 E2.4663
G1 X138.847 Y91.762 E2.4901
G1 X138.891 Y92.51 E2.51502
G1 X138.89 Y142.491 E4.1774
G1 X138.85 Y143.205 E4.20118
G1 X138.731 Y143.91 E4.22496
G1 X138.533 Y144.598 E4.24878
G1 X138.26 Y145.259 E4.27256
G1 X137.915 Y145.886 E4.29636
G1 X137.503 Y146.47 E4.32014
G1 X137.027 Y147.004 E4.34393
G1 X136.495 Y147.483 E4.36774
G1 X135.913 Y147.898 E4.39151
G1 X135.289 Y148.247 E4.41529
G1 X134.629 Y148.523 E4.43909
G1 X133.943 Y148.724 E4.46286
G1 X133.238 Y148.847 E4.48666
G1 X132.49 Y148.891 E4.51159
G1 X71.246 Y148.887 E6.54857
G1 X70.531 Y148.847 E6.57239
G1 X69.826 Y148.728 E6.59617
G1 X69.139 Y148.53 E6.61995
G1 X68.478 Y148.257 E6.64373
G1 X67.851 Y147.912 E6.66754
G1 X67.267 Y147.5 E6.69131
G1 X66.732 Y147.024 E6.71513
G1 X66.254 Y146.492 E6.73891
G1 X65.838 Y145.91 E6.76271
G1 X65.49 Y145.285 E6.7865
G1 X65.214 Y144.626 E6.81026
G1 X65.013 Y143.939 E6.83407
G1 X64.89 Y143.235 E6.85784
G1 X64.846 Y142.487 E6.88276
G1 X64.847 Y92.509 E8.54504
G1 X64.887 Y91.795 E8.56882
G1 X65.006 Y91.09 E8.5926
G1 X65.204 Y90.402 E8.61641
G1 X65.477 Y89.741 E8.6402
G1 X65.822 Y89.114 E8.664
G1 X66.234 Y88.53 E8.68777
G1 X66.71 Y87.996 E8.71157
G1 X67.242 Y87.517 E8.73538
M204 S5000
M205 X30 Y30
G0 F3600 X67.631 Y87.721
M204 S500
M205 X20 Y20
G1 F1800 X68.207 Y87.336 E8.75842
G1 X68.823 Y87.021 E8.78143
G1 X69.471 Y86.778 E8.80445
G1 X70.144 Y86.611 E8.82751
G1 X70.831 Y86.523 E8.85055
G1 X71.247 Y86.509 E8.86439
G1 X132.491 Y86.51 E10.90138
G1 X133.182 Y86.55 E10.9244
G1 X133.865 Y86.669 E10.94746
G1 X134.529 Y86.867 E10.9705
G1 X135.165 Y87.139 E10.99351
G1 X135.766 Y87.483 E11.01654
G1 X136.324 Y87.894 E11.03959
G1 X136.83 Y88.366 E11.06261
G1 X137.279 Y88.894 E11.08566
G1 X137.664 Y89.47 E11.1087
G1 X137.979 Y90.086 E11.13171
G1 X138.222 Y90.734 E11.15473
G1 X138.389 Y91.407 E11.17779
G1 X138.477 Y92.094 E11.20083
G1 X138.491 Y92.51 E11.21468
G1 X138.49 Y142.491 E12.87705
G1 X138.45 Y143.182 E12.90007
G1 X138.331 Y143.865 E12.92313
G1 X138.133 Y144.529 E12.94618
G1 X137.861 Y145.165 E12.96918
G1 X137.517 Y145.766 E12.99221
G1 X137.106 Y146.324 E13.01526
G1 X136.634 Y146.83 E13.03828
G1 X136.106 Y147.279 E13.06133
G1 X135.53 Y147.664 E13.08438
G1 X134.914 Y147.979 E13.10739
G1 X134.266 Y148.222 E13.13041
G1 X133.593 Y148.389 E13.15347
G1 X132.906 Y148.477 E13.1765
G1 X132.49 Y148.491 E13.19035
G1 X71.246 Y148.487 E15.22733
G1 X70.554 Y148.447 E15.25039
G1 X69.872 Y148.328 E15.27341
G1 X69.208 Y148.13 E15.29646
G1 X68.572 Y147.858 E15.31947
G1 X67.97 Y147.514 E15.34253
G1 X67.413 Y147.103 E15.36555
G1 X66.907 Y146.631 E15.38856
G1 X66.458 Y146.103 E15.41162
G1 X66.073 Y145.527 E15.43466
G1 X65.757 Y144.911 E15.45769
G1 X65.515 Y144.262 E15.48073
G1 X65.348 Y143.59 E15.50376
G1 X65.26 Y142.903 E15.52679
G1 X65.246 Y142.487 E15.54064
G1 X65.247 Y92.509 E17.20291
G1 X65.287 Y91.818 E17.22593
G1 X65.406 Y91.135 E17.24899
G1 X65.604 Y90.471 E17.27204
G1 X65.876 Y89.835 E17.29504
G1 X66.22 Y89.234 E17.31808
G1 X66.631 Y88.676 E17.34113
G1 X67.103 Y88.17 E17.36414
G1 X67.631 Y87.721 E17.38719
M204 S5000
M205 X30 Y30
G0 F3600 X67.496 Y88.351
M204 S500
M205 X20 Y20
G1 F1800 X68.019 Y87.933 E17.40946
G1 X68.587 Y87.581 E17.43169
G1 X69.194 Y87.299 E17.45395
G1 X69.83 Y87.091 E17.4762
G1 X70.486 Y86.961 E17.49845
G1 X71.247 Y86.909 E17.52382
G1 X132.491 Y86.91 E19.5608
G1 X133.159 Y86.95 E19.58306
G1 X133.817 Y87.069 E19.6053
G1 X134.457 Y87.266 E19.62757
G1 X135.068 Y87.538 E19.64982
G1 X135.642 Y87.881 E19.67206
G1 X136.172 Y88.29 E19.69432
G1 X136.649 Y88.759 E19.71657
G1 X137.067 Y89.282 E19.73884
G1 X137.419 Y89.85 E19.76107
G1 X137.701 Y90.457 E19.78333
G1 X137.909 Y91.093 E19.80558
G1 X138.039 Y91.749 E19.82783
G1 X138.091 Y92.51 E19.8532
G1 X138.09 Y142.491 E21.51557
G1 X138.05 Y143.159 E21.53783
G1 X137.931 Y143.817 E21.56007
G1 X137.734 Y144.457 E21.58234
G1 X137.462 Y145.068 E21.60458
G1 X137.119 Y145.642 E21.62682
G1 X136.71 Y146.172 E21.64909
G1 X136.241 Y146.649 E21.67134
G1 X135.718 Y147.067 E21.69361
G1 X135.15 Y147.419 E21.71583
G1 X134.543 Y147.701 E21.7381
G1 X133.907 Y147.909 E21.76035
G1 X133.251 Y148.039 E21.78259
G1 X132.49 Y148.091 E21.80796
G1 X71.246 Y148.087 E23.84495
G1 X70.578 Y148.047 E23.86721
G1 X69.92 Y147.928 E23.88945
G1 X69.28 Y147.731 E23.91172
G1 X68.669 Y147.459 E23.93396
G1 X68.094 Y147.116 E23.95623
G1 X67.565 Y146.707 E23.97847
G1 X67.088 Y146.238 E24.00072
G1 X66.67 Y145.715 E24.02299
G1 X66.318 Y145.147 E24.04521
G1 X66.036 Y144.54 E24.06748
G1 X65.828 Y143.904 E24.08973
G1 X65.698 Y143.248 E24.11197
G1 X65.646 Y142.487 E24.13734
G1 X65.647 Y92.509 E25.79962
G1 X65.687 Y91.841 E25.82188
G1 X65.806 Y91.183 E25.84412
G1 X66.003 Y90.543 E25.86639
G1 X66.275 Y89.932 E25.88863
G1 X66.618 Y89.358 E25.91087
G1 X67.027 Y88.828 E25.93314
G1 X67.496 Y88.351 E25.95539
M204 S5000
M205 X30 Y30
G0 F3600 X67.888 Y88.54
M204 S500
M205 X20 Y20
G1 F1800 X68.405 Y88.155 E25.97683
G1 X68.965 Y87.836 E25.99827
G1 X69.561 Y87.59 E26.01971
G1 X70.182 Y87.419 E26.04113
G1 X70.82 Y87.327 E26.06257
G1 X71.247 Y87.309 E26.07679
G1 X132.491 Y87.31 E28.11377
G1 X133.135 Y87.35 E28.13523
G1 X133.768 Y87.469 E28.15665
G1 X134.382 Y87.666 E28.1781
G1 X134.967 Y87.937 E28.19955
G1 X135.514 Y88.279 E28.221
G1 X136.014 Y88.685 E28.24242
G1 X136.46 Y89.151 E28.26388
G1 X136.845 Y89.667 E28.28529
G1 X137.164 Y90.228 E28.30676
G1 X137.41 Y90.824 E28.3282
G1 X137.581 Y91.445 E28.34962
G1 X137.673 Y92.083 E28.37106
G1 X137.691 Y92.51 E28.38528
G1 X137.69 Y142.491 E30.04765
G1 X137.65 Y143.135 E30.06911
G1 X137.531 Y143.768 E30.09054
G1 X137.334 Y144.382 E30.11198
G1 X137.063 Y144.967 E30.13343
G1 X136.721 Y145.514 E30.15488
G1 X136.315 Y146.014 E30.17631
G1 X135.849 Y146.46 E30.19776
G1 X135.332 Y146.845 E30.2192
G1 X134.772 Y147.164 E30.24064
G1 X134.176 Y147.41 E30.26208
G1 X133.555 Y147.581 E30.2835
G1 X132.917 Y147.673 E30.30494
G1 X132.49 Y147.691 E30.31916
G1 X71.246 Y147.687 E32.35614
G1 X70.602 Y147.647 E32.3776
G1 X69.969 Y147.528 E32.39902
G1 X69.355 Y147.331 E32.42047
G1 X68.77 Y147.06 E32.44192
G1 X68.223 Y146.718 E32.46337
G1 X67.723 Y146.312 E32.48479
G1 X67.277 Y145.846 E32.50625
G1 X66.892 Y145.329 E32.52769
G1 X66.573 Y144.769 E32.54912
G1 X66.327 Y144.173 E32.57057
G1 X66.156 Y143.551 E32.59202
G1 X66.064 Y142.913 E32.61346
G1 X66.046 Y142.487 E32.62764
G1 X66.047 Y92.509 E34.28992
G1 X66.087 Y91.865 E34.31138
G1 X66.206 Y91.232 E34.3328
G1 X66.403 Y90.618 E34.35425
G1 X66.674 Y90.033 E34.37569
G1 X67.016 Y89.486 E34.39715
G1 X67.422 Y88.986 E34.41857
G1 X67.888 Y88.54 E34.44003
M204 S5000
M205 X30 Y30
G1 F2400 E29.44003
;MESH:Friction1_C2.stl
G0 F3600 X71.851 Y91.835
G0 X71.851 Y93.114
G0 X95.567 Y141.83
G0 X95.637 Y141.9
M204 S500
M205 X20 Y20
;TYPE:WALL-INNER
G1 F2400 E34.44003
G1 F1800 X71.837 Y141.9 E35.23162
G1 X71.837 Y93.1 E36.85471
G1 X95.637 Y93.1 E37.6463
G1 X95.637 Y141.9 E39.2694
M204 S5000
M205 X30 Y30
G0 F3600 X96.037 Y142.3
M204 S500
M205 X20 Y20
;TYPE:WALL-OUTER
G1 F1800 X71.437 Y142.3 E40.0876
G1 X71.437 Y92.7 E41.7373
G1 X96.037 Y92.7 E42.5555
G1 X96.037 Y142.3 E44.2052
M204 S5000
M205 X30 Y30
G0 F3600 X95.837 Y142.3
G0 X95.247 Y141.51
M204 S500
M205 X20 Y20
;TYPE:SKIN
G1 F1800 X72.227 Y141.51 E44.97085
G1 X72.227 Y93.49 E46.568
G1 X95.247 Y93.49 E47.33365
G1 X95.247 Y141.51 E48.9308
M204 S5000
M205 X30 Y30
G0 F3600 X72.88 Y141.328
M204 S500
M205 X20 Y20
G1 F1800 X72.407 Y140.854 E48.95307
M204 S5000
M205 X30 Y30
G0 F3600 X72.407 Y140.289
M204 S500
M205 X20 Y20
G1 F1800 X73.446 Y141.328 E49.00195
M204 S5000
M205 X30 Y30
G0 F3600 X74.012 Y141.328
M204 S500
M205 X20 Y20
G1 F1800 X72.407 Y139.723 E49.07744
M204 S5000
M205 X30 Y30
G0 F3600 X72.407 Y139.157
M204 S500
M205 X20 Y20
G1 F1800 X74.577 Y141.328 E49.17953
M204 S5000
M205 X30 Y30
G0 F3600 X75.143 Y141.328
M204 S500
M205 X20 Y20
G1 F1800 X72.407 Y138.592 E49.30823
M204 S5000
M205 X30 Y30
G0 F3600 X72.407 Y138.026
M204 S500
M205 X20 Y20
G1 F1800 X75.709 Y141.328 E49.46354
M204 S5000
M205 X30 Y30
G0 F3600 X76.274 Y141.328
M204 S500
M205 X20 Y20
G1 F1800 X72.407 Y137.46 E49.64546
M204 S5000
M205 X30 Y30
G0 F3600 X72.407 Y136.895
M204 S500
M205 X20 Y20
G1 F1800 X76.84 Y141.328 E49.85397
M204 S5000
M205 X30 Y30
G0 F3600 X77.406 Y141.328
M204 S500
M205 X20 Y20
G1 F1800 X72.407 Y136.329 E50.08911
M204 S5000
M205 X30 Y30
G0 F3600 X72.407 Y135.763
M204 S500
M205 X20 Y20
G1 F1800 X77.971 Y141.328 E50.35085
M204 S5000
M205 X30 Y30
G0 F3600 X78.537 Y141.328
M204 S500
M205 X20 Y20
G1 F1800 X72.407 Y135.198 E50.63918
M204 S5000
M205 X30 Y30
G0 F3600 X72.407 Y134.632
M204 S500
M205 X20 Y20
G1 F1800 X79.103 Y141.328 E50.95414
M204 S5000
M205 X30 Y30
G0 F3600 X79.669 Y141.328
M204 S500
M205 X20 Y20
G1 F1800 X72.407 Y134.066 E51.29573
M204 S5000
M205 X30 Y30
G0 F3600 X72.407 Y133.501
M204 S500
M205 X20 Y20
G1 F1800 X80.234 Y141.328 E51.66388
M204 S5000
M205 X30 Y30
G0 F3600 X80.8 Y141.328
M204 S500
M205 X20 Y20
G1 F1800 X72.407 Y132.935 E52.05866
M204 S5000
M205 X30 Y30
G0 F3600 X72.407 Y132.369
M204 S500
M205 X20 Y20
G1 F1800 X81.366 Y141.328 E52.48007
M204 S5000
M205 X30 Y30
G0 F3600 X81.931 Y141.328
M204 S500
M205 X20 Y20
G1 F1800 X72.407 Y131.803 E52.92807
M204 S5000
M205 X30 Y30
G0 F3600 X72.407 Y131.238
M204 S500
M205 X20 Y20
G1 F1800 X82.497 Y141.328 E53.40267
M204 S5000
M205 X30 Y30
G0 F3600 X83.063 Y141.328
M204 S500
M205 X20 Y20
G1 F1800 X72.407 Y130.672 E53.9039
M204 S5000
M205 X30 Y30
G0 F3600 X72.407 Y130.106
M204 S500
M205 X20 Y20
G1 F1800 X83.628 Y141.328 E54.43172
M204 S5000
M205 X30 Y30
G0 F3600 X84.194 Y141.328
M204 S500
M205 X20 Y20
G1 F1800 X72.407 Y129.541 E54.98615
M204 S5000
M205 X30 Y30
G0 F3600 X72.407 Y128.975
M204 S500
M205 X20 Y20
G1 F1800 X84.76 Y141.328 E55.5672
M204 S5000
M205 X30 Y30
G0 F3600 X85.325 Y141.328
M204 S500
M205 X20 Y20
G1 F1800 X72.407 Y128.409 E56.17484
M204 S5000
M205 X30 Y30
G0 F3600 X72.407 Y127.844
M204 S500
M205 X20 Y20
G1 F1800 X85.891 Y141.328 E56.80909
M204 S5000
M205 X30 Y30
G0 F3600 X86.457 Y141.328
M204 S500
M205 X20 Y20
G1 F1800 X72.407 Y127.278 E57.46996
M204 S5000
M205 X30 Y30
G0 F3600 X72.407 Y126.712
M204 S500
M205 X20 Y20
G1 F1800 X87.022 Y141.328 E58.15743
M204 S5000
M205 X30 Y30
G0 F3600 X87.588 Y141.328
M204 S500
M205 X20 Y20
G1 F1800 X72.407 Y126.147 E58.87149
M204 S5000
M205 X30 Y30
G0 F3600 X72.407 Y125.581
M204 S500
M205 X20 Y20
G1 F1800 X88.154 Y141.328 E59.61218
M204 S5000
M205 X30 Y30
G0 F3600 X88.719 Y141.328
M204 S500
M205 X20 Y20
G1 F1800 X72.407 Y125.015 E60.37947
M204 S5000
M205 X30 Y30
G0 F3600 X72.407 Y124.45
M204 S500
M205 X20 Y20
G1 F1800 X89.285 Y141.328 E61.17336
M204 S5000
M205 X30 Y30
G0 F3600 X89.851 Y141.328
M204 S500
M205 X20 Y20
G1 F1800 X72.407 Y123.884 E61.99388
M204 S5000
M205 X30 Y30
G0 F3600 X72.407 Y123.318
M204 S500
M205 X20 Y20
G1 F1800 X90.417 Y141.328 E62.84101
M204 S5000
M205 X30 Y30
G0 F3600 X90.982 Y141.328
M204 S500
M205 X20 Y20
G1 F1800 X72.407 Y122.753 E63.71472
M204 S5000
M205 X30 Y30
G0 F3600 X72.407 Y122.187
M204 S500
M205 X20 Y20
G1 F1800 X91.548 Y141.328 E64.61506
M204 S5000
M205 X30 Y30
G0 F3600 X92.114 Y141.328
M204 S500
M205 X20 Y20
G1 F1800 X72.407 Y121.621 E65.54201
M204 S5000
M205 X30 Y30
G0 F3600 X72.407 Y121.055
M204 S500
M205 X20 Y20
G1 F1800 X92.679 Y141.328 E66.49557
M204 S5000
M205 X30 Y30
G0 F3600 X93.245 Y141.328
M204 S500
M205 X20 Y20
G1 F1800 X72.407 Y120.49 E67.47572
M204 S5000
M205 X30 Y30
G0 F3600 X72.407 Y119.924
M204 S500
M205 X20 Y20
G1 F1800 X93.811 Y141.328 E68.4825
M204 S5000
M205 X30 Y30
G0 F3600 X94.376 Y141.328
M204 S500
M205 X20 Y20
G1 F1800 X72.407 Y119.358 E69.51588
M204 S5000
M205 X30 Y30
G0 F3600 X72.407 Y118.793
M204 S500
M205 X20 Y20
G1 F1800 X94.942 Y141.328 E70.57586
M204 S5000
M205 X30 Y30
G0 F3600 X95.066 Y140.887
M204 S500
M205 X20 Y20
G1 F1800 X72.407 Y118.227 E71.64169
M204 S5000
M205 X30 Y30
G0 F3600 X72.407 Y117.661
M204 S500
M205 X20 Y20
G1 F1800 X95.066 Y140.321 E72.70753
M204 S5000
M205 X30 Y30
G0 F3600 X95.066 Y139.756
M204 S500
M205 X20 Y20
G1 F1800 X72.407 Y117.096 E73.77336
M204 S5000
M205 X30 Y30
G0 F3600 X72.407 Y116.53
M204 S500
M205 X20 Y20
G1 F1800 X95.066 Y139.19 E74.83919
M204 S5000
M205 X30 Y30
G0 F3600 X95.066 Y138.624
M204 S500
M205 X20 Y20
G1 F1800 X72.407 Y115.964 E75.90503
M204 S5000
M205 X30 Y30
G0 F3600 X72.407 Y115.399
M204 S500
M205 X20 Y20
G1 F1800 X95.066 Y138.059 E76.97086
M204 S5000
M205 X30 Y30
G0 F3600 X95.066 Y137.493
M204 S500
M205 X20 Y20
G1 F1800 X72.407 Y114.833 E78.03669
M204 S5000
M205 X30 Y30
G0 F3600 X72.407 Y114.267
M204 S500
M205 X20 Y20
G1 F1800 X95.066 Y136.927 E79.10253
M204 S5000
M205 X30 Y30
G0 F3600 X95.066 Y136.362
M204 S500
M205 X20 Y20
G1 F1800 X72.407 Y113.702 E80.16836
M204 S5000
M205 X30 Y30
G0 F3600 X72.407 Y113.136
M204 S500
M205 X20 Y20
G1 F1800 X95.066 Y135.796 E81.23419
M204 S5000
M205 X30 Y30
G0 F3600 X95.066 Y135.23
M204 S500
M205 X20 Y20
G1 F1800 X72.407 Y112.57 E82.30003
M204 S5000
M205 X30 Y30
G0 F3600 X72.407 Y112.005
M204 S500
M205 X20 Y20
G1 F1800 X95.066 Y134.664 E83.36584
M204 S5000
M205 X30 Y30
G0 F3600 X95.066 Y134.099
M204 S500
M205 X20 Y20
G1 F1800 X72.407 Y111.439 E84.43167
M204 S5000
M205 X30 Y30
G0 F3600 X72.407 Y110.873
M204 S500
M205 X20 Y20
G1 F1800 X95.066 Y133.533 E85.4975
M204 S5000
M205 X30 Y30
G0 F3600 X95.066 Y132.967
M204 S500
M205 X20 Y20
G1 F1800 X72.407 Y110.307 E86.56334
M204 S5000
M205 X30 Y30
G0 F3600 X72.407 Y109.742
M204 S500
M205 X20 Y20
G1 F1800 X95.066 Y132.402 E87.62917
M204 S5000
M205 X30 Y30
G0 F3600 X95.066 Y131.836
M204 S500
M205 X20 Y20
G1 F1800 X72.407 Y109.176 E88.695
M204 S5000
M205 X30 Y30
G0 F3600 X72.407 Y108.61
M204 S500
M205 X20 Y20
G1 F1800 X95.066 Y131.27 E89.76084
M204 S5000
M205 X30 Y30
G0 F3600 X95.066 Y130.705
M204 S500
M205 X20 Y20
G1 F1800 X72.407 Y108.045 E90.82667
M204 S5000
M205 X30 Y30
G0 F3600 X72.407 Y107.479
M204 S500
M205 X20 Y20
G1 F1800 X95.066 Y130.139 E91.8925
M204 S5000
M205 X30 Y30
G0 F3600 X95.066 Y129.573
M204 S500
M205 X20 Y20
G1 F1800 X72.407 Y106.913 E92.95834
M204 S5000
M205 X30 Y30
G0 F3600 X72.407 Y106.348
M204 S500
M205 X20 Y20
G1 F1800 X95.066 Y129.008 E94.02417
M204 S5000
M205 X30 Y30
G0 F3600 X95.066 Y128.442
M204 S500
M205 X20 Y20
G1 F1800 X72.407 Y105.782 E95.09
M204 S5000
M205 X30 Y30
G0 F3600 X72.407 Y105.216
M204 S500
M205 X20 Y20
G1 F1800 X95.066 Y127.876 E96.15584
M204 S5000
M205 X30 Y30
G0 F3600 X95.066 Y127.311
M204 S500
M205 X20 Y20
G1 F1800 X72.407 Y104.651 E97.22167
M204 S5000
M205 X30 Y30
G0 F3600 X72.407 Y104.085
M204 S500
M205 X20 Y20
G1 F1800 X95.066 Y126.745 E98.2875
M204 S5000
M205 X30 Y30
G0 F3600 X95.066 Y126.179
M204 S500
M205 X20 Y20
G1 F1800 X72.407 Y103.519 E99.35334
M204 S5000
M205 X30 Y30
G0 F3600 X72.407 Y102.954
M204 S500
M205 X20 Y20
G1 F1800 X95.066 Y125.613 E100.41915
M204 S5000
