;FLAVOR:Marlin
;TIME:321
;Filament used: 0.274628m
;Layer height: 0.2
;Generated with Cura_SteamEngine 4.0.0
M140 S60
M105
M190 S60
M104 S200
M105
M109 S200
M82 ;absolute extrusion mode
; Ender 3 Custom Start G-code
G28 ; Home all axes
G92 E0 ; Reset Extruder
G1 Z2.0 F3000 ; Move Z Axis up little to prevent scratching of Heat Bed
G1 X0.1 Y20 Z0.3 F5000.0 ; Move to start position
G1 X0.1 Y200.0 Z0.3 F1500.0 E15 ; Draw the first line
G1 X0.4 Y200.0 Z0.3 F5000.0 ; Move to side a little
G1 X0.4 Y20 Z0.3 F1500.0 E30 ; Draw the second line
G92 E0 ; Reset Extruder
G1 Z2.0 F3000 ; Move Z Axis up little to prevent scratching of Heat Bed
; End of custom start GCode
G92 E0
G1 F2400 E-5
;LAYER_COUNT:16
;LAYER:0
M107
M204 S5000
M205 X30 Y30
G0 F3600 X96.503 Y107.517 Z0.2
M204 S500
M205 X20 Y20
;TYPE:SKIRT
G1 F2400 E0
G1 F1800 X97.085 Y107.102 E0.02377
G1 X97.71 Y106.753 E0.04758
G1 X98.37 Y106.477 E0.07138
G1 X99.056 Y106.276 E0.09515
G1 X99.761 Y106.153 E0.11896
G1 X100.509 Y106.109 E0.14388
G1 X134.491 Y106.11 E1.27412
G1 X135.205 Y106.15 E1.29791
G1 X135.911 Y106.269 E1.32172
G1 X136.598 Y106.467 E1.3455
G1 X137.259 Y106.74 E1.36929
G1 X137.886 Y107.085 E1.39309
G1 X138.47 Y107.497 E1.41686
G1 X139.005 Y107.973 E1.44068
G1 X139.483 Y108.505 E1.46447
G1 X139.898 Y109.087 E1.48824
G1 X140.247 Y109.711 E1.51202
G1 X140.523 Y110.371 E1.53581
G1 X140.724 Y111.057 E1.55959
G1 X140.847 Y111.762 E1.58339
G1 X140.891 Y112.51 E1.60831
G1 X140.891 Y122.491 E1.94028
G1 X140.851 Y123.205 E1.96407
G1 X140.732 Y123.91 E1.98785
G1 X140.534 Y124.598 E2.01166
G1 X140.261 Y125.259 E2.03545
G1 X139.917 Y125.886 E2.05923
G1 X139.504 Y126.47 E2.08302
G1 X139.029 Y127.004 E2.10679
G1 X138.497 Y127.483 E2.1306
G1 X137.915 Y127.898 E2.15438
G1 X137.29 Y128.247 E2.17819
G1 X136.63 Y128.523 E2.20198
G1 X135.944 Y128.724 E2.22576
G1 X135.239 Y128.847 E2.24956
G1 X134.491 Y128.891 E2.27448
G1 X100.509 Y128.891 E3.40473
G1 X99.795 Y128.851 E3.42851
G1 X99.09 Y128.732 E3.45229
G1 X98.402 Y128.534 E3.4761
G1 X97.741 Y128.261 E3.49989
G1 X97.114 Y127.917 E3.52368
G1 X96.53 Y127.504 E3.54747
G1 X95.996 Y127.029 E3.57124
G1 X95.517 Y126.497 E3.59505
G1 X95.102 Y125.915 E3.61882
G1 X94.753 Y125.29 E3.64263
G1 X94.477 Y124.63 E3.66642
G1 X94.276 Y123.944 E3.6902
G1 X94.153 Y123.239 E3.714
G1 X94.109 Y122.491 E3.73892
G1 X94.109 Y112.509 E4.07093
G1 X94.149 Y111.795 E4.09471
G1 X94.268 Y111.09 E4.11849
G1 X94.466 Y110.402 E4.1423
G1 X94.739 Y109.741 E4.16609
G1 X95.083 Y109.114 E4.18988
G1 X95.496 Y108.53 E4.21367
G1 X95.971 Y107.996 E4.23744
G1 X96.503 Y107.517 E4.26125
M204 S5000
M205 X30 Y30
G0 F3600 X96.893 Y107.721
M204 S500
M205 X20 Y20
G1 F1800 X97.468 Y107.336 E4.28426
G1 X98.085 Y107.021 E4.3073
G1 X98.733 Y106.778 E4.33032
G1 X99.406 Y106.611 E4.35339
G1 X100.092 Y106.523 E4.37639
G1 X100.509 Y106.509 E4.39027
G1 X134.491 Y106.51 E5.52051
G1 X135.183 Y106.55 E5.54357
G1 X135.865 Y106.669 E5.56659
G1 X136.529 Y106.867 E5.58964
G1 X137.165 Y107.139 E5.61265
G1 X137.766 Y107.483 E5.63568
G1 X138.324 Y107.894 E5.65873
G1 X138.83 Y108.366 E5.68174
G1 X139.279 Y108.894 E5.7048
G1 X139.664 Y109.47 E5.72784
G1 X139.98 Y110.086 E5.75087
G1 X140.222 Y110.734 E5.77387
G1 X140.389 Y111.407 E5.79693
G1 X140.477 Y112.094 E5.81997
G1 X140.491 Y112.51 E5.83381
G1 X140.491 Y122.491 E6.16578
G1 X140.451 Y123.182 E6.18881
G1 X140.332 Y123.865 E6.21186
G1 X140.134 Y124.528 E6.23488
G1 X139.862 Y125.165 E6.25792
G1 X139.518 Y125.766 E6.28095
G1 X139.107 Y126.324 E6.304
G1 X138.635 Y126.83 E6.32701
G1 X138.107 Y127.279 E6.35007
G1 X137.532 Y127.664 E6.37308
G1 X136.915 Y127.979 E6.39612
G1 X136.267 Y128.222 E6.41914
G1 X135.594 Y128.389 E6.4422
G1 X134.908 Y128.477 E6.46521
G1 X134.491 Y128.491 E6.47908
G1 X100.509 Y128.491 E7.60933
G1 X99.818 Y128.451 E7.63235
G1 X99.135 Y128.332 E7.65541
G1 X98.472 Y128.134 E7.67842
G1 X97.835 Y127.862 E7.70146
G1 X97.234 Y127.518 E7.72449
G1 X96.676 Y127.107 E7.74754
G1 X96.17 Y126.635 E7.77056
G1 X95.721 Y126.107 E7.79361
G1 X95.336 Y125.532 E7.81663
G1 X95.021 Y124.915 E7.83967
G1 X94.778 Y124.267 E7.86269
G1 X94.611 Y123.594 E7.88575
G1 X94.523 Y122.908 E7.90875
G1 X94.509 Y122.491 E7.92263
G1 X94.509 Y112.509 E8.25463
G1 X94.549 Y111.818 E8.27765
G1 X94.668 Y111.135 E8.30071
G1 X94.866 Y110.472 E8.32373
G1 X95.138 Y109.835 E8.34676
G1 X95.482 Y109.234 E8.3698
G1 X95.893 Y108.676 E8.39285
G1 X96.365 Y108.17 E8.41586
G1 X96.893 Y107.721 E8.43891
M204 S5000
M205 X30 Y30
G0 F3600 X96.758 Y108.351
M204 S500
M205 X20 Y20
G1 F1800 X97.28 Y107.933 E8.46116
G1 X97.849 Y107.581 E8.48341
G1 X98.456 Y107.299 E8.50567
G1 X99.092 Y107.091 E8.52793
G1 X99.748 Y106.961 E8.55017
G1 X100.509 Y106.909 E8.57554
G1 X134.491 Y106.91 E9.70579
G1 X135.159 Y106.95 E9.72804
G1 X135.817 Y107.069 E9.75028
G1 X136.457 Y107.266 E9.77256
G1 X137.068 Y107.538 E9.7948
G1 X137.643 Y107.881 E9.81707
G1 X138.172 Y108.29 E9.83931
G1 X138.649 Y108.759 E9.86156
G1 X139.067 Y109.282 E9.88383
G1 X139.419 Y109.85 E9.90605
G1 X139.701 Y110.457 E9.92831
G1 X139.909 Y111.093 E9.95057
G1 X140.039 Y111.749 E9.97281
G1 X140.091 Y112.51 E9.99818
G1 X140.091 Y122.491 E10.33015
G1 X140.051 Y123.159 E10.35241
G1 X139.932 Y123.817 E10.37465
G1 X139.735 Y124.457 E10.39692
G1 X139.463 Y125.068 E10.41917
G1 X139.12 Y125.642 E10.44141
G1 X138.711 Y126.172 E10.46367
G1 X138.242 Y126.649 E10.48592
G1 X137.72 Y127.067 E10.50816
G1 X137.151 Y127.419 E10.53042
G1 X136.544 Y127.701 E10.55268
G1 X135.908 Y127.909 E10.57494
G1 X135.252 Y128.039 E10.59718
G1 X134.491 Y128.091 E10.62255
G1 X100.509 Y128.091 E11.75279
G1 X99.841 Y128.051 E11.77505
G1 X99.183 Y127.932 E11.79729
G1 X98.543 Y127.735 E11.81956
G1 X97.932 Y127.463 E11.84181
G1 X97.358 Y127.12 E11.86405
G1 X96.828 Y126.711 E11.88632
G1 X96.351 Y126.242 E11.90856
G1 X95.933 Y125.72 E11.93081
G1 X95.581 Y125.151 E11.95306
G1 X95.299 Y124.544 E11.97532
G1 X95.091 Y123.908 E11.99758
G1 X94.961 Y123.252 E12.01982
G1 X94.909 Y122.491 E12.04519
G1 X94.909 Y112.509 E12.37719
G1 X94.949 Y111.841 E12.39945
G1 X95.068 Y111.183 E12.42169
G1 X95.265 Y110.543 E12.44396
G1 X95.537 Y109.932 E12.46621
G1 X95.88 Y109.358 E12.48845
G1 X96.289 Y108.828 E12.51071
G1 X96.758 Y108.351 E12.53296
M204 S5000
M205 X30 Y30
G0 F3600 X97.149 Y108.54
M204 S500
M205 X20 Y20
G1 F1800 X97.666 Y108.155 E12.5544
G1 X98.227 Y107.836 E12.57587
G1 X98.823 Y107.59 E12.59731
G1 X99.444 Y107.419 E12.61874
G1 X100.082 Y107.327 E12.64018
G1 X100.509 Y107.309 E12.65439
G1 X134.491 Y107.31 E13.78464
G1 X135.135 Y107.35 E13.8061
G1 X135.768 Y107.469 E13.82752
G1 X136.382 Y107.666 E13.84897
G1 X136.967 Y107.937 E13.87041
G1 X137.514 Y108.279 E13.89187
G1 X138.014 Y108.685 E13.91329
G1 X138.46 Y109.151 E13.93474
G1 X138.845 Y109.668 E13.95618
G1 X139.164 Y110.228 E13.97762
G1 X139.41 Y110.824 E13.99906
G1 X139.581 Y111.446 E14.02052
G1 X139.673 Y112.084 E14.04196
G1 X139.691 Y112.51 E14.05614
G1 X139.691 Y122.491 E14.38811
G1 X139.651 Y123.134 E14.40954
G1 X139.532 Y123.768 E14.43099
G1 X139.335 Y124.382 E14.45244
G1 X139.064 Y124.967 E14.47388
G1 X138.722 Y125.514 E14.49534
G1 X138.316 Y126.014 E14.51676
G1 X137.851 Y126.46 E14.53819
G1 X137.334 Y126.845 E14.55963
G1 X136.773 Y127.164 E14.5811
G1 X136.177 Y127.41 E14.60254
G1 X135.556 Y127.581 E14.62396
G1 X134.918 Y127.673 E14.6454
G1 X134.491 Y127.691 E14.65962
G1 X100.509 Y127.691 E15.78986
G1 X99.866 Y127.651 E15.81129
G1 X99.232 Y127.532 E15.83275
G1 X98.618 Y127.335 E15.85419
G1 X98.033 Y127.064 E15.87564
G1 X97.486 Y126.722 E15.89709
G1 X96.986 Y126.316 E15.91852
G1 X96.54 Y125.851 E15.93995
G1 X96.155 Y125.334 E15.96139
G1 X95.836 Y124.773 E15.98285
G1 X95.59 Y124.177 E16.0043
G1 X95.419 Y123.556 E16.02572
G1 X95.327 Y122.918 E16.04716
G1 X95.309 Y122.491 E16.06137
G1 X95.309 Y112.509 E16.39338
G1 X95.349 Y111.866 E16.4148
G1 X95.468 Y111.232 E16.43626
G1 X95.665 Y110.618 E16.45771
G1 X95.936 Y110.033 E16.47915
G1 X96.278 Y109.486 E16.50061
G1 X96.684 Y108.986 E16.52203
G1 X97.149 Y108.54 E16.54346
M204 S5000
M205 X30 Y30
G1 F2400 E11.54346
;MESH:fitting_v3.stl
G0 F3600 X101.114 Y111.835
G0 X101.114 Y113.114
G0 X133.83 Y121.83
G0 X133.9 Y121.9
M204 S500
M205 X20 Y20
;TYPE:WALL-INNER
G1 F2400 E16.54346
G1 F1800 X101.1 Y121.9 E17.63439
G1 X101.1 Y113.1 E17.92708
G1 X133.9 Y113.1 E19.01801
G1 X133.9 Y121.9 E19.3107
M204 S5000
M205 X30 Y30
G0 F3600 X134.3 Y122.3
M204 S500
M205 X20 Y20
;TYPE:WALL-OUTER
G1 F1800 X100.7 Y122.3 E20.42824
G1 X100.7 Y112.7 E20.74754
G1 X134.3 Y112.7 E21.86508
G1 X134.3 Y122.3 E22.18438
M204 S5000
M205 X30 Y30
G0 F3600 X134.1 Y122.3
G0 X133.51 Y121.51
M204 S500
M205 X20 Y20
;TYPE:SKIN
G1 F1800 X101.49 Y121.51 E23.24937
G1 X101.49 Y113.49 E23.51611
G1 X133.51 Y113.49 E24.5811
G1 X133.51 Y121.51 E24.84785
M204 S5000
M205 X30 Y30
G0 F3600 X133.329 Y114.095
M204 S500
M205 X20 Y20
G1 F1800 X132.903 Y113.67 E24.86786
M204 S5000
M205 X30 Y30
G0 F3600 X132.337 Y113.67
M204 S500
M205 X20 Y20
G1 F1800 X133.329 Y114.661 E24.9145
M204 S5000
M205 X30 Y30
G0 F3600 X133.329 Y115.227
M204 S500
M205 X20 Y20
G1 F1800 X131.772 Y113.67 E24.98774
M204 S5000
M205 X30 Y30
G0 F3600 X131.206 Y113.67
M204 S500
M205 X20 Y20
G1 F1800 X133.329 Y115.792 E25.08757
M204 S5000
M205 X30 Y30
G0 F3600 X133.329 Y116.358
M204 S500
M205 X20 Y20
G1 F1800 X130.64 Y113.67 E25.21403
M204 S5000
M205 X30 Y30
G0 F3600 X130.075 Y113.67
M204 S500
M205 X20 Y20
G1 F1800 X133.329 Y116.924 E25.36709
M204 S5000
M205 X30 Y30
G0 F3600 X133.329 Y117.49
M204 S500
M205 X20 Y20
G1 F1800 X129.509 Y113.67 E25.54677
M204 S5000
M205 X30 Y30
G0 F3600 X128.943 Y113.67
M204 S500
M205 X20 Y20
G1 F1800 X133.329 Y118.055 E25.75305
M204 S5000
M205 X30 Y30
G0 F3600 X133.329 Y118.621
M204 S500
M205 X20 Y20
G1 F1800 X128.378 Y113.67 E25.98593
M204 S5000
M205 X30 Y30
G0 F3600 X127.812 Y113.67
M204 S500
M205 X20 Y20
G1 F1800 X133.329 Y119.187 E26.24543
M204 S5000
M205 X30 Y30
G0 F3600 X133.329 Y119.752
M204 S500
M205 X20 Y20
G1 F1800 X127.246 Y113.67 E26.53154
M204 S5000
M205 X30 Y30
G0 F3600 X126.681 Y113.67
M204 S500
M205 X20 Y20
G1 F1800 X133.329 Y120.318 E26.84424
M204 S5000
M205 X30 Y30
G0 F3600 X133.329 Y120.884
M204 S500
M205 X20 Y20
G1 F1800 X126.115 Y113.67 E27.18356
M204 S5000
M205 X30 Y30
G0 F3600 X125.549 Y113.67
M204 S500
M205 X20 Y20
G1 F1800 X133.208 Y121.328 E27.54379
M204 S5000
M205 X30 Y30
G0 F3600 X132.642 Y121.328
M204 S500
M205 X20 Y20
G1 F1800 X124.983 Y113.67 E27.90403
M204 S5000
M205 X30 Y30
G0 F3600 X124.418 Y113.67
M204 S500
M205 X20 Y20
G1 F1800 X132.076 Y121.328 E28.26423
M204 S5000
M205 X30 Y30
G0 F3600 X131.511 Y121.328
M204 S500
M205 X20 Y20
G1 F1800 X123.852 Y113.67 E28.62447
M204 S5000
M205 X30 Y30
G0 F3600 X123.286 Y113.67
M204 S500
M205 X20 Y20
G1 F1800 X130.945 Y121.328 E28.9847
M204 S5000
M205 X30 Y30
G0 F3600 X130.379 Y121.328
M204 S500
M205 X20 Y20
G1 F1800 X122.721 Y113.67 E29.34491
M204 S5000
M205 X30 Y30
G0 F3600 X122.155 Y113.67
M204 S500
M205 X20 Y20
G1 F1800 X129.814 Y121.328 E29.70514
M204 S5000
M205 X30 Y30
G0 F3600 X129.248 Y121.328
M204 S500
M205 X20 Y20
G1 F1800 X121.589 Y113.67 E30.06537
M204 S5000
M205 X30 Y30
G0 F3600 X121.024 Y113.67
M204 S500
M205 X20 Y20
G1 F1800 X128.682 Y121.328 E30.42558
M204 S5000
M205 X30 Y30
G0 F3600 X128.117 Y121.328
M204 S500
M205 X20 Y20
G1 F1800 X120.458 Y113.67 E30.78581
M204 S5000
M205 X30 Y30
G0 F3600 X119.892 Y113.67
M204 S500
M205 X20 Y20
G1 F1800 X127.551 Y121.328 E31.14605
M204 S5000
M205 X30 Y30
G0 F3600 X126.985 Y121.328
M204 S500
M205 X20 Y20
G1 F1800 X119.327 Y113.67 E31.50626
M204 S5000
M205 X30 Y30
G0 F3600 X118.761 Y113.67
M204 S500
M205 X20 Y20
G1 F1800 X126.42 Y121.328 E31.86649
M204 S5000
M205 X30 Y30
G0 F3600 X125.854 Y121.328
M204 S500
M205 X20 Y20
G1 F1800 X118.195 Y113.67 E32.22672
M204 S5000
M205 X30 Y30
G0 F3600 X117.63 Y113.67
M204 S500
M205 X20 Y20
G1 F1800 X125.288 Y121.328 E32.58693
M204 S5000
M205 X30 Y30
G0 F3600 X124.723 Y121.328
M204 S500
M205 X20 Y20
G1 F1800 X117.064 Y113.67 E32.94716
M204 S5000
M205 X30 Y30
G0 F3600 X116.498 Y113.67
M204 S500
M205 X20 Y20
G1 F1800 X124.157 Y121.328 E33.30739
M204 S5000
M205 X30 Y30
G0 F3600 X123.591 Y121.328
M204 S500
M205 X20 Y20
G1 F1800 X115.932 Y113.67 E33.66763
M204 S5000
M205 X30 Y30
G0 F3600 X115.367 Y113.67
M204 S500
M205 X20 Y20
G1 F1800 X123.025 Y121.328 E34.02783
M204 S5000
M205 X30 Y30
G0 F3600 X122.46 Y121.328
M204 S500
M205 X20 Y20
G1 F1800 X114.801 Y113.67 E34.38807
M204 S5000
M205 X30 Y30
G0 F3600 X114.235 Y113.67
M204 S500
M205 X20 Y20
G1 F1800 X121.894 Y121.328 E34.7483
M204 S5000
M205 X30 Y30
G0 F3600 X121.328 Y121.328
M204 S500
M205 X20 Y20
G1 F1800 X113.67 Y113.67 E35.10851
M204 S5000
M205 X30 Y30
G0 F3600 X113.104 Y113.67
M204 S500
M205 X20 Y20
G1 F1800 X120.763 Y121.328 E35.46874
M204 S5000
M205 X30 Y30
G0 F3600 X120.197 Y121.328
M204 S500
M205 X20 Y20
G1 F1800 X112.538 Y113.67 E35.82897
M204 S5000
M205 X30 Y30
G0 F3600 X111.973 Y113.67
M204 S500
M205 X20 Y20
G1 F1800 X119.631 Y121.328 E36.18918
M204 S5000
M205 X30 Y30
G0 F3600 X119.066 Y121.328
M204 S500
M205 X20 Y20
G1 F1800 X111.407 Y113.67 E36.54941
M204 S5000
M205 X30 Y30
G0 F3600 X110.841 Y113.67
M204 S500
M205 X20 Y20
G1 F1800 X118.5 Y121.328 E36.90965
M204 S5000
M205 X30 Y30
G0 F3600 X117.934 Y121.328
M204 S500
M205 X20 Y20
G1 F1800 X110.276 Y113.67 E37.26986
M204 S5000
M205 X30 Y30
G0 F3600 X109.71 Y113.67
M204 S500
M205 X20 Y20
G1 F1800 X117.369 Y121.328 E37.63009
M204 S5000
M205 X30 Y30
G0 F3600 X116.803 Y121.328
M204 S500
M205 X20 Y20
G1 F1800 X109.144 Y113.67 E37.99032
M204 S5000
M205 X30 Y30
G0 F3600 X108.579 Y113.67
M204 S500
M205 X20 Y20
G1 F1800 X116.237 Y121.328 E38.35053
M204 S5000
M205 X30 Y30
G0 F3600 X115.672 Y121.328
M204 S500
M205 X20 Y20
G1 F1800 X108.013 Y113.67 E38.71076
M204 S5000
M205 X30 Y30
G0 F3600 X107.447 Y113.67
M204 S500
M205 X20 Y20
G1 F1800 X115.106 Y121.328 E39.07099
M204 S5000
M205 X30 Y30
G0 F3600 X114.54 Y121.328
M204 S500
M205 X20 Y20
G1 F1800 X106.882 Y113.67 E39.4312
M204 S5000
M205 X30 Y30
G0 F3600 X106.316 Y113.67
M204 S500
M205 X20 Y20
G1 F1800 X113.975 Y121.328 E39.79144
M204 S5000
M205 X30 Y30
G0 F3600 X113.409 Y121.328
M204 S500
M205 X20 Y20
G1 F1800 X105.75 Y113.67 E40.15167
M204 S5000
M205 X30 Y30
G0 F3600 X105.184 Y113.67
M204 S500
M205 X20 Y20
G1 F1800 X112.843 Y121.328 E40.5119
M204 S5000
M205 X30 Y30
G0 F3600 X112.277 Y121.328
M204 S500
M205 X20 Y20
G1 F1800 X104.619 Y113.67 E40.87211
M204 S5000
M205 X30 Y30
G0 F3600 X104.053 Y113.67
M204 S500
M205 X20 Y20
G1 F1800 X111.712 Y121.328 E41.23234
M204 S5000
M205 X30 Y30
G0 F3600 X111.146 Y121.328
M204 S500
M205 X20 Y20
G1 F1800 X103.487 Y113.67 E41.59257
M204 S5000
M205 X30 Y30
G0 F3600 X102.922 Y113.67
M204 S500
M205 X20 Y20
G1 F1800 X110.58 Y121.328 E41.95278
M204 S5000
M205 X30 Y30
G0 F3600 X110.015 Y121.328
M204 S500
M205 X20 Y20
G1 F1800 X102.356 Y113.67 E42.31301
M204 S5000
M205 X30 Y30
G0 F3600 X101.79 Y113.67
M204 S500
M205 X20 Y20
G1 F1800 X109.449 Y121.328 E42.67325
M204 S5000
M205 X30 Y30
G0 F3600 X108.883 Y121.328
M204 S500
M205 X20 Y20
G1 F1800 X101.669 Y114.115 E43.01255
M204 S5000
M205 X30 Y30
G0 F3600 X101.669 Y114.68
M204 S500
M205 X20 Y20
G1 F1800 X108.318 Y121.328 E43.32527
M204 S5000
M205 X30 Y30
G0 F3600 X107.752 Y121.328
M204 S500
M205 X20 Y20
G1 F1800 X101.669 Y115.246 E43.61138
M204 S5000
M205 X30 Y30
G0 F3600 X101.669 Y115.812
M204 S500
M205 X20 Y20
G1 F1800 X107.186 Y121.328 E43.87085
M204 S5000
M205 X30 Y30
G0 F3600 X106.621 Y121.328
M204 S500
M205 X20 Y20
G1 F1800 X101.669 Y116.377 E44.10376
M204 S5000
M205 X30 Y30
G0 F3600 X101.669 Y116.943
M204 S500
M205 X20 Y20
G1 F1800 X106.055 Y121.328 E44.31004
M204 S5000
M205 X30 Y30
G0 F3600 X105.489 Y121.328
M204 S500
M205 X20 Y20
G1 F1800 X101.669 Y117.509 E44.4897
M204 S5000
M205 X30 Y30
G0 F3600 X101.669 Y118.074
M204 S500
M205 X20 Y20
G1 F1800 X104.924 Y121.328 E44.64278
M204 S5000
M205 X30 Y30
G0 F3600 X104.358 Y121.328
M204 S500
M205 X20 Y20
G1 F1800 X101.669 Y118.64 E44.76924
M204 S5000
M205 X30 Y30
G0 F3600 X101.669 Y119.206
M204 S500
M205 X20 Y20
G1 F1800 X103.792 Y121.328 E44.86907
M204 S5000
M205 X30 Y30
G0 F3600 X103.226 Y121.328
M204 S500
