;FLAVOR:Marlin
;TIME:576
;Filament used: 0.489145m
;Layer height: 0.2
;Generated with Cura_SteamEngine 4.0.0
M140 S60
M105
M190 S60
M104 S200
M105
M109 S200
M82 ;absolute extrusion mode
; Ender 3 Custom Start G-code
G28 ; Home all axes
G92 E0 ; Reset Extruder
G1 Z2.0 F3000 ; Move Z Axis up little to prevent scratching of Heat Bed
G1 X0.1 Y20 Z0.3 F5000.0 ; Move to start position
G1 X0.1 Y200.0 Z0.3 F1500.0 E15 ; Draw the first line
G1 X0.4 Y200.0 Z0.3 F5000.0 ; Move to side a little
G1 X0.4 Y20 Z0.3 F1500.0 E30 ; Draw the second line
G92 E0 ; Reset Extruder
G1 Z2.0 F3000 ; Move Z Axis up little to prevent scratching of Heat Bed
; End of custom start GCode
G92 E0
G1 F2400 E-5
;LAYER_COUNT:31
;LAYER:0
M107
M204 S5000
M205 X30 Y30
G0 F3600 X103.58 Y105.493 Z0.2
M204 S500
M205 X20 Y20
;TYPE:SKIRT
G1 F2400 E0
G1 F1800 X104.097 Y104.998 E0.02381
G1 X104.496 Y104.684 E0.04069
G1 X109.279 Y101.211 E0.23729
G1 X109.88 Y100.824 E0.26107
G1 X110.521 Y100.506 E0.28487
G1 X110.976 Y100.332 E0.30107
G1 X112.45 Y99.83 E0.35286
G1 X113.139 Y99.637 E0.37666
G1 X113.845 Y99.523 E0.40044
G1 X114.521 Y99.488 E0.42296
G1 X120.483 Y99.495 E0.62125
G1 X121.197 Y99.536 E0.64504
G1 X121.902 Y99.656 E0.66883
G1 X122.409 Y99.794 E0.6863
G1 X123.841 Y100.248 E0.73627
G1 X124.51 Y100.502 E0.76007
G1 X125.146 Y100.829 E0.78385
G1 X125.673 Y101.175 E0.80482
G1 X130.528 Y104.709 E1.00455
G1 X131.082 Y105.161 E1.02833
G1 X131.437 Y105.512 E1.04493
G1 X136.389 Y110.808 E1.28609
G1 X136.847 Y111.357 E1.30987
G1 X137.242 Y111.953 E1.33365
G1 X137.567 Y112.59 E1.35743
G1 X137.819 Y113.26 E1.38124
G1 X137.995 Y113.953 E1.40502
G1 X138.093 Y114.662 E1.42883
G1 X138.114 Y115.179 E1.44604
G1 X138.114 Y119.824 E1.60053
G1 X138.074 Y120.538 E1.62432
G1 X137.955 Y121.243 E1.6481
G1 X137.757 Y121.931 E1.67191
G1 X137.484 Y122.592 E1.69569
G1 X137.14 Y123.219 E1.71948
G1 X136.727 Y123.803 E1.74327
G1 X136.389 Y124.195 E1.76049
G1 X131.431 Y129.497 E2.00192
G1 X130.914 Y129.992 E2.02573
G1 X130.518 Y130.304 E2.0425
G1 X125.666 Y133.829 E2.24197
G1 X125.064 Y134.216 E2.26577
G1 X124.424 Y134.534 E2.28954
G1 X123.885 Y134.737 E2.3087
G1 X122.469 Y135.198 E2.35823
G1 X121.778 Y135.381 E2.382
G1 X121.07 Y135.485 E2.4058
G1 X120.48 Y135.512 E2.42545
G1 X114.519 Y135.505 E2.62371
G1 X113.805 Y135.464 E2.6475
G1 X113.1 Y135.344 E2.67128
G1 X112.593 Y135.206 E2.68876
G1 X111.158 Y134.751 E2.73883
G1 X110.489 Y134.497 E2.76263
G1 X109.853 Y134.17 E2.78641
G1 X109.326 Y133.824 E2.80738
G1 X104.472 Y130.291 E3.00706
G1 X103.918 Y129.839 E3.03084
G1 X103.583 Y129.509 E3.04648
G1 X102.598 Y128.465 E3.09422
G1 X102.573 Y128.439 E3.09542
G1 X98.607 Y124.188 E3.28879
G1 X98.149 Y123.638 E3.3126
G1 X97.756 Y123.041 E3.33637
G1 X97.431 Y122.404 E3.36015
G1 X97.179 Y121.734 E3.38396
G1 X97.004 Y121.041 E3.40773
G1 X96.907 Y120.332 E3.43154
G1 X96.887 Y119.822 E3.44851
G1 X96.887 Y115.179 E3.60294
G1 X96.927 Y114.465 E3.62672
G1 X97.046 Y113.76 E3.6505
G1 X97.244 Y113.072 E3.67432
G1 X97.517 Y112.411 E3.6981
G1 X97.861 Y111.784 E3.72189
G1 X98.274 Y111.2 E3.74568
G1 X98.611 Y110.809 E3.76285
G1 X103.58 Y105.493 E4.00487
M204 S5000
M205 X30 Y30
G0 F3600 X103.873 Y105.766
M204 S500
M205 X20 Y20
G1 F1800 X104.374 Y105.288 E4.0279
G1 X104.731 Y105.008 E4.04299
G1 X109.514 Y101.535 E4.23959
G1 X110.097 Y101.161 E4.26263
G1 X110.719 Y100.857 E4.28565
G1 X111.105 Y100.71 E4.29939
G1 X112.579 Y100.208 E4.35118
G1 X113.246 Y100.023 E4.37421
G1 X113.93 Y99.916 E4.39723
G1 X114.52 Y99.888 E4.41688
G1 X120.482 Y99.895 E4.61517
G1 X121.173 Y99.936 E4.6382
G1 X121.855 Y100.056 E4.66123
G1 X122.288 Y100.176 E4.67617
G1 X123.72 Y100.63 E4.72614
G1 X124.367 Y100.877 E4.74917
G1 X124.981 Y101.197 E4.7722
G1 X125.438 Y101.498 E4.7904
G1 X130.293 Y105.032 E4.99013
G1 X130.829 Y105.471 E5.01317
G1 X131.145 Y105.785 E5.02799
G1 X136.097 Y111.081 E5.26914
G1 X136.54 Y111.613 E5.29217
G1 X136.918 Y112.193 E5.3152
G1 X137.228 Y112.813 E5.33825
G1 X137.464 Y113.464 E5.36128
G1 X137.623 Y114.138 E5.38431
G1 X137.704 Y114.826 E5.40736
G1 X137.714 Y115.179 E5.4191
G1 X137.714 Y119.824 E5.57359
G1 X137.674 Y120.515 E5.59662
G1 X137.555 Y121.198 E5.61967
G1 X137.357 Y121.861 E5.64269
G1 X137.085 Y122.498 E5.66573
G1 X136.741 Y123.099 E5.68876
G1 X136.33 Y123.657 E5.71181
G1 X136.096 Y123.922 E5.72357
G1 X131.138 Y129.224 E5.965
G1 X130.637 Y129.702 E5.98803
G1 X130.283 Y129.98 E6.003
G1 X125.431 Y133.505 E6.20247
G1 X124.848 Y133.879 E6.22551
G1 X124.226 Y134.184 E6.24855
G1 X123.761 Y134.356 E6.26504
G1 X122.345 Y134.817 E6.31457
G1 X121.676 Y134.993 E6.33758
G1 X120.99 Y135.091 E6.36063
G1 X120.481 Y135.112 E6.37757
G1 X114.52 Y135.105 E6.57584
G1 X113.829 Y135.064 E6.59886
G1 X113.147 Y134.944 E6.62189
G1 X112.714 Y134.824 E6.63684
G1 X111.279 Y134.369 E6.68691
G1 X110.632 Y134.122 E6.70994
G1 X110.017 Y133.802 E6.733
G1 X109.561 Y133.501 E6.75117
G1 X104.707 Y129.968 E6.95085
G1 X104.172 Y129.529 E6.97387
G1 X103.874 Y129.235 E6.98779
G1 X102.889 Y128.191 E7.03553
G1 X102.866 Y128.166 E7.03666
G1 X98.9 Y123.915 E7.23003
G1 X98.457 Y123.382 E7.25308
G1 X98.079 Y122.802 E7.27611
G1 X97.771 Y122.182 E7.29913
G1 X97.535 Y121.531 E7.32216
G1 X97.377 Y120.857 E7.34519
G1 X97.297 Y120.169 E7.36823
G1 X97.287 Y119.822 E7.37977
G1 X97.287 Y115.179 E7.5342
G1 X97.327 Y114.488 E7.55722
G1 X97.446 Y113.805 E7.58028
G1 X97.644 Y113.142 E7.60329
G1 X97.916 Y112.505 E7.62633
G1 X98.26 Y111.904 E7.64936
G1 X98.671 Y111.346 E7.67241
G1 X98.904 Y111.082 E7.68412
G1 X103.873 Y105.766 E7.92615
M204 S5000
M205 X30 Y30
G0 F3600 X104.165 Y106.039
M204 S500
M205 X20 Y20
G1 F1800 X104.65 Y105.578 E7.9484
G1 X104.966 Y105.332 E7.96172
G1 X109.749 Y101.859 E8.15832
G1 X110.313 Y101.499 E8.18058
G1 X110.915 Y101.208 E8.20282
G1 X111.234 Y101.089 E8.21414
G1 X112.708 Y100.587 E8.26593
G1 X113.353 Y100.41 E8.28818
G1 X114.014 Y100.31 E8.31041
G1 X114.52 Y100.288 E8.32726
G1 X120.482 Y100.295 E8.52555
G1 X121.149 Y100.336 E8.54778
G1 X121.808 Y100.456 E8.57006
G1 X122.167 Y100.557 E8.58246
G1 X123.599 Y101.011 E8.63243
G1 X124.224 Y101.251 E8.6547
G1 X124.815 Y101.563 E8.67692
G1 X125.203 Y101.821 E8.69242
G1 X130.058 Y105.355 E8.89215
G1 X130.574 Y105.781 E8.9144
G1 X130.852 Y106.058 E8.92746
G1 X135.804 Y111.354 E9.16861
G1 X136.231 Y111.869 E9.19086
G1 X136.594 Y112.432 E9.21314
G1 X136.887 Y113.033 E9.23538
G1 X137.106 Y113.665 E9.25763
G1 X137.248 Y114.319 E9.27988
G1 X137.314 Y115.179 E9.30857
G1 X137.314 Y119.824 E9.46307
G1 X137.274 Y120.492 E9.48532
G1 X137.155 Y121.15 E9.50756
G1 X136.958 Y121.79 E9.52984
G1 X136.686 Y122.401 E9.55208
G1 X136.343 Y122.975 E9.57432
G1 X135.804 Y123.649 E9.60302
G1 X130.846 Y128.951 E9.84446
G1 X130.361 Y129.411 E9.86669
G1 X130.047 Y129.657 E9.87996
G1 X125.195 Y133.182 E10.07943
G1 X124.632 Y133.542 E10.10166
G1 X124.029 Y133.832 E10.12391
G1 X123.638 Y133.976 E10.13777
G1 X122.222 Y134.437 E10.1873
G1 X121.574 Y134.606 E10.20957
G1 X120.911 Y134.696 E10.23183
G1 X120.481 Y134.712 E10.24614
G1 X114.52 Y134.705 E10.4444
G1 X113.853 Y134.664 E10.46663
G1 X113.194 Y134.544 E10.48891
G1 X112.834 Y134.443 E10.50134
G1 X111.399 Y133.988 E10.55141
G1 X110.775 Y133.748 E10.57365
G1 X110.183 Y133.435 E10.59592
G1 X109.797 Y133.178 E10.61135
G1 X104.943 Y129.645 E10.81103
G1 X104.426 Y129.219 E10.83331
G1 X104.165 Y128.96 E10.84554
G1 X103.18 Y127.916 E10.89328
G1 X103.158 Y127.893 E10.89434
G1 X99.192 Y123.642 E11.0877
G1 X98.766 Y123.127 E11.10993
G1 X98.404 Y122.564 E11.13219
G1 X98.112 Y121.962 E11.15445
G1 X97.894 Y121.33 E11.17668
G1 X97.752 Y120.676 E11.19894
G1 X97.687 Y119.822 E11.22743
G1 X97.687 Y115.179 E11.38186
G1 X97.727 Y114.511 E11.40411
G1 X97.846 Y113.853 E11.42635
G1 X98.043 Y113.213 E11.44863
G1 X98.315 Y112.602 E11.47087
G1 X98.658 Y112.028 E11.49311
G1 X99.196 Y111.355 E11.52177
G1 X104.165 Y106.039 E11.76379
M204 S5000
M205 X30 Y30
G0 F3600 X104.457 Y106.312
M204 S500
M205 X20 Y20
G1 F1800 X104.926 Y105.869 E11.78525
G1 X105.201 Y105.655 E11.79684
G1 X109.984 Y102.182 E11.99344
G1 X110.528 Y101.837 E12.01486
G1 X111.363 Y101.468 E12.04523
G1 X112.837 Y100.966 E12.09702
G1 X113.459 Y100.796 E12.11846
G1 X114.097 Y100.705 E12.1399
G1 X114.519 Y100.688 E12.15395
G1 X120.481 Y100.695 E12.35224
G1 X121.124 Y100.736 E12.37367
G1 X122.047 Y100.938 E12.4051
G1 X123.479 Y101.392 E12.45506
G1 X124.08 Y101.625 E12.4765
G1 X124.648 Y101.93 E12.49795
G1 X124.967 Y102.145 E12.51074
G1 X129.822 Y105.679 E12.71047
G1 X130.319 Y106.09 E12.73192
G1 X130.56 Y106.331 E12.74325
G1 X135.512 Y111.627 E12.98441
G1 X135.923 Y112.125 E13.00588
G1 X136.268 Y112.669 E13.02731
G1 X136.544 Y113.252 E13.04876
G1 X136.745 Y113.864 E13.07019
G1 X136.869 Y114.497 E13.09164
G1 X136.914 Y115.179 E13.11437
G1 X136.914 Y119.824 E13.26887
G1 X136.874 Y120.467 E13.29029
G1 X136.755 Y121.101 E13.31175
G1 X136.558 Y121.715 E13.3332
G1 X136.287 Y122.3 E13.35464
G1 X135.945 Y122.847 E13.3761
G1 X135.512 Y123.376 E13.39883
G1 X130.554 Y128.678 E13.64027
G1 X130.085 Y129.12 E13.6617
G1 X129.812 Y129.333 E13.67322
G1 X124.96 Y132.858 E13.87269
G1 X124.416 Y133.204 E13.89413
G1 X123.834 Y133.48 E13.91556
G1 X123.514 Y133.596 E13.92688
G1 X122.098 Y134.057 E13.97641
G1 X121.474 Y134.218 E13.99784
G1 X120.834 Y134.3 E14.0193
G1 X120.482 Y134.312 E14.03102
G1 X114.521 Y134.305 E14.22928
G1 X113.878 Y134.264 E14.25071
G1 X112.955 Y134.062 E14.28214
G1 X111.52 Y133.607 E14.33221
G1 X110.919 Y133.374 E14.35365
G1 X110.351 Y133.069 E14.37509
G1 X110.032 Y132.854 E14.38788
G1 X105.178 Y129.321 E14.58756
G1 X104.456 Y128.686 E14.61954
G1 X103.471 Y127.642 E14.66728
G1 X103.451 Y127.62 E14.66827
G1 X99.485 Y123.369 E14.86164
G1 X99.075 Y122.872 E14.88307
G1 X98.73 Y122.327 E14.90452
G1 X98.455 Y121.744 E14.92596
G1 X98.255 Y121.131 E14.94741
G1 X98.131 Y120.498 E14.96886
G1 X98.087 Y119.822 E14.99139
G1 X98.087 Y115.179 E15.14582
G1 X98.127 Y114.536 E15.16725
G1 X98.246 Y113.902 E15.1887
G1 X98.443 Y113.288 E15.21015
G1 X98.714 Y112.703 E15.23159
G1 X99.056 Y112.156 E15.25305
G1 X99.488 Y111.628 E15.27574
G1 X104.457 Y106.312 E15.51777
M204 S5000
M205 X30 Y30
G0 F3600 X106.702 Y111.787
M204 S500
M205 X20 Y20
;TYPE:SUPPORT
G1 F1800 X106.77 Y111.939 E15.5233
G1 X107.132 Y112.594 E15.5482
G1 X107.357 Y112.923 E15.56145
G1 X107.599 Y113.229 E15.57443
G1 X107.875 Y113.528 E15.58796
G1 X108.297 Y113.876 E15.60615
G1 X109.507 Y114.496 E15.65138
G1 X109.546 Y114.539 E15.65331
G1 X109.556 Y114.581 E15.65474
G1 X109.551 Y114.625 E15.65621
G1 X109.479 Y114.845 E15.66391
G1 X107.782 Y115.023 E15.72067
G1 X107.367 Y115.058 E15.73452
G1 X107.282 Y115.075 E15.7374
G1 X103.644 Y115.458 E15.85907
G1 X103.518 Y115.209 E15.86835
G1 X106.702 Y111.787 E16.02382
M204 S5000
M205 X30 Y30
G0 F3600 X106.68 Y112.107
M204 S500
M205 X20 Y20
G1 F1800 X106.68 Y114.978 E16.11931
M204 S5000
M205 X30 Y30
G0 F3600 X104.228 Y114.681
M204 S500
M205 X20 Y20
G1 F1800 X109.363 Y114.681 E16.2901
M204 S5000
M205 X30 Y30
G0 F3600 X109.347 Y114.698
M204 S500
M205 X20 Y20
G1 F1800 X109.347 Y114.594 E16.29356
M204 S5000
M205 X30 Y30
G0 F3600 X104.013 Y114.911
M204 S500
M205 X20 Y20
G1 F1800 X104.013 Y115.258 E16.3051
M204 S5000
M205 X30 Y30
G0 F3600 X103.642 Y119.542
M204 S500
M205 X20 Y20
G1 F1800 X107.282 Y119.925 E16.42683
G1 X107.372 Y119.942 E16.42988
G1 X107.771 Y119.976 E16.4432
G1 X109.48 Y120.156 E16.50035
G1 X109.551 Y120.373 E16.50795
G1 X109.555 Y120.434 E16.50998
G1 X109.529 Y120.485 E16.51188
G1 X109.509 Y120.502 E16.51276
G1 X108.403 Y121.065 E16.55403
G1 X108.194 Y121.2 E16.56231
G1 X107.857 Y121.49 E16.5771
G1 X107.477 Y121.917 E16.59611
G1 X107.253 Y122.223 E16.60872
G1 X107.039 Y122.559 E16.62197
G1 X106.847 Y122.908 E16.63522
G1 X106.705 Y123.218 E16.64656
G1 X103.518 Y119.792 E16.80219
G1 X103.642 Y119.542 E16.81147
M204 S5000
M205 X30 Y30
G0 F3600 X104.013 Y119.744
M204 S500
M205 X20 Y20
G1 F1800 X104.013 Y120.089 E16.82295
M204 S5000
M205 X30 Y30
G0 F3600 X103.942 Y120.015
M204 S500
M205 X20 Y20
G1 F1800 X106.606 Y120.015 E16.91155
M204 S5000
M205 X30 Y30
G0 F3600 X106.68 Y120.023
M204 S500
M205 X20 Y20
G1 F1800 X106.68 Y122.887 E17.00681
M204 S5000
M205 X30 Y30
G0 F3600 X106.789 Y122.682
M204 S500
M205 X20 Y20
G1 F1800 X106.423 Y122.682 E17.01898
M204 S5000
M205 X30 Y30
G0 F3600 X109.347 Y120.406
M204 S500
M205 X20 Y20
G1 F1800 X109.347 Y120.302 E17.02244
M204 S5000
M205 X30 Y30
G1 F2400 E12.02244
G0 F3600 X109.803 Y120.273
G0 X109.847 Y120.272
G0 X115.507 Y119.935
G0 X115.551 Y119.933
G0 X115.988 Y119.907
M204 S500
M205 X20 Y20
G1 F2400 E17.02244
G1 F1800 X116.958 Y120.003 E17.05486
G1 X117.077 Y120.04 E17.05901
G1 X117.433 Y120.068 E17.07088
G1 X117.613 Y120.067 E17.07687
G1 X118.107 Y120.115 E17.09338
G1 X118.5 Y119.973 E17.10728
G1 X119.001 Y119.915 E17.12405
G1 X118.867 Y120 E17.12933
G1 X118.547 Y120.149 E17.14107
G1 X118.202 Y120.261 E17.15313
G1 X117.859 Y120.326 E17.16474
G1 X117.504 Y120.347 E17.17657
G1 X117.141 Y120.324 E17.18867
G1 X116.792 Y120.259 E17.20048
G1 X116.452 Y120.148 E17.21237
G1 X116.132 Y119.999 E17.22411
G1 X115.988 Y119.907 E17.2298
M204 S5000
M205 X30 Y30
G0 F3600 X115.988 Y115.093
M204 S500
M205 X20 Y20
G1 F1800 X116.128 Y115.005 E17.2353
G1 X116.458 Y114.85 E17.24742
G1 X116.607 Y114.797 E17.25268
G1 X116.966 Y114.701 E17.26504
G1 X117.315 Y114.657 E17.27674
G1 X117.476 Y114.651 E17.2821
G1 X117.859 Y114.676 E17.29487
G1 X118.224 Y114.745 E17.30722
G1 X118.536 Y114.848 E17.31815
G1 X118.873 Y115.006 E17.33053
G1 X119.02 Y115.099 E17.33632
G1 X118.053 Y114.997 E17.36866
G1 X117.853 Y114.934 E17.37563
G1 X117.448 Y114.934 E17.3891
G1 X117.126 Y114.95 E17.39982
G1 X116.972 Y114.991 E17.40512
G1 X115.988 Y115.093 E17.43803
M204 S5000
M205 X30 Y30
G1 F2400 E12.43803
G0 F3600 X119.256 Y114.923
G0 X119.3 Y114.922
G0 X125.127 Y114.622
G0 X125.171 Y114.621
G0 X125.443 Y114.607
M204 S500
M205 X20 Y20
G1 F2400 E17.43803
G1 F1800 X125.446 Y114.556 E17.43973
G1 X125.483 Y114.503 E17.44188
G1 X126.597 Y113.935 E17.48347
G1 X126.806 Y113.8 E17.49174
G1 X127.143 Y113.51 E17.50653
G1 X127.523 Y113.083 E17.52554
G1 X127.747 Y112.777 E17.53815
G1 X127.961 Y112.441 E17.5514
G1 X128.153 Y112.092 E17.56465
G1 X128.294 Y111.782 E17.57598
G1 X131.483 Y115.207 E17.73163
G1 X131.359 Y115.457 E17.74091
G1 X127.703 Y115.072 E17.86318
G1 X127.629 Y115.058 E17.86569
G1 X127.288 Y115.029 E17.87707
G1 X125.521 Y114.844 E17.93616
G1 X125.443 Y114.607 E17.94446
M204 S5000
M205 X30 Y30
G0 F3600 X125.636 Y114.681
M204 S500
M205 X20 Y20
G1 F1800 X130.777 Y114.681 E18.11545
M204 S5000
M205 X30 Y30
G0 F3600 X130.683 Y114.583
M204 S500
M205 X20 Y20
G1 F1800 X130.683 Y115.223 E18.13674
M204 S5000
M205 X30 Y30
G0 F3600 X128.016 Y114.944
M204 S500
M205 X20 Y20
G1 F1800 X128.016 Y112.652 E18.21297
M204 S5000
M205 X30 Y30
G1 F2400 E13.21297
G0 F3600 X130.137 Y116.617
G0 X130.138 Y118.374
G0 X129.913 Y118.763
G0 X127.703 Y119.928
M204 S500
M205 X20 Y20
G1 F2400 E18.21297
G1 F1800 X131.359 Y119.543 E18.33524
G1 X131.484 Y119.794 E18.34457
G1 X128.3 Y123.216 E18.50003
G1 X128.23 Y123.061 E18.50569
G1 X127.868 Y122.406 E18.53058
G1 X127.643 Y122.077 E18.54384
G1 X127.401 Y121.771 E18.55681
G1 X127.124 Y121.471 E18.57039
G1 X126.703 Y121.124 E18.58854
G1 X125.492 Y120.504 E18.63379
G1 X125.453 Y120.46 E18.63574
G1 X125.444 Y120.422 E18.63704
G1 X125.449 Y120.375 E18.63861
G1 X125.519 Y120.157 E18.64623
G1 X127.286 Y119.971 E18.70533
G1 X127.633 Y119.942 E18.71691
G1 X127.703 Y119.928 E18.71928
M204 S5000
M205 X30 Y30
G0 F3600 X128.016 Y120.055
M204 S500
M205 X20 Y20
G1 F1800 X128.016 Y122.343 E18.79538
M204 S5000
M205 X30 Y30
G0 F3600 X128.202 Y122.682
M204 S500
M205 X20 Y20
G1 F1800 X128.578 Y122.682 E18.80789
M204 S5000
M205 X30 Y30
G0 F3600 X128.396 Y120.015
M204 S500
M205 X20 Y20
G1 F1800 X131.059 Y120.015 E18.89646
M204 S5000
M205 X30 Y30
G0 F3600 X130.683 Y119.777
M204 S500
M205 X20 Y20
G1 F1800 X130.683 Y120.422 E18.91791
M204 S5000
M205 X30 Y30
G1 F2400 E13.91791
;MESH:fitting_in_gear.stl
G0 F3600 X128.486 Y119.48
G0 X127.813 Y118.349
G0 X121.945 Y117.233
G0 X121.844 Y117.234
M204 S500
M205 X20 Y20
;TYPE:WALL-INNER
G1 F2400 E18.91791
