;FLAVOR:Marlin
;TIME:4038
;Filament used: 4.2531m
;Layer height: 0.2
;Generated with Cura_SteamEngine 4.0.0
M140 S60
M105
M190 S60
M104 S200
M105
M109 S200
M82 ;absolute extrusion mode
; Ender 3 Custom Start G-code
G28 ; Home all axes
G92 E0 ; Reset Extruder
G1 Z2.0 F3000 ; Move Z Axis up little to prevent scratching of Heat Bed
G1 X0.1 Y20 Z0.3 F5000.0 ; Move to start position
G1 X0.1 Y200.0 Z0.3 F1500.0 E15 ; Draw the first line
G1 X0.4 Y200.0 Z0.3 F5000.0 ; Move to side a little
G1 X0.4 Y20 Z0.3 F1500.0 E30 ; Draw the second line
G92 E0 ; Reset Extruder
G1 Z2.0 F3000 ; Move Z Axis up little to prevent scratching of Heat Bed
; End of custom start GCode
G92 E0
G1 F2400 E-5
;LAYER_COUNT:41
;LAYER:0
M107
M204 S5000
M205 X30 Y30
G0 F3600 X81.237 Y47.814 Z0.2
M204 S500
M205 X20 Y20
;TYPE:SKIRT
G1 F2400 E0
G1 F1800 X81.636 Y47.186 E0.02475
G1 X83.583 Y44.482 E0.13557
G1 X84.033 Y43.926 E0.15936
G1 X84.636 Y43.342 E0.18728
G1 X88.198 Y40.32 E0.34265
G1 X92.448 Y36.308 E0.53704
G1 X92.995 Y35.847 E0.56083
G1 X93.615 Y35.434 E0.58561
G1 X96.487 Y33.758 E0.69621
G1 X97.124 Y33.433 E0.71999
G1 X97.911 Y33.145 E0.74786
G1 X102.427 Y31.82 E0.9044
G1 X107.924 Y29.891 E1.09816
G1 X108.611 Y29.692 E1.12195
G1 X109.156 Y29.592 E1.14038
G1 X110.829 Y29.358 E1.19656
G1 X111.21 Y29.316 E1.20931
G1 X112.862 Y29.185 E1.26443
G1 X113.577 Y29.168 E1.28822
G1 X114.23 Y29.223 E1.31001
G1 X118.709 Y29.832 E1.46036
G1 X124.681 Y30.322 E1.65965
G1 X125.389 Y30.421 E1.68343
G1 X126.106 Y30.605 E1.70805
G1 X129.262 Y31.614 E1.81826
G1 X129.93 Y31.87 E1.84205
G1 X130.672 Y32.262 E1.86996
G1 X134.662 Y34.722 E2.02586
G1 X139.793 Y37.526 E2.22034
G1 X140.4 Y37.903 E2.24411
G1 X140.987 Y38.369 E2.26904
G1 X143.484 Y40.599 E2.38038
G1 X143.99 Y41.104 E2.40416
G1 X144.556 Y41.836 E2.43494
G1 X145.533 Y43.31 E2.49375
G1 X148.685 Y47.719 E2.67402
G1 X150.631 Y50.201 E2.77892
G1 X151.041 Y50.788 E2.80273
G1 X151.428 Y51.517 E2.83018
G1 X152.791 Y54.537 E2.94039
G1 X153.049 Y55.205 E2.9642
G1 X153.255 Y56.024 E2.99229
G1 X154.078 Y60.549 E3.14526
G1 X155.445 Y66.325 E3.34268
G1 X155.571 Y67.029 E3.36647
G1 X155.617 Y67.768 E3.39109
G1 X155.633 Y71.1 E3.50192
G1 X155.596 Y71.815 E3.52573
G1 X155.47 Y72.564 E3.55099
G1 X153.804 Y79.814 E3.79841
G1 X152.41 Y87.499 E4.05819
G1 X151.7 Y92.787 E4.23565
G1 X151.294 Y98.055 E4.41138
G1 X151.187 Y103.358 E4.58779
G1 X151.379 Y108.666 E4.76446
G1 X151.875 Y114.265 E4.95141
G1 X151.9 Y114.841 E4.97058
G1 X151.89 Y120.502 E5.15887
G1 X151.849 Y121.216 E5.18266
G1 X151.728 Y121.921 E5.20645
G1 X151.53 Y122.609 E5.23026
G1 X151.256 Y123.269 E5.25403
G1 X150.91 Y123.895 E5.27782
G1 X150.655 Y124.271 E5.29293
G1 X147.825 Y128.138 E5.45231
G1 X144.929 Y132.559 E5.62809
G1 X142.278 Y137.153 E5.8045
G1 X139.902 Y141.868 E5.98011
G1 X137.77 Y146.771 E6.15794
G1 X136.817 Y149.239 E6.24593
G1 X133.581 Y158.402 E6.56914
G1 X131.897 Y164.145 E6.76819
G1 X131.657 Y164.82 E6.79202
G1 X131.344 Y165.463 E6.81581
G1 X131.034 Y165.963 E6.83537
G1 X129.976 Y167.507 E6.89763
G1 X129.55 Y168.061 E6.92087
G1 X128.705 Y169.044 E6.96398
G1 X128.209 Y169.559 E6.98777
G1 X127.46 Y170.158 E7.01966
G1 X122.933 Y173.248 E7.20197
G1 X118.255 Y176.851 E7.39836
G1 X117.665 Y177.256 E7.42216
G1 X117.033 Y177.591 E7.44595
G1 X116.538 Y177.795 E7.46376
G1 X114.82 Y178.42 E7.52456
G1 X114.317 Y178.58 E7.54212
G1 X113.126 Y178.905 E7.58318
G1 X112.426 Y179.055 E7.60699
G1 X111.715 Y179.125 E7.63075
G1 X111.243 Y179.128 E7.64645
G1 X105.84 Y178.961 E7.82624
G1 X99.703 Y179.131 E8.03044
G1 X98.988 Y179.11 E8.05423
G1 X98.28 Y179.011 E8.078
G1 X97.55 Y178.82 E8.1031
G1 X94.7 Y177.895 E8.20276
G1 X94.033 Y177.637 E8.22655
G1 X93.399 Y177.306 E8.25033
G1 X92.686 Y176.812 E8.27918
G1 X90.428 Y175.012 E8.37523
G1 X86.085 Y171.849 E8.55393
G1 X83.488 Y170.129 E8.65753
G1 X82.915 Y169.701 E8.68132
G1 X82.392 Y169.212 E8.70513
G1 X81.881 Y168.604 E8.73155
G1 X80.291 Y166.459 E8.82035
G1 X79.897 Y165.862 E8.84414
G1 X79.685 Y165.465 E8.85911
G1 X79.458 Y165.002 E8.87626
G1 X79.18 Y164.344 E8.90002
G1 X79.062 Y163.982 E8.91269
G1 X77.524 Y158.726 E9.09483
G1 X75.542 Y153.176 E9.29084
G1 X75.339 Y152.49 E9.31464
G1 X75.215 Y151.786 E9.33841
G1 X75.169 Y151.048 E9.36301
G1 X75.157 Y148.029 E9.46342
G1 X75.194 Y147.315 E9.4872
G1 X75.311 Y146.609 E9.511
G1 X75.56 Y145.769 E9.54014
G1 X76.383 Y143.56 E9.61855
G1 X78.034 Y138.511 E9.79523
G1 X79.416 Y133.304 E9.97441
G1 X79.96 Y130.83 E10.05866
G1 X80.886 Y125.574 E10.23617
G1 X81.509 Y120.309 E10.4125
G1 X81.833 Y115.032 E10.58835
G1 X81.858 Y109.729 E10.76473
G1 X81.584 Y104.448 E10.94061
G1 X81.012 Y99.193 E11.11643
G1 X80.135 Y93.922 E11.29415
G1 X79.606 Y91.408 E11.3796
G1 X78.989 Y88.833 E11.46767
G1 X77.505 Y83.637 E11.6474
G1 X76.149 Y79.432 E11.79435
G1 X76.003 Y78.903 E11.8126
G1 X75.795 Y77.999 E11.84345
G1 X75.74 Y77.734 E11.85245
G1 X75.44 Y76.12 E11.90706
G1 X75.349 Y75.41 E11.93086
G1 X75.338 Y74.673 E11.95538
G1 X75.42 Y72.789 E12.0181
G1 X75.454 Y67.377 E12.19811
G1 X75.337 Y64.299 E12.30056
G1 X75.349 Y63.584 E12.32434
G1 X75.471 Y62.729 E12.35307
G1 X76.152 Y59.515 E12.46234
G1 X76.339 Y58.825 E12.48611
G1 X76.648 Y58.064 E12.51343
G1 X78.622 Y53.967 E12.66469
G1 X80.925 Y48.458 E12.86329
G1 X81.237 Y47.814 E12.88709
M204 S5000
M205 X30 Y30
G0 F3600 X81.598 Y47.99
M204 S500
M205 X20 Y20
G1 F1800 X81.961 Y47.42 E12.90957
G1 X83.908 Y44.716 E13.02039
G1 X84.344 Y44.178 E13.04342
G1 X84.895 Y43.647 E13.06887
G1 X88.468 Y40.615 E13.22473
G1 X92.723 Y36.599 E13.41933
G1 X93.253 Y36.153 E13.44237
G1 X93.817 Y35.78 E13.46486
G1 X96.689 Y34.104 E13.57546
G1 X97.306 Y33.79 E13.59849
G1 X98.024 Y33.529 E13.6239
G1 X102.552 Y32.201 E13.78084
G1 X108.056 Y30.269 E13.97486
G1 X108.722 Y30.077 E13.99791
G1 X109.212 Y29.988 E14.01448
G1 X110.885 Y29.754 E14.07066
G1 X111.242 Y29.715 E14.08261
G1 X112.894 Y29.584 E14.13772
G1 X113.586 Y29.569 E14.16075
G1 X114.176 Y29.62 E14.18044
G1 X118.66 Y30.229 E14.33095
G1 X124.648 Y30.721 E14.53078
G1 X125.334 Y30.818 E14.55383
G1 X125.984 Y30.986 E14.57616
G1 X129.14 Y31.995 E14.68636
G1 X129.787 Y32.244 E14.70942
G1 X130.462 Y32.603 E14.73484
G1 X134.454 Y35.065 E14.89084
G1 X139.601 Y37.877 E15.08591
G1 X140.189 Y38.243 E15.10895
G1 X140.721 Y38.667 E15.13158
G1 X143.218 Y40.897 E15.24292
G1 X143.707 Y41.387 E15.26595
G1 X144.222 Y42.057 E15.29406
G1 X145.206 Y43.542 E15.35331
G1 X148.348 Y47.937 E15.533
G1 X150.317 Y50.448 E15.63913
G1 X150.712 Y51.016 E15.66214
G1 X151.064 Y51.682 E15.68719
G1 X152.427 Y54.702 E15.7974
G1 X152.675 Y55.348 E15.82041
G1 X152.861 Y56.096 E15.84605
G1 X153.683 Y60.617 E15.99888
G1 X155.056 Y66.417 E16.19712
G1 X155.176 Y67.099 E16.22015
G1 X155.217 Y67.77 E16.24251
G1 X155.233 Y71.102 E16.35334
G1 X155.196 Y71.794 E16.37639
G1 X155.081 Y72.475 E16.39936
G1 X153.412 Y79.74 E16.64729
G1 X152.015 Y87.441 E16.9076
G1 X151.301 Y92.757 E17.086
G1 X150.895 Y98.033 E17.262
G1 X150.786 Y103.365 E17.43938
G1 X150.979 Y108.678 E17.61621
G1 X151.477 Y114.301 E17.80396
G1 X151.5 Y114.841 E17.82194
G1 X151.49 Y120.502 E18.01022
G1 X151.449 Y121.193 E18.03325
G1 X151.328 Y121.875 E18.05629
G1 X151.13 Y122.538 E18.0793
G1 X150.856 Y123.175 E18.10236
G1 X150.332 Y124.034 E18.13583
G1 X147.51 Y127.89 E18.29476
G1 X144.586 Y132.353 E18.47222
G1 X141.925 Y136.966 E18.64934
G1 X139.536 Y141.707 E18.82592
G1 X137.401 Y146.615 E19.00394
G1 X136.435 Y149.118 E19.09317
G1 X133.204 Y158.266 E19.41585
G1 X131.513 Y164.033 E19.61574
G1 X131.28 Y164.685 E19.63877
G1 X130.973 Y165.306 E19.66181
G1 X130.704 Y165.737 E19.67871
G1 X129.646 Y167.281 E19.74096
G1 X129.247 Y167.8 E19.76274
G1 X128.402 Y168.783 E19.80585
G1 X127.921 Y169.281 E19.82888
G1 X127.235 Y169.828 E19.85806
G1 X122.701 Y172.923 E20.04065
G1 X118.011 Y176.535 E20.23754
G1 X117.439 Y176.925 E20.26056
G1 X116.826 Y177.246 E20.28358
G1 X116.401 Y177.419 E20.29884
G1 X114.683 Y178.044 E20.35964
G1 X114.212 Y178.194 E20.37608
G1 X113.021 Y178.519 E20.41715
G1 X112.343 Y178.663 E20.4402
G1 X111.653 Y178.727 E20.46325
G1 X111.256 Y178.728 E20.47645
G1 X105.842 Y178.561 E20.65661
G1 X99.692 Y178.731 E20.86123
G1 X99 Y178.71 E20.88426
G1 X98.315 Y178.609 E20.90729
G1 X97.674 Y178.44 E20.92934
G1 X94.824 Y177.515 E21.029
G1 X94.178 Y177.263 E21.05206
G1 X93.566 Y176.939 E21.07509
G1 X92.936 Y176.499 E21.10065
G1 X90.677 Y174.698 E21.19674
G1 X86.308 Y171.517 E21.37649
G1 X83.709 Y169.795 E21.48019
G1 X83.154 Y169.38 E21.50324
G1 X82.652 Y168.904 E21.52625
G1 X82.202 Y168.366 E21.54957
G1 X80.612 Y166.221 E21.63838
G1 X80.232 Y165.642 E21.66141
G1 X80.045 Y165.289 E21.6747
G1 X79.818 Y164.826 E21.69185
G1 X79.446 Y163.869 E21.726
G1 X77.905 Y158.599 E21.90862
G1 X75.919 Y153.041 E22.10493
G1 X75.724 Y152.377 E22.12795
G1 X75.607 Y151.694 E22.15099
G1 X75.569 Y151.047 E22.17255
G1 X75.557 Y148.028 E22.27296
G1 X75.594 Y147.336 E22.29601
G1 X75.711 Y146.654 E22.31903
G1 X75.935 Y145.909 E22.3449
G1 X76.756 Y143.705 E22.42313
G1 X78.421 Y138.611 E22.60138
G1 X79.804 Y133.402 E22.78063
G1 X80.351 Y130.916 E22.86529
G1 X81.284 Y125.619 E23.04418
G1 X81.907 Y120.362 E23.22026
G1 X82.233 Y115.041 E23.39756
G1 X82.258 Y109.727 E23.57431
G1 X81.983 Y104.42 E23.75106
G1 X81.408 Y99.138 E23.92778
G1 X80.526 Y93.843 E24.10632
G1 X79.993 Y91.305 E24.19257
G1 X79.373 Y88.721 E24.28096
G1 X77.891 Y83.53 E24.46051
G1 X76.53 Y79.31 E24.60798
G1 X76.393 Y78.813 E24.62513
G1 X76.185 Y77.909 E24.65598
G1 X76.133 Y77.66 E24.66444
G1 X75.833 Y76.046 E24.71905
G1 X75.746 Y75.359 E24.74208
G1 X75.738 Y74.69 E24.76433
G1 X75.82 Y72.808 E24.82699
G1 X75.854 Y67.387 E25.00729
G1 X75.736 Y64.284 E25.11057
G1 X75.75 Y63.592 E25.13359
G1 X75.862 Y62.812 E25.1598
G1 X76.543 Y59.598 E25.26907
G1 X76.726 Y58.93 E25.29211
G1 X77.008 Y58.237 E25.31699
G1 X78.99 Y54.124 E25.46885
G1 X81.294 Y48.612 E25.66755
G1 X81.598 Y47.99 E25.69058
M204 S5000
M205 X30 Y30
G0 F3600 X81.958 Y48.166
M204 S500
M205 X20 Y20
G1 F1800 X82.286 Y47.654 E25.7108
G1 X84.233 Y44.95 E25.82162
G1 X84.655 Y44.431 E25.84387
G1 X85.154 Y43.952 E25.86688
G1 X88.718 Y40.927 E26.02236
G1 X92.997 Y36.889 E26.21804
G1 X93.51 Y36.46 E26.24029
G1 X94.018 Y36.125 E26.26053
G1 X96.89 Y34.449 E26.37112
G1 X97.487 Y34.147 E26.39338
G1 X98.137 Y33.912 E26.41637
G1 X102.677 Y32.58 E26.57373
G1 X108.188 Y30.646 E26.76799
G1 X108.832 Y30.463 E26.79025
G1 X109.267 Y30.384 E26.80496
G1 X110.94 Y30.15 E26.86115
G1 X111.273 Y30.114 E26.87229
G1 X112.925 Y29.983 E26.9274
G1 X113.594 Y29.97 E26.94966
G1 X114.122 Y30.016 E26.96729
G1 X118.63 Y30.629 E27.1186
G1 X124.615 Y31.12 E27.31833
G1 X125.278 Y31.214 E27.34061
G1 X125.862 Y31.367 E27.36069
G1 X129.018 Y32.376 E27.47089
G1 X129.642 Y32.617 E27.49314
G1 X130.252 Y32.943 E27.51614
G1 X134.261 Y35.415 E27.67279
G1 X139.409 Y38.228 E27.86791
G1 X139.976 Y38.583 E27.89016
G1 X140.454 Y38.965 E27.91051
G1 X142.951 Y41.195 E28.02186
G1 X143.423 Y41.67 E28.04413
G1 X143.889 Y42.278 E28.06961
G1 X144.871 Y43.76 E28.12874
G1 X148.041 Y48.195 E28.31006
G1 X150.002 Y50.695 E28.41574
G1 X150.382 Y51.245 E28.43797
G1 X150.699 Y51.846 E28.46057
G1 X152.062 Y54.866 E28.57077
G1 X152.301 Y55.491 E28.59303
G1 X152.468 Y56.168 E28.61622
G1 X153.293 Y60.702 E28.7695
G1 X154.667 Y66.509 E28.96797
G1 X154.781 Y67.169 E28.99025
G1 X154.817 Y67.772 E29.01034
G1 X154.833 Y71.104 E29.12116
G1 X154.796 Y71.772 E29.14342
G1 X154.691 Y72.385 E29.1641
G1 X153.019 Y79.661 E29.41241
G1 X151.618 Y87.385 E29.6735
G1 X150.904 Y92.705 E29.85203
G1 X150.495 Y98.013 E30.0291
G1 X150.386 Y103.371 E30.20735
G1 X150.58 Y108.708 E30.38497
G1 X151.078 Y114.336 E30.57289
G1 X151.1 Y114.84 E30.58967
G1 X151.09 Y120.501 E30.77796
G1 X151.049 Y121.169 E30.80022
G1 X150.928 Y121.827 E30.82247
G1 X150.73 Y122.466 E30.84472
G1 X150.457 Y123.077 E30.86698
G1 X150.009 Y123.798 E30.89521
G1 X147.179 Y127.666 E31.05462
G1 X144.243 Y132.147 E31.2328
G1 X141.578 Y136.765 E31.41013
G1 X139.172 Y141.54 E31.58797
G1 X137.023 Y146.481 E31.76718
G1 X136.071 Y148.947 E31.8551
G1 X132.82 Y158.152 E32.17979
G1 X131.129 Y163.92 E32.37971
G1 X130.903 Y164.55 E32.40197
G1 X130.603 Y165.148 E32.42423
G1 X130.375 Y165.51 E32.43846
G1 X129.317 Y167.054 E32.50071
G1 X128.944 Y167.539 E32.52106
G1 X128.099 Y168.522 E32.56417
G1 X127.633 Y169.003 E32.58645
G1 X127.009 Y169.497 E32.61292
G1 X122.477 Y172.591 E32.79543
G1 X117.767 Y176.218 E32.99315
G1 X117.214 Y176.593 E33.01538
G1 X116.619 Y176.901 E33.03766
G1 X116.264 Y177.044 E33.05039
G1 X114.546 Y177.669 E33.11119
G1 X114.106 Y177.808 E33.12654
G1 X112.915 Y178.133 E33.1676
G1 X112.26 Y178.271 E33.18987
G1 X111.268 Y178.328 E33.22291
G1 X105.843 Y178.16 E33.40344
G1 X99.681 Y178.331 E33.60846
G1 X99.012 Y178.309 E33.63073
G1 X98.351 Y178.208 E33.65297
G1 X97.797 Y178.059 E33.67205
G1 X94.947 Y177.134 E33.77171
G1 X94.324 Y176.89 E33.79396
G1 X93.735 Y176.574 E33.81619
G1 X93.185 Y176.187 E33.83856
G1 X90.904 Y174.368 E33.9356
G1 X86.543 Y171.193 E34.11501
G1 X83.93 Y169.462 E34.21926
G1 X83.395 Y169.06 E34.24152
G1 X82.912 Y168.597 E34.26377
G1 X82.523 Y168.128 E34.28404
G1 X80.933 Y165.983 E34.37285
G1 X80.568 Y165.422 E34.39511
G1 X80.404 Y165.113 E34.40674
G1 X80.177 Y164.65 E34.42389
G1 X79.83 Y163.757 E34.45576
G1 X78.289 Y158.49 E34.63828
G1 X76.295 Y152.907 E34.83546
G1 X76.108 Y152.265 E34.8577
G1 X75.999 Y151.604 E34.87998
G1 X75.969 Y151.045 E34.8986
G1 X75.957 Y148.026 E34.99902
G1 X75.994 Y147.358 E35.02127
G1 X76.111 Y146.699 E35.04353
G1 X76.309 Y146.049 E35.06613
G1 X77.137 Y143.828 E35.14497
G1 X78.802 Y138.733 E35.32325
G1 X80.197 Y133.476 E35.50415
G1 X80.743 Y130.993 E35.5887
G1 X81.679 Y125.684 E35.768
G1 X82.305 Y120.399 E35.94501
G1 X82.633 Y115.049 E36.12329
G1 X82.658 Y109.708 E36.30093
G1 X82.383 Y104.392 E36.47798
G1 X81.805 Y99.081 E36.65567
G1 X80.919 Y93.764 E36.83495
G1 X80.387 Y91.234 E36.92094
G1 X79.766 Y88.643 E37.00956
G1 X78.271 Y83.407 E37.19067
G1 X76.91 Y79.187 E37.33814
G1 X76.783 Y78.724 E37.35411
G1 X76.575 Y77.82 E37.38496
G1 X76.526 Y77.587 E37.39288
G1 X76.226 Y75.973 E37.44748
G1 X76.144 Y75.309 E37.46974
G1 X76.137 Y74.707 E37.48976
G1 X76.22 Y72.801 E37.55322
G1 X76.254 Y67.374 E37.73372
G1 X76.136 Y64.269 E37.83707
G1 X76.151 Y63.6 E37.85933
G1 X76.254 Y62.895 E37.88302
G1 X76.935 Y59.681 E37.99229
G1 X77.112 Y59.036 E38.01454
G1 X77.368 Y58.411 E38.037
G1 X79.355 Y54.288 E38.18923
G1 X81.663 Y48.766 E38.38829
G1 X81.958 Y48.166 E38.41053
M204 S5000
M205 X30 Y30
G0 F3600 X82.317 Y48.342
M204 S500
M205 X20 Y20
G1 F1800 X82.61 Y47.887 E38.42853
G1 X84.557 Y45.183 E38.53935
G1 X84.966 Y44.685 E38.56078
G1 X85.412 Y44.257 E38.58134
G1 X88.998 Y41.214 E38.73777
G1 X93.272 Y37.18 E38.93324
G1 X93.767 Y36.768 E38.95466
G1 X94.22 Y36.471 E38.97268
G1 X97.092 Y34.795 E39.08328
G1 X97.668 Y34.505 E39.10473
G1 X98.249 Y34.296 E39.12526
G1 X102.795 Y32.962 E39.28284
G1 X108.321 Y31.023 E39.47762
G1 X108.941 Y30.848 E39.49905
G1 X109.323 Y30.78 E39.51195
G1 X110.996 Y30.546 E39.56814
G1 X111.305 Y30.512 E39.57848
G1 X112.957 Y30.381 E39.6336
G1 X113.602 Y30.37 E39.65505
G1 X114.068 Y30.412 E39.67061
G1 X118.579 Y31.025 E39.82203
G1 X124.583 Y31.518 E40.0224
G1 X125.221 Y31.611 E40.04384
G1 X125.741 Y31.748 E40.06173
G1 X128.897 Y32.757 E40.17193
G1 X129.497 Y32.991 E40.19335
G1 X130.042 Y33.284 E40.21393
G1 X134.046 Y35.753 E40.37039
G1 X139.218 Y38.579 E40.56641
G1 X139.763 Y38.922 E40.58783
G1 X140.188 Y39.264 E40.60597
G1 X142.685 Y41.494 E40.71732
G1 X143.138 Y41.952 E40.73875
G1 X143.555 Y42.499 E40.76162
G1 X144.545 Y43.992 E40.82121
G1 X147.707 Y48.416 E41.00207
G1 X149.687 Y50.941 E41.10879
G1 X150.053 Y51.472 E41.13024
G1 X150.335 Y52.011 E41.15048
G1 X151.698 Y55.031 E41.26068
G1 X151.926 Y55.634 E41.28212
G1 X152.074 Y56.239 E41.30284
G1 X152.903 Y60.795 E41.45686
G1 X154.277 Y66.602 E41.65533
G1 X154.387 Y67.237 E41.67677
G1 X154.417 Y67.774 E41.69465
G1 X154.433 Y71.106 E41.80548
G1 X154.396 Y71.75 E41.82693
G1 X154.301 Y72.295 E41.84533
G1 X152.63 Y79.566 E42.09347
G1 X151.223 Y87.322 E42.35565
G1 X150.507 Y92.658 E42.53471
G1 X150.095 Y98.009 E42.71322
G1 X149.986 Y103.36 E42.89123
