;FLAVOR:Marlin
;TIME:436
;Filament used: 0.283431m
;Layer height: 0.2
;Generated with Cura_SteamEngine 4.0.0
M140 S60
M105
M190 S60
M104 S200
M105
M109 S200
M82 ;absolute extrusion mode
; Ender 3 Custom Start G-code
G28 ; Home all axes
G92 E0 ; Reset Extruder
G1 Z2.0 F3000 ; Move Z Axis up little to prevent scratching of Heat Bed
G1 X0.1 Y20 Z0.3 F5000.0 ; Move to start position
G1 X0.1 Y200.0 Z0.3 F1500.0 E15 ; Draw the first line
G1 X0.4 Y200.0 Z0.3 F5000.0 ; Move to side a little
G1 X0.4 Y20 Z0.3 F1500.0 E30 ; Draw the second line
G92 E0 ; Reset Extruder
G1 Z2.0 F3000 ; Move Z Axis up little to prevent scratching of Heat Bed
; End of custom start GCode
G92 E0
G1 F2400 E-5
;LAYER_COUNT:41
;LAYER:0
M107
M204 S5000
M205 X30 Y30
G0 F3600 X104.794 Y104.213 Z0.2
M204 S500
M205 X20 Y20
;TYPE:SKIRT
G1 F2400 E0
G1 F1800 X105.394 Y103.665 E0.02703
G1 X105.891 Y103.256 E0.04843
G1 X107.214 Y102.272 E0.10327
G1 X107.956 Y101.795 E0.13261
G1 X109.371 Y101.019 E0.18629
G1 X110.144 Y100.66 E0.21464
G1 X111.639 Y100.083 E0.26794
G1 X112.26 Y99.879 E0.28968
G1 X113.038 Y99.667 E0.3165
G1 X113.664 Y99.53 E0.33781
G1 X115.301 Y99.256 E0.39301
G1 X116.166 Y99.171 E0.42192
G1 X117.799 Y99.122 E0.47626
G1 X118.797 Y99.17 E0.50949
G1 X120.767 Y99.42 E0.57554
G1 X121.697 Y99.609 E0.6071
G1 X123.258 Y100.049 E0.66105
G1 X124.087 Y100.346 E0.69034
G1 X125.623 Y101.018 E0.7461
G1 X126.397 Y101.421 E0.77512
G1 X127.754 Y102.251 E0.82803
G1 X128.44 Y102.736 E0.85597
G1 X129.676 Y103.736 E0.90885
G1 X130.319 Y104.333 E0.93803
G1 X131.464 Y105.554 E0.99371
G1 X132.036 Y106.257 E1.02385
G1 X133.004 Y107.637 E1.07992
G1 X133.451 Y108.377 E1.10867
G1 X134.187 Y109.803 E1.16204
G1 X134.532 Y110.599 E1.1909
G1 X135.072 Y112.122 E1.24464
G1 X135.306 Y112.959 E1.27355
G1 X135.64 Y114.566 E1.32814
G1 X135.759 Y115.423 E1.35692
G1 X135.871 Y117.031 E1.41053
G1 X135.855 Y118.1 E1.44609
G1 X135.622 Y120.477 E1.52553
G1 X135.476 Y121.347 E1.55487
G1 X135.265 Y122.226 E1.58494
G1 X135.076 Y122.866 E1.60713
G1 X134.542 Y124.376 E1.6604
G1 X134.205 Y125.159 E1.68875
G1 X133.482 Y126.571 E1.74152
G1 X133.041 Y127.305 E1.77
G1 X132.104 Y128.654 E1.82463
G1 X131.558 Y129.336 E1.85368
G1 X130.468 Y130.521 E1.90723
G1 X129.831 Y131.125 E1.93643
G1 X128.54 Y132.19 E1.99209
G1 X127.827 Y132.7 E2.02125
G1 X126.441 Y133.555 E2.07542
G1 X125.665 Y133.963 E2.10458
G1 X124.174 Y134.621 E2.15878
G1 X123.369 Y134.914 E2.18727
G1 X121.831 Y135.359 E2.24053
G1 X120.982 Y135.543 E2.26942
G1 X119.348 Y135.783 E2.32435
G1 X118.483 Y135.851 E2.35321
G1 X116.898 Y135.867 E2.40593
G1 X116.052 Y135.819 E2.43411
G1 X114.458 Y135.623 E2.48753
G1 X113.794 Y135.506 E2.50995
G1 X112.931 Y135.306 E2.53942
G1 X112.302 Y135.126 E2.56118
G1 X110.793 Y134.609 E2.61423
G1 X110.191 Y134.368 E2.6358
G1 X109.45 Y134.027 E2.66293
G1 X108.892 Y133.736 E2.68386
G1 X107.536 Y132.942 E2.73612
G1 X106.817 Y132.452 E2.76506
G1 X105.512 Y131.427 E2.82025
G1 X104.854 Y130.832 E2.84976
G1 X103.7 Y129.633 E2.90511
G1 X103.14 Y128.965 E2.9341
G1 X102.19 Y127.662 E2.98774
G1 X101.724 Y126.923 E3.01679
G1 X100.939 Y125.463 E3.07193
G1 X100.58 Y124.67 E3.10088
G1 X100.019 Y123.167 E3.15424
G1 X99.826 Y122.559 E3.17545
G1 X99.619 Y121.773 E3.20249
G1 X99.519 Y121.33 E3.21759
G1 X99.367 Y120.525 E3.24484
G1 X99.281 Y119.899 E3.26586
G1 X99.142 Y118.32 E3.31858
G1 X99.124 Y117.452 E3.34745
G1 X99.204 Y115.784 E3.403
G1 X99.308 Y114.904 E3.43247
G1 X99.611 Y113.299 E3.48679
G1 X99.828 Y112.463 E3.51552
G1 X100.341 Y110.923 E3.56951
G1 X100.67 Y110.122 E3.59831
G1 X101.383 Y108.672 E3.65205
G1 X101.817 Y107.922 E3.68087
G1 X102.723 Y106.576 E3.73484
G1 X103.252 Y105.895 E3.76352
G1 X104.33 Y104.684 E3.81744
G1 X104.794 Y104.213 E3.83943
M204 S5000
M205 X30 Y30
G0 F3600 X105.064 Y104.509
M204 S500
M205 X20 Y20
G1 F1800 X105.664 Y103.961 E3.86646
G1 X106.129 Y103.577 E3.88652
G1 X107.452 Y102.593 E3.94136
G1 X108.148 Y102.146 E3.96887
G1 X109.563 Y101.37 E4.02255
G1 X110.288 Y101.033 E4.04914
G1 X111.783 Y100.456 E4.10244
G1 X112.366 Y100.265 E4.12284
G1 X113.144 Y100.053 E4.14966
G1 X113.731 Y99.924 E4.16965
G1 X115.368 Y99.65 E4.22485
G1 X116.178 Y99.571 E4.25192
G1 X117.811 Y99.522 E4.30626
G1 X118.746 Y99.567 E4.3374
G1 X120.716 Y99.817 E4.40344
G1 X121.589 Y99.994 E4.43307
G1 X123.15 Y100.434 E4.48701
G1 X123.927 Y100.712 E4.51446
G1 X125.463 Y101.384 E4.57022
G1 X126.189 Y101.763 E4.59746
G1 X127.546 Y102.593 E4.65037
G1 X128.189 Y103.046 E4.67653
G1 X129.425 Y104.046 E4.72941
G1 X130.028 Y104.607 E4.7568
G1 X131.173 Y105.828 E4.81248
G1 X131.708 Y106.486 E4.84068
G1 X132.676 Y107.866 E4.89675
G1 X133.096 Y108.56 E4.92373
G1 X133.832 Y109.986 E4.9771
G1 X134.155 Y110.733 E5.00417
G1 X134.695 Y112.256 E5.05792
G1 X134.914 Y113.04 E5.08499
G1 X135.248 Y114.647 E5.13958
G1 X135.359 Y115.451 E5.16658
G1 X135.471 Y117.059 E5.22019
G1 X135.457 Y118.061 E5.25352
G1 X135.224 Y120.438 E5.33296
G1 X135.087 Y121.253 E5.36044
G1 X134.876 Y122.132 E5.39051
G1 X134.699 Y122.732 E5.41132
G1 X134.165 Y124.242 E5.46459
G1 X133.849 Y124.977 E5.4912
G1 X133.126 Y126.389 E5.54396
G1 X132.713 Y127.077 E5.57065
G1 X131.776 Y128.426 E5.62528
G1 X131.264 Y129.065 E5.65251
G1 X130.174 Y130.25 E5.70606
G1 X129.576 Y130.816 E5.73345
G1 X128.285 Y131.881 E5.78911
G1 X127.617 Y132.36 E5.81645
G1 X126.231 Y133.215 E5.87062
G1 X125.503 Y133.597 E5.89796
G1 X124.012 Y134.255 E5.95216
G1 X123.258 Y134.53 E5.97886
G1 X121.72 Y134.975 E6.03211
G1 X120.924 Y135.147 E6.0592
G1 X119.29 Y135.387 E6.11413
G1 X118.479 Y135.451 E6.14119
G1 X116.894 Y135.467 E6.19391
G1 X116.101 Y135.422 E6.22032
G1 X114.507 Y135.226 E6.27374
G1 X113.884 Y135.116 E6.29478
G1 X113.021 Y134.916 E6.32424
G1 X112.431 Y134.747 E6.34466
G1 X110.922 Y134.23 E6.39771
G1 X110.359 Y134.005 E6.41788
G1 X109.618 Y133.664 E6.44501
G1 X109.094 Y133.391 E6.46466
G1 X107.738 Y132.597 E6.51692
G1 X107.064 Y132.138 E6.54404
G1 X105.759 Y131.113 E6.59924
G1 X105.142 Y130.555 E6.6269
G1 X103.988 Y129.356 E6.68225
G1 X103.463 Y128.73 E6.70943
G1 X102.513 Y127.427 E6.76306
G1 X102.076 Y126.733 E6.79034
G1 X101.291 Y125.273 E6.84547
G1 X100.955 Y124.53 E6.87259
G1 X100.394 Y123.027 E6.92595
G1 X100.213 Y122.457 E6.94584
G1 X100.006 Y121.671 E6.97288
G1 X99.912 Y121.256 E6.98703
G1 X99.76 Y120.451 E7.01428
G1 X99.679 Y119.864 E7.03399
G1 X99.54 Y118.285 E7.08671
G1 X99.524 Y117.472 E7.11375
G1 X99.604 Y115.804 E7.1693
G1 X99.701 Y114.978 E7.19696
G1 X100.004 Y113.373 E7.25128
G1 X100.208 Y112.59 E7.27819
G1 X100.721 Y111.05 E7.33218
G1 X101.029 Y110.298 E7.35921
G1 X101.742 Y108.848 E7.41295
G1 X102.149 Y108.146 E7.43994
G1 X103.055 Y106.8 E7.49391
G1 X103.55 Y106.161 E7.52079
G1 X104.628 Y104.95 E7.57472
G1 X105.064 Y104.509 E7.59534
M204 S5000
M205 X30 Y30
G0 F3600 X105.333 Y104.804
M204 S500
M205 X20 Y20
G1 F1800 X105.933 Y104.256 E7.62237
G1 X106.368 Y103.898 E7.64111
G1 X107.691 Y102.914 E7.69595
G1 X108.34 Y102.497 E7.7216
G1 X109.755 Y101.721 E7.77528
G1 X110.432 Y101.407 E7.8001
G1 X111.927 Y100.83 E7.8534
G1 X112.471 Y100.651 E7.87245
G1 X113.249 Y100.439 E7.89927
G1 X113.797 Y100.319 E7.91793
G1 X115.434 Y100.045 E7.97313
G1 X116.19 Y99.971 E7.99839
G1 X117.823 Y99.922 E8.05273
G1 X118.696 Y99.964 E8.0818
G1 X120.666 Y100.214 E8.14785
G1 X121.48 Y100.379 E8.17547
G1 X123.041 Y100.819 E8.22942
G1 X123.767 Y101.079 E8.25507
G1 X125.303 Y101.751 E8.31083
G1 X125.98 Y102.104 E8.33622
G1 X127.337 Y102.934 E8.38913
G1 X127.937 Y103.357 E8.41355
G1 X129.173 Y104.357 E8.46643
G1 X129.736 Y104.88 E8.49198
G1 X130.881 Y106.101 E8.54766
G1 X131.381 Y106.716 E8.57402
G1 X132.349 Y108.096 E8.63008
G1 X132.74 Y108.744 E8.65526
G1 X133.476 Y110.17 E8.70863
G1 X133.778 Y110.867 E8.7339
G1 X134.318 Y112.39 E8.78764
G1 X134.523 Y113.121 E8.81289
G1 X134.857 Y114.728 E8.86748
G1 X134.96 Y115.479 E8.8927
G1 X135.072 Y117.087 E8.94631
G1 X135.059 Y118.022 E8.97741
G1 X134.826 Y120.399 E9.05685
G1 X134.698 Y121.16 E9.08251
G1 X134.487 Y122.039 E9.11258
G1 X134.322 Y122.599 E9.132
G1 X133.788 Y124.109 E9.18527
G1 X133.493 Y124.794 E9.21007
G1 X132.77 Y126.206 E9.26284
G1 X132.384 Y126.849 E9.28778
G1 X131.447 Y128.198 E9.34241
G1 X130.97 Y128.794 E9.3678
G1 X129.88 Y129.979 E9.42135
G1 X129.322 Y130.508 E9.44692
G1 X128.031 Y131.573 E9.50259
G1 X127.407 Y132.019 E9.5281
G1 X126.021 Y132.874 E9.58226
G1 X125.342 Y133.231 E9.60778
G1 X123.851 Y133.889 E9.66198
G1 X123.146 Y134.145 E9.68693
G1 X121.608 Y134.59 E9.74018
G1 X120.866 Y134.752 E9.76544
G1 X119.232 Y134.992 E9.82037
G1 X118.475 Y135.051 E9.84563
G1 X116.89 Y135.067 E9.89835
G1 X116.15 Y135.025 E9.923
G1 X114.556 Y134.829 E9.97641
G1 X113.975 Y134.726 E9.99604
G1 X113.112 Y134.526 E10.0255
G1 X112.561 Y134.369 E10.04456
G1 X111.052 Y133.852 E10.09761
G1 X110.526 Y133.641 E10.11646
G1 X109.785 Y133.3 E10.14359
G1 X109.296 Y133.046 E10.16192
G1 X107.94 Y132.252 E10.21418
G1 X107.311 Y131.823 E10.23951
G1 X106.006 Y130.798 E10.2947
G1 X105.43 Y130.277 E10.32053
G1 X104.276 Y129.078 E10.37588
G1 X103.786 Y128.494 E10.40124
G1 X102.836 Y127.191 E10.45487
G1 X102.429 Y126.544 E10.48029
G1 X101.644 Y125.084 E10.53543
G1 X101.33 Y124.39 E10.56076
G1 X100.769 Y122.887 E10.61412
G1 X100.6 Y122.355 E10.63269
G1 X100.393 Y121.569 E10.65972
G1 X100.305 Y121.182 E10.67292
G1 X100.153 Y120.377 E10.70017
G1 X100.078 Y119.829 E10.71856
G1 X99.939 Y118.25 E10.77129
G1 X99.923 Y117.491 E10.79654
G1 X100.003 Y115.823 E10.85208
G1 X100.094 Y115.052 E10.8779
G1 X100.397 Y113.447 E10.93222
G1 X100.587 Y112.716 E10.95735
G1 X101.1 Y111.176 E11.01133
G1 X101.388 Y110.475 E11.03654
G1 X102.101 Y109.025 E11.09028
G1 X102.48 Y108.369 E11.11548
G1 X103.386 Y107.023 E11.16944
G1 X103.849 Y106.427 E11.19455
G1 X104.927 Y105.216 E11.24847
G1 X105.333 Y104.804 E11.26771
M204 S5000
M205 X30 Y30
G0 F3600 X105.603 Y105.099
M204 S500
M205 X20 Y20
G1 F1800 X106.203 Y104.551 E11.29474
G1 X106.607 Y104.219 E11.31213
G1 X107.93 Y103.235 E11.36697
G1 X108.533 Y102.848 E11.3908
G1 X109.948 Y102.072 E11.44448
G1 X110.576 Y101.78 E11.46751
G1 X112.071 Y101.203 E11.52081
G1 X112.576 Y101.037 E11.53849
G1 X113.354 Y100.825 E11.56531
G1 X113.863 Y100.713 E11.58264
G1 X115.5 Y100.439 E11.63785
G1 X116.202 Y100.37 E11.66131
G1 X117.835 Y100.321 E11.71565
G1 X118.646 Y100.36 E11.74265
G1 X120.616 Y100.61 E11.8087
G1 X121.372 Y100.764 E11.83436
G1 X122.933 Y101.204 E11.8883
G1 X123.606 Y101.445 E11.91208
G1 X125.142 Y102.117 E11.96784
G1 X125.771 Y102.445 E11.99144
G1 X127.128 Y103.275 E12.04434
G1 X127.686 Y103.668 E12.06704
G1 X128.922 Y104.668 E12.11992
G1 X129.444 Y105.154 E12.14365
G1 X130.589 Y106.375 E12.19932
G1 X131.053 Y106.946 E12.22379
G1 X132.021 Y108.326 E12.27986
G1 X132.385 Y108.927 E12.30322
G1 X133.121 Y110.353 E12.3566
G1 X133.401 Y111 E12.38005
G1 X133.941 Y112.523 E12.43379
G1 X134.131 Y113.203 E12.45727
G1 X134.465 Y114.81 E12.51187
G1 X134.561 Y115.507 E12.53527
G1 X134.673 Y117.115 E12.58888
G1 X134.661 Y117.983 E12.61775
G1 X134.428 Y120.36 E12.69719
G1 X134.309 Y121.067 E12.72104
G1 X134.098 Y121.946 E12.7511
G1 X133.944 Y122.466 E12.76914
G1 X133.41 Y123.976 E12.82241
G1 X133.137 Y124.612 E12.84543
G1 X132.414 Y126.024 E12.89819
G1 X132.056 Y126.62 E12.92132
G1 X131.119 Y127.969 E12.97595
G1 X130.675 Y128.523 E12.99956
G1 X129.585 Y129.708 E13.05311
G1 X129.067 Y130.199 E13.07685
G1 X127.776 Y131.264 E13.13251
G1 X127.197 Y131.679 E13.15621
G1 X125.811 Y132.534 E13.21037
G1 X125.18 Y132.865 E13.23407
G1 X123.689 Y133.523 E13.28828
G1 X123.035 Y133.761 E13.31142
G1 X121.497 Y134.206 E13.36468
G1 X120.808 Y134.356 E13.38813
G1 X119.174 Y134.596 E13.44306
G1 X118.47 Y134.651 E13.46654
G1 X116.885 Y134.667 E13.51926
G1 X116.198 Y134.628 E13.54215
G1 X114.604 Y134.432 E13.59557
G1 X114.065 Y134.337 E13.61377
G1 X113.202 Y134.137 E13.64324
G1 X112.691 Y133.99 E13.66092
G1 X111.182 Y133.473 E13.71397
G1 X110.693 Y133.278 E13.73148
G1 X109.952 Y132.937 E13.75861
G1 X109.498 Y132.7 E13.77565
G1 X108.142 Y131.906 E13.82791
G1 X107.558 Y131.508 E13.85142
G1 X106.253 Y130.483 E13.90661
G1 X105.718 Y130 E13.93058
G1 X104.564 Y128.801 E13.98593
G1 X104.109 Y128.258 E14.00949
G1 X103.159 Y126.955 E14.06313
G1 X102.781 Y126.355 E14.08671
G1 X101.996 Y124.895 E14.14185
G1 X101.704 Y124.25 E14.1654
G1 X101.143 Y122.747 E14.21875
G1 X100.986 Y122.253 E14.236
G1 X100.779 Y121.467 E14.26303
G1 X100.698 Y121.108 E14.27527
G1 X100.546 Y120.303 E14.30252
G1 X100.476 Y119.794 E14.31961
G1 X100.337 Y118.215 E14.37233
G1 X100.323 Y117.51 E14.39578
G1 X100.403 Y115.842 E14.45132
G1 X100.487 Y115.126 E14.4753
G1 X100.79 Y113.521 E14.52962
G1 X100.967 Y112.843 E14.55293
G1 X101.48 Y111.303 E14.60692
G1 X101.747 Y110.651 E14.63035
G1 X102.46 Y109.201 E14.68409
G1 X102.812 Y108.592 E14.70749
G1 X103.718 Y107.246 E14.76145
G1 X104.148 Y106.693 E14.78475
G1 X105.226 Y105.482 E14.83868
G1 X105.603 Y105.099 E14.85655
M204 S5000
M205 X30 Y30
G1 F2400 E9.85655
;MESH:bearing_holder_test.stl
G0 F3600 X106.262 Y111.663
G0 X107.383 Y112.288
G0 X106.543 Y115.489
G0 X106.368 Y117.097
G0 X106.426 Y118.712
G0 X106.719 Y120.301
G0 X107.632 Y123.005
G0 X107.546 Y123.054
M204 S500
M205 X20 Y20
;TYPE:WALL-INNER
G1 F2400 E14.85655
G1 F1800 X107.54 Y123.045 E14.85691
G1 X107.363 Y122.715 E14.86937
G1 X107.346 Y122.681 E14.87063
G1 X107.186 Y122.357 E14.88265
G1 X107.165 Y122.309 E14.88439
G1 X107.031 Y122.011 E14.89526
G1 X106.999 Y121.933 E14.89806
G1 X106.886 Y121.658 E14.90795
G1 X106.845 Y121.549 E14.91183
G1 X106.747 Y121.289 E14.92107
G1 X106.704 Y121.158 E14.92565
G1 X106.628 Y120.928 E14.93371
G1 X106.58 Y120.765 E14.93936
G1 X106.514 Y120.543 E14.94707
G1 X106.469 Y120.365 E14.95317
G1 X106.419 Y120.171 E14.95984
G1 X106.373 Y119.965 E14.96686
G1 X106.334 Y119.797 E14.97259
G1 X106.29 Y119.558 E14.98067
G1 X106.262 Y119.41 E14.98568
G1 X106.223 Y119.152 E14.99436
G1 X106.205 Y119.039 E14.99817
G1 X106.169 Y118.744 E15.00805
G1 X106.158 Y118.654 E15.01107
G1 X106.132 Y118.33 E15.02188
G1 X106.126 Y118.266 E15.02402
G1 X106.109 Y117.916 E15.03567
G1 X106.107 Y117.883 E15.03677
G1 X106.1 Y117.51 E15.04918
G1 X106.1 Y117.495 E15.04968
G1 X106.107 Y117.11 E15.06249
G1 X106.108 Y117.083 E15.06339
G1 X106.127 Y116.729 E15.07518
G1 X106.131 Y116.671 E15.07711
G1 X106.16 Y116.336 E15.08829
G1 X106.169 Y116.258 E15.09091
G1 X106.204 Y115.966 E15.10069
G1 X106.222 Y115.849 E15.10462
G1 X106.263 Y115.583 E15.11358
G1 X106.289 Y115.442 E15.11834
G1 X106.335 Y115.197 E15.12664
G1 X106.371 Y115.036 E15.13212
G1 X106.419 Y114.824 E15.13935
G1 X106.468 Y114.635 E15.14585
G1 X106.516 Y114.451 E15.15217
G1 X106.579 Y114.236 E15.15962
G1 X106.629 Y114.066 E15.16552
G1 X106.703 Y113.842 E15.17336
G1 X106.749 Y113.705 E15.17817
G1 X106.844 Y113.453 E15.18713
G1 X106.888 Y113.336 E15.19128
G1 X106.998 Y113.068 E15.20092
G1 X107.033 Y112.984 E15.20395
G1 X107.164 Y112.691 E15.21462
G1 X107.189 Y112.637 E15.2166
G1 X107.345 Y112.321 E15.22832
G1 X107.366 Y112.279 E15.22988
G1 X107.543 Y111.949 E15.24234
G1 X107.745 Y111.601 E15.25572
G1 X107.752 Y111.59 E15.25615
G1 X107.943 Y111.285 E15.26812
G1 X107.973 Y111.24 E15.26992
G1 X108.167 Y110.953 E15.28144
G1 X108.207 Y110.898 E15.28371
G1 X108.387 Y110.651 E15.29387
G1 X108.452 Y110.567 E15.2974
G1 X108.633 Y110.335 E15.30719
G1 X108.71 Y110.243 E15.31118
G1 X108.877 Y110.043 E15.31985
G1 X108.979 Y109.929 E15.32494
G1 X109.135 Y109.754 E15.33273
G1 X109.259 Y109.625 E15.33868
G1 X109.399 Y109.479 E15.34541
G1 X109.55 Y109.332 E15.35242
G1 X109.676 Y109.209 E15.35828
G1 X109.852 Y109.049 E15.36619
G1 X109.968 Y108.943 E15.37142
G1 X110.162 Y108.778 E15.37989
G1 X110.255 Y108.698 E15.38397
G1 X110.484 Y108.517 E15.39367
G1 X110.561 Y108.456 E15.39694
G1 X110.814 Y108.268 E15.40743
G1 X110.888 Y108.213 E15.41049
G1 X111.153 Y108.031 E15.42118
G1 X111.2 Y107.999 E15.42308
G1 X111.5 Y107.807 E15.43492
G1 X111.521 Y107.794 E15.43574
G1 X111.854 Y107.596 E15.44863
G1 X111.866 Y107.589 E15.44909
G1 X112.186 Y107.413 E15.46124
G1 X112.227 Y107.393 E15.46276
G1 X112.534 Y107.239 E15.47418
G1 X112.595 Y107.211 E15.47641
G1 X112.904 Y107.067 E15.48775
